x = 15908, y = 4744, rule = B3/S23
14488b2o14b3o8b2o$14488b2o12bo3bo8b2o$14501bo4bo$14501bo3bo2$14491b3o
7bo3bo$14489b2obob2o5bo4bo$14489b2o5bo5bo3bo$14489b2obob2o8b3o$14491b
3o3$14525b2o$14524bo2bo$14519bo7bo$14518bobo3bo2bo$14517b2ob2ob2ob2o$
14521bobo$14520b2ob2o78b2o14b3o8b2o$14603b2o12bo3bo8b2o$14616bo4bo$
14616bo3bo2$14518b3o3b3o79b3o7bo3bo$14517bo9bo76b2obob2o5bo4bo$14517bo
3bobo3bo76b2o5bo5bo3bo$14518b3o3b3o77b2obob2o8b3o$14519bo5bo80b3o3$
14640b2o$14639bo2bo$14634bo7bo$14633bobo3bo2bo$14632b2ob2ob2ob2o$
14636bobo$14635b2ob2o78b2o14b3o8b2o$14718b2o12bo3bo8b2o$14731bo4bo$
14518b2o211bo3bo$14518b2o$14633b3o3b3o79b3o7bo3bo$14632bo9bo76b2obob2o
5bo4bo$14632bo3bobo3bo76b2o5bo5bo3bo$14633b3o3b3o77b2obob2o8b3o$14634b
o5bo80b3o3$14755b2o$14754bo2bo$14749bo7bo$14748bobo3bo2bo$14747b2ob2ob
2ob2o$14751bobo$14750b2ob2o78b2o14b3o8b2o$14833b2o12bo3bo8b2o$14846bo
4bo$14633b2o211bo3bo$14633b2o$14748b3o3b3o79b3o7bo3bo$14747bo9bo76b2ob
ob2o5bo4bo$14747bo3bobo3bo76b2o5bo5bo3bo$14748b3o3b3o77b2obob2o8b3o$
14749bo5bo80b3o3$14870b2o$14846bo22bo2bo$14845b2o17bo7bo$14845bobo15bo
bo3bo2bo$14862b2ob2ob2ob2o$14866bobo$14833bo31b2ob2o78b2o14b3o8b2o$
14832bo115b2o12bo3bo8b2o$14832b3o126bo4bo$14748b2o211bo3bo$14748b2o$
14863b3o3b3o79b3o7bo3bo$14862bo9bo76b2obob2o5bo4bo$14857b2o3bo3bobo3bo
76b2o5bo5bo3bo$14856b2o5b3o3b3o77b2obob2o8b3o$14858bo5bo5bo80b3o3$
14985b2o$14984bo2bo$14979bo7bo$14978bobo3bo2bo$14977b2ob2ob2ob2o$
14981bobo$14980b2ob2o78b2o14b3o8b2o$14852b2o209b2o12bo3bo8b2o$14853b2o
221bo4bo$14852bo10b2o211bo3bo$14863b2o$14978b3o3b3o79b3o7bo3bo$14977bo
9bo76b2obob2o5bo4bo$14977bo3bobo3bo76b2o5bo5bo3bo$14978b3o3b3o77b2obob
2o8b3o$14979bo5bo80b3o3$15100b2o$15099bo2bo$15094bo7bo$15093bobo3bo2bo
$15092b2ob2ob2ob2o$15096bobo$15095b2ob2o78b2o14b3o8b2o$15178b2o12bo3bo
8b2o$15191bo4bo$14978b2o211bo3bo$14978b2o$14925bo167b3o3b3o79b3o7bo3bo
$14924bo167bo9bo76b2obob2o5bo4bo$14924b3o160b2o3bo3bobo3bo76b2o5bo5bo
3bo$15086b2o5b3o3b3o77b2obob2o8b3o$15088bo5bo5bo80b3o3$15215b2o$15214b
o2bo$15209bo7bo$15208bobo3bo2bo$15207b2ob2ob2ob2o$14913bo297bobo$
14913bobo262bo31b2ob2o78b2o14b3o8b2o$14913b2o167b2o93bo115b2o12bo3bo8b
2o$15083b2o92b3o126bo4bo$15082bo10b2o211bo3bo$15093b2o$15208b3o3b3o79b
3o7bo3bo$15207bo9bo76b2obob2o5bo4bo$15207bo3bobo3bo76b2o5bo5bo3bo$
15208b3o3b3o77b2obob2o8b3o$15209bo5bo80b3o$14902bo$14901bo$14901b3o
167bo94bo163b2o$15071b2o93bobo160bo2bo$15070bobo93b2o156bo7bo$15323bob
o3bo2bo$15322b2ob2ob2ob2o$15326bobo$15325b2ob2o78b2o14b3o8b2o$15408b2o
12bo3bo8b2o$15421bo4bo$15208b2o211bo3bo$14890bo317b2o$14890bobo262bo
167b3o3b3o79b3o7bo3bo$14890b2o167b2o93bo167bo9bo76b2obob2o5bo4bo$
15060b2o92b3o160b2o3bo3bobo3bo76b2o5bo5bo3bo$15059bo256b2o5b3o3b3o77b
2obob2o8b3o$15318bo5bo5bo80b3o2$14921b2o$14922b2o521b2o$14921bo522bo2b
o$15439bo7bo$15438bobo3bo2bo$15437b2ob2ob2ob2o$15143bo297bobo$15143bob
o262bo31b2ob2o78b2o14b3o8b2o$15143b2o167b2o93bo115b2o12bo3bo8b2o$
15313b2o92b3o126bo4bo$15312bo10b2o211bo3bo$14910bo412b2o$14910b2o526b
3o3b3o79b3o7bo3bo$14909bobo525bo9bo76b2obob2o5bo4bo$15437bo3bobo3bo76b
2o5bo5bo3bo$15438b3o3b3o77b2obob2o8b3o$15439bo5bo80b3o3$15301bo94bo
163b2o$15301b2o93bobo137bo22bo2bo$14729bo570bobo93b2o137b2o17bo7bo$
14729bobo803bobo15bobo3bo2bo$14729b2o167b2o652b2ob2ob2ob2o$14899b2o
655bobo$14898bo624bo31b2ob2o78b2o14b3o8b2o$15522bo115b2o12bo3bo8b2o$
15522b3o126bo4bo$15438b2o211bo3bo$15438b2o$15385bo167b3o3b3o79b3o7bo3b
o$15289b2o93bo167bo9bo76b2obob2o5bo4bo$14718bo571b2o92b3o160b2o3bo3bob
o3bo76b2o5bo5bo3bo$14717bo571bo256b2o5b3o3b3o77b2obob2o8b3o$14717b3o
167bo94bo565bo5bo5bo80b3o$14887b2o93bobo$14886bobo93b2o167b2o$15152b2o
262bo258b2o$15151bo264b2o233bo22bo2bo$14749bo665bobo232b2o17bo7bo$
14749b2o899bobo15bobo3bo2bo$14748bobo916b2ob2ob2ob2o$15373bo297bobo$
15373bobo262bo31b2ob2o78b2o14b3o8b2o$14706bo666b2o167b2o93bo115b2o12bo
3bo8b2o$14706bobo262bo571b2o92b3o126bo4bo$14706b2o262bo571bo10b2o211bo
3bo$14970b3o167bo94bo317b2o$15140b2o93bobo430b3o3b3o79b3o7bo3bo$15139b
obo93b2o167b2o261bo9bo76b2obob2o5bo4bo$15405b2o255b2o3bo3bobo3bo76b2o
5bo5bo3bo$14737b2o665bo256b2o5b3o3b3o77b2obob2o8b3o$14738b2o923bo5bo5b
o80b3o$14737bo2$14695bo835bo94bo163b2o$14694bo836b2o93bobo137bo22bo2bo
$14694b3o262bo570bobo93b2o137b2o17bo7bo$14959bobo262bo540bobo15bobo3bo
2bo$14959b2o167b2o93bo558b2ob2ob2ob2o$15129b2o92b3o167bo392bobo$15128b
o264b2o358bo31b2ob2o78b2o14b3o8b2o$14726bo665bobo262b2o93bo115b2o12bo
3bo8b2o$14726b2o930b2o92b3o126bo4bo$14725bobo929bo10b2o211bo3bo$15668b
2o$15615bo167b3o3b3o79b3o7bo3bo$14683bo835b2o93bo167bo9bo76b2obob2o5bo
4bo$14683bobo262bo571b2o92b3o160b2o3bo3bobo3bo76b2o5bo5bo3bo$14683b2o
262bo571bo256b2o5b3o3b3o77b2obob2o8b3o$14947b3o167bo94bo565bo5bo5bo80b
3o$15117b2o93bobo$15116bobo93b2o167b2o$14810bo571b2o262bo94bo163b2o$
14714b2o93bo571bo264b2o93bobo160bo2bo$14715b2o92b3o167bo665bobo93b2o
156bo7bo$14714bo264b2o917bobo3bo2bo$14978bobo262b2o652b2ob2ob2ob2o$
14672bo571b2o357bo297bobo$14671bo571bo359bobo294b2ob2o$14671b3o929b2o$
15201bo$15200bo582b2o$15200b3o262bo317b2o$15465bobo262bo167b3o3b3o$
14798bo666b2o167b2o93bo167bo9bo$14798bobo834b2o92b3o165bo3bobo3bo$
14798b2o167b2o665bo263b3o3b3o$14968b2o262bo666bo5bo$14967bo264b2o358bo
$15231bobo357bo$15591b3o3$15454bo$15453bo$14787bo665b3o167bo94bo$
14786bo836b2o93bobo$14786b3o167bo665bobo93b2o167b2o$14956b2o930b2o$
14955bobo262b2o665bo10b2o$15221b2o675b2o$15220bo4$15442bo$15442bobo
262bo$14775bo666b2o167b2o93bo$14775bobo262bo571b2o92b3o167bo$14775b2o
167b2o93bo571bo264b2o$14945b2o92b3o167bo665bobo$14944bo264b2o$15208bob
o262b2o$15474b2o357bo$14806b2o665bo359bobo$14807b2o262bo761b2o$14806bo
264b2o358bo$15070bobo357bo$14764bo665b3o262bo$14763bo931bobo$14763b3o
262bo666b2o167b2o$15028bobo262bo571b2o$15028b2o262bo571bo$15292b3o167b
o$15462b2o358bo$14795bo665bobo357bo$14795b2o1024b3o$14794bobo262b2o$
15060b2o$15059bo624bo$14752bo930bo$14752bobo262bo665b3o167bo$14752b2o
262bo836b2o$15016b3o262bo570bobo$15281bobo$15281b2o167b2o$14879bo571b
2o262bo94bo$14783b2o93bo571bo264b2o93bobo$14784b2o92b3o167bo665bobo93b
2o$14783bo264b2o$15047bobo$14741bo930bo$14740bo931bobo$14740b3o262bo
666b2o$15005bobo262bo$15005b2o262bo$15269b3o167bo$15439b2o358bo$14772b
o94bo570bobo262b2o93bo$14772b2o93bobo834b2o92b3o$14771bobo93b2o167b2o
665bo$15037b2o262bo$15036bo264b2o$14634bo94bo570bobo$14634b2o93bobo$
14633bobo93b2o167b2o$14899b2o357bo$14898bo359bobo262bo$15258b2o262bo$
14856bo665b3o167bo94bo$14855bo836b2o93bobo$14855b3o167bo665bobo93b2o$
15025b2o$15024bobo262b2o$14718bo571b2o$14622b2o93bo571bo$14623b2o92b3o
167bo$14622bo264b2o$14886bobo$15511bo$15511bobo262bo$14844bo666b2o167b
2o93bo$14844bobo834b2o92b3o$14844b2o834bo$15278bo$15278b2o$14611bo94bo
570bobo262b2o$14611b2o93bobo834b2o$14610bobo93b2o167b2o665bo$14876b2o$
14875bo624bo$14568bo930bo$14568bobo262bo665b3o$14568b2o262bo$14832b3o
262bo$15097bobo$15097b2o167b2o$15267b2o262bo$14599b2o665bo264b2o$
14600b2o262bo665bobo262b2o$14599bo264b2o930b2o$14863bobo262b2o665bo$
14557bo571b2o357bo$14556bo571bo359bobo$14556b3o262bo666b2o$14821bobo
262bo$14821b2o262bo$15085b3o262bo$15350bobo$15350b2o167b2o$14948bo571b
2o262bo$14852b2o93bo571bo264b2o$14853b2o92b3o167bo665bobo$14852bo264b
2o$14545bo570bobo$14545bobo262bo$14545b2o167b2o93bo$14715b2o92b3o262bo
$14714bo359bobo262bo$15074b2o262bo$15338b3o167bo$15508b2o$14841bo94bo
570bobo262b2o$14841b2o93bobo834b2o$14840bobo93b2o167b2o665bo$14534bo
571b2o262bo$14533bo571bo264b2o$14533b3o167bo94bo570bobo$14703b2o93bobo
262bo$14702bobo93b2o167b2o93bo$14968b2o92b3o262bo$14967bo359bobo$
15327b2o$14925bo835bo$14829b2o93bo836b2o$14830b2o92b3o167bo665bobo$
14829bo264b2o$15093bobo262b2o$14787bo571b2o262bo$14691b2o93bo571bo264b
2o$14692b2o92b3o167bo665bobo$14691bo264b2o358bo$14955bobo357bo$15315b
3o262bo$15580bobo$14818bo94bo666b2o167b2o$14818b2o93bobo834b2o$14817bo
bo93b2o834bo$15347bo$15347b2o$14680bo94bo570bobo262b2o$14680b2o93bobo
834b2o$14679bobo93b2o167b2o665bo$14945b2o$14944bo624bo$15568bo$14902bo
665b3o167bo$14806b2o93bo836b2o$14807b2o92b3o833bobo$14806bo$15335b2o$
14764bo571b2o262bo$14668b2o93bo571bo264b2o$14669b2o92b3o167bo665bobo$
14668bo264b2o$14932bobo262b2o$14626bo571b2o357bo$14625bo571bo359bobo$
14625b3o167bo761b2o167b2o$14795b2o358bo571b2o$14794bobo357bo571bo$
15154b3o2$14657bo94bo835b2o$14657b2o93bobo834b2o$14656bobo93b2o167b2o
665bo$14922b2o262bo$14921bo264b2o358bo$14519bo94bo570bobo262b2o93bo$
14519b2o93bobo834b2o92b3o167bo$14518bobo93b2o167b2o665bo264b2o$14784b
2o357bo570bobo$14783bo359bobo262bo$15143b2o262bo$15407b3o167bo$14645b
2o930b2o$14646b2o357bo570bobo$14645bo359bobo$15005b2o167b2o$14603bo
571b2o262bo$14507b2o93bo571bo264b2o$14508b2o92b3o167bo665bobo262b2o$
14507bo264b2o358bo571b2o$14771bobo357bo571bo$15131b3o262bo$15396bobo$
14634bo761b2o167b2o$14634b2o358bo571b2o$14633bobo357bo571bo$14993b3o
167bo$15163b2o$14496bo94bo570bobo262b2o$14496b2o93bobo834b2o262bo$
14495bobo93b2o167b2o665bo264b2o$14761b2o262bo94bo570bobo$14760bo264b2o
93bobo262bo$15024bobo93b2o262bo$15384b3o167bo$14622b2o930b2o$14623b2o
357bo570bobo$14622bo359bobo$14982b2o$15416bo$14484b2o930b2o$14485b2o
262bo94bo570bobo262b2o$14484bo264b2o93bobo834b2o$14748bobo93b2o167b2o
665bo$15014b2o262bo94bo$15013bo264b2o93bobo262bo$15277bobo93b2o167b2o
93bo$14971bo571b2o92b3o$14970bo571bo$14970b3o2$14473bo930b2o$14473b2o
358bo571b2o262bo$14472bobo357bo571bo264b2o$14832b3o167bo665bobo$15002b
2o$15001bobo262b2o$15267b2o262bo94bo$14599b2o665bo264b2o93bobo$14600b
2o928bobo93b2o$14599bo2$15393bo$15393b2o$14821bo570bobo262b2o$14821bob
o834b2o$14821b2o167b2o665bo$14991b2o262bo$14990bo264b2o358bo$14588bo
94bo570bobo262b2o93bo$14588b2o93bobo834b2o92b3o$14587bobo93b2o167b2o
665bo$14853b2o357bo$14852bo359bobo$15212b2o167b2o$14810bo571b2o262bo$
14809bo571bo264b2o$14809b3o262bo570bobo$15074bobo$14407bo666b2o167b2o$
14407bobo262bo571b2o262bo94bo$14407b2o167b2o93bo571bo264b2o93bobo$
14577b2o92b3o167bo665bobo93b2o$14576bo264b2o358bo$14840bobo262b2o93bo$
15106b2o92b3o167bo94bo$15105bo264b2o93bobo$14798bo570bobo93b2o167b2o$
14798bobo262bo571b2o$14798b2o262bo571bo$14396bo665b3o$14395bo$14395b3o
262bo835b2o$14660bobo834b2o$14660b2o167b2o665bo$14830b2o262bo94bo$
14829bo264b2o93bobo262bo$14427bo665bobo93b2o167b2o93bo$14427b2o930b2o
92b3o$14426bobo929bo$15051bo$15051bobo$14384bo666b2o$14384bobo262bo
835bo$14384b2o262bo836b2o$14648b3o167bo665bobo$14818b2o358bo$14817bobo
262b2o93bo$15083b2o92b3o167bo94bo$14415b2o665bo264b2o93bobo$14416b2o
262bo665bobo93b2o$14415bo264b2o358bo$14679bobo357bo$14373bo665b3o$
14372bo$14372b3o1098b2o$15474b2o$15473bo$15071bo$15071b2o358bo$14404bo
94bo570bobo262b2o93bo$14404b2o93bobo834b2o92b3o$14403bobo93b2o167b2o
665bo$14669b2o$14668bo$14361bo$14361bobo1098bo$14361b2o1099b2o$14890bo
570bobo$14890bobo$14890b2o$14488bo835bo$14392b2o93bo836b2o$14393b2o92b
3o167bo665bobo$14392bo264b2o$14656bobo262b2o$14350bo571b2o$14349bo571b
o$14349b3o$14879bo$14878bo$14878b3o2$14476bo835b2o$14476bobo262bo571b
2o$14476b2o167b2o93bo571bo$14646b2o92b3o167bo$14645bo264b2o358bo$
14338bo570bobo357bo$14338bobo928b3o$14338b2o$14867bo$14867bobo262bo$
14867b2o262bo$14465bo665b3o167bo$14464bo836b2o$14464b3o167bo94bo570bob
o$14634b2o93bobo$14633bobo93b2o167b2o$14899b2o357bo$14898bo359bobo262b
o$14496bo761b2o262bo$14496b2o358bo665b3o$14495bobo357bo$14855b3o262bo$
15120bobo$14453bo666b2o167b2o$14453bobo262bo571b2o$14453b2o167b2o93bo
571bo$14623b2o92b3o167bo$14622bo264b2o358bo$14886bobo357bo$14580bo665b
3o262bo$14484b2o93bo931bobo$14485b2o92b3o167bo761b2o$14484bo264b2o358b
o$14748bobo357bo$14442bo665b3o$14441bo$14441b3o167bo94bo$14611b2o93bob
o$14610bobo93b2o$15235bo$15235bobo262bo$14473bo94bo666b2o262bo$14473b
2o93bobo928b3o$14472bobo93b2o167b2o$14738b2o357bo$14737bo359bobo$
14430bo666b2o$14430bobo$14430b2o4$14557bo930bo$14461b2o93bo931bobo$
14462b2o92b3o167bo761b2o$14461bo264b2o$14725bobo$14419bo$14418bo$
14418b3o5$14450bo94bo$14450b2o93bobo$14449bobo93b2o167b2o$14715b2o$
14714bo$14312bo94bo$14312b2o93bobo1098bo$14311bobo93b2o1099b2o$14936bo
570bobo$14936bobo$14936b2o$14534bo$14438b2o93bo$14439b2o92b3o167bo94bo
$14438bo264b2o93bobo$14702bobo93b2o$14396bo930bo$14300b2o93bo931bobo$
14301b2o92b3o167bo761b2o167b2o$14300bo264b2o358bo571b2o$14564bobo357bo
571bo$14924b3o262bo$15189bobo$14522bo666b2o$14522bobo262bo$14522b2o
262bo$14786b3o$15316bo$14289bo94bo930bo$14289b2o93bobo262bo665b3o167bo
$14288bobo93b2o167b2o93bo836b2o$14554b2o92b3o262bo570bobo$14553bo359bo
bo262bo$14913b2o262bo$14511bo665b3o$14510bo$14510b3o262bo$14775bobo$
14775b2o$14373bo930bo$14277b2o93bo931bobo$14278b2o92b3o167bo94bo666b2o
167b2o$14277bo264b2o93bobo262bo571b2o$14541bobo93b2o262bo571bo$14901b
3o262bo$15166bobo$14499bo666b2o167b2o$14499bobo262bo571b2o$14499b2o
262bo571bo$14763b3o$15293bo$14266bo1025bo$14266b2o358bo665b3o$14265bob
o262b2o93bo$14531b2o92b3o$14530bo624bo$15154bo$14488bo665b3o167bo$
14487bo836b2o$14487b3o833bobo5$14519bo94bo$14519b2o93bobo$14518bobo93b
2o3$14381bo94bo835b2o$14381b2o93bobo834b2o$14380bobo93b2o167b2o665bo$
14646b2o$14645bo2$14603bo$14507b2o93bo$14508b2o92b3o$14507bo2$14465bo
835bo$14369b2o93bo836b2o$14370b2o92b3o167bo665bobo$14369bo264b2o358bo$
14633bobo357bo$14993b3o167bo$15163b2o$14496bo94bo570bobo$14496b2o93bob
o262bo$14495bobo93b2o262bo$14855b3o$15385bo$14358bo94bo930bo$14358b2o
93bobo928b3o$14357bobo93b2o167b2o$14623b2o357bo$14622bo359bobo262bo$
14982b2o167b2o93bo$14580bo571b2o92b3o$14484b2o93bo571bo$14485b2o92b3o
262bo$14484bo359bobo$14844b2o$14442bo930bo$14346b2o93bo931bobo$14347b
2o92b3o262bo666b2o$14346bo359bobo262bo$14706b2o262bo$14970b3o167bo94bo
$15140b2o93bobo$14473bo94bo570bobo93b2o$14473b2o93bobo262bo$14472bobo
93b2o262bo$14832b3o$15362bo$14335bo94bo930bo$14335b2o93bobo262bo665b3o
$14334bobo93b2o262bo$14694b3o262bo$14959bobo262bo$14959b2o167b2o93bo$
14557bo571b2o92b3o$14461b2o93bo571bo$14462b2o92b3o262bo$14461bo359bobo
$14821b2o167b2o$14419bo571b2o357bo$14323b2o93bo571bo359bobo$14324b2o
92b3o262bo666b2o$14323bo359bobo$14683b2o$15212bo$14185b2o1025bobo$
14186b2o262bo94bo666b2o167b2o$14185bo264b2o93bobo834b2o$14449bobo93b2o
834bo$14979bo$14979b2o$14312bo94bo570bobo$14312b2o93bobo262bo$14311bob
o93b2o262bo$14671b3o2$14174bo$14174b2o358bo835bo$14173bobo262b2o93bo
836b2o$14439b2o92b3o833bobo$14438bo$14967b2o$14968b2o$14300b2o665bo$
14301b2o357bo$14300bo359bobo$14660b2o2$14162b2o$14163b2o262bo94bo835b
2o$14162bo264b2o93bobo834b2o$14426bobo93b2o834bo$14956bo94bo$14956b2o
93bobo$14289bo665bobo93b2o$14289b2o358bo$14288bobo357bo$14648b3o167bo
94bo$14818b2o93bobo$14151bo665bobo93b2o$14151b2o358bo835bo$14150bobo
357bo836b2o$14510b3o833bobo$15040bo$15039bo$15039b3o167bo94bo$14277b2o
930b2o93bobo$14278b2o928bobo93b2o$14277bo624bo$14806b2o93bo$14807b2o
92b3o$14139b2o665bo$14140b2o357bo$14139bo359bobo262bo$14499b2o262bo$
14763b3o262bo$15028bobo262bo$14266bo761b2o167b2o93bo$14266b2o930b2o92b
3o$14265bobo929bo$14795bo94bo$14795b2o93bobo$14128bo665bobo93b2o$
14128b2o358bo$14127bobo357bo$14487b3o262bo$14752bobo262bo$14752b2o262b
o$15016b3o167bo94bo$15186b2o93bobo$15185bobo93b2o$14879bo$14783b2o93bo
$14784b2o92b3o$14783bo$14476bo$14476bobo262bo$14476b2o262bo$14740b3o$
15270bo$15174b2o93bo$15175b2o92b3o$15174bo3$15036b2o$14465bo571b2o262b
o$14464bo571bo264b2o$14464b3o167bo94bo570bobo$14634b2o93bobo$14633bobo
93b2o6$15025bo$15025b2o$14453bo570bobo262b2o$14453bobo834b2o$14453b2o
167b2o665bo$14623b2o$14622bo5$15109bo$15013b2o93bo$15014b2o92b3o167bo$
15013bo264b2o$14611bo665bobo$14611b2o358bo$14610bobo357bo$14970b3o2$
14568bo$14568bobo$14568b2o$15002bo94bo$15002b2o93bobo$15001bobo93b2o
167b2o$15267b2o$14599b2o665bo$14600b2o262bo94bo$14599bo264b2o93bobo$
14863bobo93b2o167b2o$14557bo571b2o$14461b2o93bo571bo$14462b2o92b3o262b
o$14461bo359bobo262bo$14821b2o262bo$15085b3o167bo$15255b2o$15254bobo$
14948bo$14852b2o93bo$14853b2o92b3o167bo$14852bo264b2o$14450bo94bo570bo
bo$14450b2o93bobo262bo$14449bobo93b2o262bo$14809b3o262bo$15074bobo$
15074b2o167b2o$15244b2o$15243bo$14841bo94bo$14841b2o93bobo$14840bobo
93b2o167b2o$14534bo571b2o$14438b2o93bo571bo$14439b2o92b3o262bo$14438bo
359bobo$14798b2o$15232bo$15232b2o$15231bobo2$14829b2o$14830b2o262bo$
14829bo264b2o$14427bo94bo570bobo$14427b2o93bobo262bo$14426bobo93b2o
167b2o93bo$14692b2o92b3o167bo$14691bo264b2o$14955bobo262b2o$15221b2o$
15220bo3$15082b2o$14511bo571b2o$14415b2o93bo571bo$14416b2o92b3o167bo$
14415bo264b2o$14679bobo262b2o$14945b2o262bo$14277b2o665bo264b2o$14278b
2o928bobo$14277bo2$15071bo94bo$15071b2o93bobo$15070bobo93b2o2$14668b2o
$14669b2o262bo94bo$14668bo264b2o93bobo$14266bo665bobo93b2o167b2o$
14266b2o930b2o$14265bobo262b2o665bo$14531b2o$14530bo624bo$15059b2o93bo
$15060b2o92b3o$15059bo$14657bo$14657b2o358bo$14656bobo262b2o93bo$
14922b2o92b3o167bo$14254b2o665bo264b2o$14255b2o262bo665bobo$14254bo
264b2o358bo$14518bobo262b2o93bo$14784b2o92b3o167bo94bo$14783bo264b2o
93bobo$15047bobo93b2o3$14910bo94bo$14910b2o93bobo$14243bo665bobo93b2o
167b2o$14243b2o358bo571b2o$14242bobo262b2o93bo571bo$14508b2o92b3o167bo
94bo$14507bo264b2o93bobo262bo$14771bobo93b2o167b2o93bo$15037b2o92b3o$
14369b2o665bo$14370b2o$14369bo624bo$14898b2o93bo$14899b2o92b3o167bo$
14231b2o665bo264b2o$14232b2o262bo94bo570bobo$14231bo264b2o93bobo262bo$
14495bobo93b2o167b2o93bo$14761b2o92b3o167bo$14093b2o665bo264b2o$14094b
2o262bo665bobo$14093bo264b2o$14357bobo$14887bo$14887b2o$14220bo665bobo
262b2o$14220b2o358bo571b2o$14219bobo262b2o93bo571bo$14485b2o92b3o167bo
94bo$14484bo264b2o93bobo$14082bo665bobo93b2o167b2o$14082b2o930b2o$
14081bobo262b2o665bo$14347b2o262bo$14346bo264b2o$14610bobo262b2o$
14876b2o262bo$14208b2o665bo264b2o$14209b2o357bo570bobo$14208bo359bobo$
14568b2o$15002bo$14070b2o930b2o$14071b2o262bo665bobo$14070bo264b2o$
14334bobo262b2o$14600b2o262bo$14599bo264b2o$14197bo665bobo$14197b2o
358bo$14196bobo357bo$14556b3o$15086bo$14059bo930b2o93bo$14059b2o930b2o
92b3o$14058bobo262b2o665bo$14324b2o262bo$14323bo264b2o$14587bobo262b2o
$14853b2o$14185b2o665bo$14186b2o$14185bo2$14979bo94bo$14047b2o930b2o
93bobo$14048b2o262bo665bobo93b2o$14047bo264b2o$14311bobo262b2o$14577b
2o262bo94bo$13909b2o665bo264b2o93bobo$13910b2o262bo665bobo93b2o$13909b
o264b2o$14173bobo2$15063bo$14036bo930b2o93bo$14036b2o930b2o92b3o$
14035bobo929bo2$14925bo$13898bo930b2o93bo$13898b2o930b2o92b3o167bo$
13897bobo262b2o665bo264b2o$14163b2o262bo665bobo$14162bo264b2o$14426bob
o$15051bo$14024b2o1025bobo$14025b2o1024b2o$14024bo624bo$14648bo$14648b
3o167bo94bo$13886b2o930b2o93bobo$13887b2o262bo665bobo93b2o167b2o$
13886bo264b2o930b2o$14150bobo262b2o665bo$13844bo571b2o$13843bo571bo$
13843b3o3$14637bo$14637bobo262bo$13875bo761b2o167b2o93bo$13875b2o930b
2o92b3o167bo$13874bobo262b2o665bo264b2o$14140b2o262bo665bobo$14139bo
264b2o$13832bo570bobo$13832bobo$13832b2o167b2o$14002b2o$14001bo624bo$
14625bo$14625b3o167bo94bo$13863b2o930b2o93bobo$13864b2o928bobo93b2o
167b2o$13863bo1196b2o$14392b2o665bo$13821bo571b2o$13820bo571bo$13820b
3o167bo930b2o$13990b2o930b2o$13989bobo262b2o665bo$14255b2o357bo$14254b
o359bobo262bo$14614b2o262bo$14878b3o4$13809bo$13809bobo1098bo$13809b2o
167b2o930b2o$13979b2o262bo665bobo$13978bo264b2o$14242bobo$13936bo930bo
$13935bo931bobo$13935b3o929b2o3$13798bo$13797bo1196bo$13797b3o167bo
930b2o93bo$13967b2o930b2o92b3o$13966bobo262b2o665bo$14232b2o$14231bo
624bo$13829bo94bo930bo$13829b2o93bobo928b3o$13828bobo93b2o3$13786bo$
13786bobo1098bo94bo$13786b2o1099b2o93bobo$14220bo665bobo93b2o$14220b2o
$14219bobo$13913bo835bo94bo$13817b2o93bo836b2o93bobo$13818b2o92b3o833b
obo93b2o$13817bo2$14706bo$14706bobo262bo$14706b2o262bo$14970b3o$14208b
2o$14209b2o$14208bo$13806bo94bo835b2o$13806b2o93bobo834b2o262bo$13805b
obo93b2o167b2o665bo264b2o$14071b2o928bobo$14070bo624bo$14694bo$14694b
3o262bo$14959bobo$14959b2o3$13890bo835bo$13794b2o93bo836b2o$13795b2o
92b3o167bo665bobo262b2o$13794bo264b2o930b2o$14058bobo929bo$14683bo$
14683bobo262bo$14683b2o262bo$14947b3o4$13878bo835b2o$13878bobo834b2o
262bo$13878b2o167b2o665bo264b2o$14048b2o928bobo$14047bo624bo$14576b2o
93bo$14005bo571b2o92b3o262bo$14004bo571bo359bobo$14004b3o929b2o3$
13867bo$13866bo$13866b3o167bo930b2o$14036b2o930b2o$14035bobo929bo$
14565bo94bo$14565b2o93bobo262bo$13993bo570bobo93b2o167b2o93bo$13993bob
o834b2o92b3o$13993b2o834bo3$13855bo$13855bobo$13855b2o167b2o$14025b2o$
14024bo$14553b2o$13982bo571b2o262bo94bo$13886b2o93bo571bo264b2o93bobo$
13887b2o92b3o167bo665bobo93b2o$13886bo264b2o$14150bobo$13844bo$13843bo
$13843b3o167bo$14013b2o$14012bobo$13706bo835bo$13705bo836b2o358bo$
13705b3o167bo94bo570bobo262b2o93bo$13875b2o93bobo834b2o92b3o$13874bobo
93b2o167b2o665bo$14140b2o262bo$14139bo264b2o$13832bo570bobo$13832bobo$
13832b2o167b2o$14002b2o$14001bo$13694bo$13694bobo262bo835bo$13694b2o
167b2o93bo836b2o$13864b2o92b3o167bo665bobo$13863bo264b2o$14127bobo262b
2o$13821bo571b2o262bo94bo$13820bo571bo264b2o93bobo$13820b3o167bo665bob
o93b2o167b2o$13990b2o930b2o$13989bobo929bo$13683bo$13682bo$13682b3o
167bo94bo$13852b2o93bobo$13851bobo93b2o$14381bo$14381b2o358bo$14380bob
o262b2o93bo$14646b2o92b3o167bo$13978b2o665bo264b2o$13979b2o928bobo$
13978bo$13671bo$13671bobo262bo$13671b2o167b2o93bo$13841b2o92b3o$13840b
o$14369b2o$14370b2o262bo94bo$14369bo264b2o93bobo$13967bo665bobo93b2o
167b2o$13967b2o930b2o$13966bobo262b2o665bo$13660bo571b2o$13659bo571bo$
13659b3o167bo94bo$13829b2o93bobo$13828bobo93b2o2$14718bo$13691bo930b2o
93bo$13691b2o930b2o92b3o167bo$13690bobo262b2o665bo264b2o$13956b2o262bo
665bobo$13955bo264b2o$14219bobo262b2o$13913bo571b2o262bo$13817b2o93bo
571bo264b2o$13818b2o92b3o833bobo$13817bo3$13679b2o$13680b2o262bo94bo$
13679bo264b2o93bobo$13943bobo93b2o167b2o$14209b2o262bo$14208bo264b2o$
13806bo94bo570bobo262b2o$13806b2o93bobo834b2o$13805bobo93b2o834bo3$
13668bo94bo$13668b2o93bobo262bo$13667bobo93b2o167b2o93bo$13933b2o92b3o
167bo$13932bo264b2o$14196bobo262b2o$13890bo571b2o262bo$13794b2o93bo
571bo264b2o$13795b2o92b3o167bo665bobo$13794bo264b2o$14058bobo$13752bo$
13656b2o93bo$13657b2o92b3o262bo$13656bo359bobo$14016b2o$14450bo$14450b
2o358bo$13783bo94bo570bobo262b2o93bo$13783b2o93bobo834b2o92b3o$13782bo
bo93b2o167b2o665bo$14048b2o262bo$14047bo264b2o$13645bo94bo570bobo262b
2o$13645b2o93bobo834b2o$13644bobo93b2o834bo4$13867bo930bo$13771b2o93bo
931bobo$13772b2o92b3o167bo761b2o$13771bo264b2o$14035bobo262b2o$13729bo
571b2o262bo$13633b2o93bo571bo264b2o$13634b2o92b3o833bobo$13633bo3$
14787bo$14786bo$14786b3o$14024b2o$14025b2o262bo$14024bo264b2o$13717bo
570bobo262b2o$13717bobo834b2o$13717b2o167b2o665bo$13887b2o$13886bo2$
14775bo$14775bobo$14775b2o2$14277b2o$13706bo571b2o262bo$13705bo571bo
264b2o$13705b3o167bo665bobo$13875b2o$13874bobo262b2o$13568bo571b2o262b
o$13567bo571bo264b2o$13567b3o833bobo6$13959bo$13863b2o93bo$13864b2o92b
3o167bo$13863bo264b2o$13556bo570bobo262b2o$13556bobo262bo571b2o$13556b
2o262bo571bo$13820b3o5$13852bo94bo835b2o$13852b2o93bobo834b2o$13851bob
o93b2o167b2o665bo$13545bo571b2o262bo$13544bo571bo264b2o$13544b3o167bo
94bo570bobo$13714b2o93bobo$13713bobo93b2o4$13936bo835bo$13935bo836b2o$
13935b3o167bo665bobo$14105b2o$13533bo570bobo262b2o$13533bobo262bo571b
2o$13533b2o167b2o93bo571bo$13703b2o92b3o167bo$13702bo264b2o$13966bobo
262b2o$14232b2o$14231bo$13924bo835b2o$13924bobo834b2o$13924b2o834bo3$
13691bo94bo$13691b2o93bobo$13690bobo93b2o167b2o$13956b2o262bo$13955bo
264b2o$14219bobo$13913bo835bo$13912bo836b2o$13912b3o833bobo3$13775bo
835bo$13679b2o93bo836b2o$13680b2o92b3o167bo665bobo$13679bo264b2o$
13943bobo262b2o$14209b2o$13541b2o665bo$13542b2o$13541bo4$13763bo835b2o
$13763bobo834b2o$13763b2o167b2o665bo$13933b2o262bo$13932bo264b2o$
13530bo94bo570bobo$13530b2o93bobo$13529bobo93b2o167b2o$13795b2o$13794b
o2$13752bo835bo$13751bo836b2o$13751b3o833bobo3$13614bo$13518b2o93bo$
13519b2o92b3o167bo$13518bo264b2o$13782bobo262b2o$14048b2o$14047bo$
14576b2o$14005bo571b2o$14004bo571bo$14004b3o2$13507bo94bo835b2o$13507b
2o93bobo834b2o$13506bobo93b2o167b2o665bo$13772b2o262bo$13771bo264b2o$
14035bobo3$13993bo$13993bobo$13993b2o$13591bo835bo$13590bo836b2o$
13590b3o167bo665bobo$13760b2o$13759bobo262b2o$13453bo571b2o$13452bo
571bo$13452b3o167bo$13622b2o358bo$13621bobo357bo$13981b3o2$14415b2o$
13844bo571b2o$13843bo571bo$13843b3o167bo$14013b2o$13441bo570bobo$
13441bobo$13441b2o167b2o$13611b2o262bo94bo$13610bo264b2o93bobo$13874bo
bo93b2o$14404bo$14404b2o$13832bo570bobo$13832bobo$13832b2o$13430bo835b
o$13429bo836b2o$13429b3o167bo665bobo$13599b2o$13598bobo262b2o$13864b2o
$13863bo2$13821bo$13820bo$13820b3o2$13418bo835b2o$13418bobo262bo571b2o
$13418b2o167b2o93bo571bo$13588b2o92b3o167bo$13587bo264b2o$13851bobo2$
13449b2o$13450b2o357bo$13449bo359bobo$13809b2o$14243bo$14243b2o$13671b
o570bobo$13671bobo$13671b2o167b2o$13841b2o$13840bo$13438bo$13438b2o$
13437bobo3$14231b2o$13660bo571b2o$13659bo571bo$13659b3o167bo$13829b2o$
13828bobo262b2o$14094b2o$13426b2o665bo$13427b2o262bo$13426bo264b2o358b
o$13690bobo357bo$14050b3o2$13648bo$13648bobo$13648b2o$14082bo$14082b2o
$13415bo94bo570bobo$13415b2o93bobo$13414bobo93b2o167b2o$13680b2o357bo$
13679bo359bobo$14039b2o3$13901bo$13901bobo$13901b2o167b2o$13499bo571b
2o$13498bo571bo$13498b3o167bo$13668b2o358bo$13667bobo262b2o93bo$13933b
2o92b3o262bo$13932bo359bobo$14292b2o$13890bo$13889bo$13889b3o167bo$
14059b2o$13487bo570bobo$13487bobo$13487b2o167b2o$13657b2o262bo94bo$
13656bo264b2o93bobo262bo$13920bobo93b2o262bo$14280b3o2$13878bo$13878bo
bo$13878b2o$13476bo$13475bo$13475b3o167bo94bo$13645b2o93bobo$13644bobo
93b2o167b2o$13910b2o357bo$13909bo359bobo$13507bo761b2o$13507b2o358bo$
13506bobo262b2o93bo$13772b2o92b3o$13771bo2$13729bo$13633b2o93bo$13634b
2o92b3o167bo$13633bo264b2o358bo$13326bo570bobo357bo$13326bobo928b3o$
13326b2o167b2o$13496b2o262bo$13495bo264b2o$13759bobo3$13622bo94bo$
13622b2o93bobo$13621bobo93b2o$13315bo930bo$13314bo931bobo$13314b3o167b
o761b2o$13484b2o$13483bobo262b2o$13749b2o357bo$13748bo359bobo$14108b2o
$13706bo835bo$13610b2o93bo836b2o$13611b2o92b3o833bobo$13610bo624bo$
13303bo930bo$13303bobo262bo665b3o$13303b2o167b2o93bo$13473b2o92b3o167b
o$13472bo264b2o358bo$13736bobo357bo$14096b3o2$13599bo930b2o$13599b2o
358bo571b2o$13598bobo357bo571bo$13292bo665b3o262bo$13291bo931bobo$
13291b3o167bo94bo666b2o$13461b2o93bobo$13460bobo93b2o167b2o$13726b2o
357bo$13725bo359bobo262bo$13418bo666b2o262bo$13418bobo928b3o167bo$
13418b2o167b2o930b2o$13588b2o357bo570bobo$13587bo359bobo262bo$13280bo
666b2o262bo$13280bobo262bo665b3o$13280b2o167b2o93bo$13450b2o92b3o$
13449bo624bo$14073bo$13407bo665b3o262bo$13311b2o93bo931bobo$13312b2o
92b3o167bo761b2o167b2o$13311bo264b2o358bo571b2o$13575bobo357bo571bo$
13269bo665b3o167bo94bo$13268bo836b2o93bobo$13268b3o167bo94bo570bobo93b
2o$13438b2o93bobo262bo$13437bobo93b2o262bo$13797b3o$14327bo$13300bo94b
o930bo$13300b2o93bobo928b3o167bo$13299bobo93b2o167b2o930b2o$13565b2o
357bo570bobo$13564bo359bobo262bo$13924b2o167b2o93bo$14094b2o92b3o$
13426b2o665bo$13427b2o357bo$13426bo359bobo$13786b2o$13384bo930bo$
13288b2o93bo931bobo$13289b2o92b3o929b2o167b2o$13288bo1196b2o$14484bo$
14082bo94bo$14082b2o93bobo$13415bo665bobo93b2o$13415b2o358bo$13414bobo
357bo$13774b3o$14304bo$13277bo94bo930bo$13277b2o93bobo928b3o167bo$
13276bobo93b2o1099b2o$14472bobo$14166bo$14070b2o93bo$14071b2o92b3o167b
o$13403b2o665bo264b2o$13404b2o357bo570bobo$13403bo359bobo$13763b2o167b
2o$13361bo571b2o357bo$13265b2o93bo571bo359bobo$13266b2o92b3o262bo666b
2o167b2o$13265bo359bobo834b2o$13625b2o834bo$14154bo$14154bobo$13487bo
666b2o167b2o$13487bobo834b2o$13487b2o834bo$13921bo94bo$13921b2o93bobo
262bo$13254bo94bo570bobo93b2o262bo$13254b2o93bobo262bo665b3o167bo$
13253bobo93b2o262bo836b2o$13613b3o833bobo$14143bo$14142bo$13476bo665b
3o167bo94bo$13475bo836b2o93bobo$13475b3o833bobo93b2o$14005bo$13909b2o
93bo$13338bo571b2o92b3o262bo$13337bo571bo359bobo$13337b3o262bo666b2o$
13602bobo$13602b2o$14131bo$14131bobo262bo$13464bo666b2o167b2o93bo$
13464bobo834b2o92b3o$13464b2o834bo$13898bo94bo$13898b2o93bobo262bo$
13326bo570bobo93b2o262bo$13326bobo262bo665b3o$13326b2o262bo$13590b3o
262bo$13855bobo$13855b2o$13453bo835bo94bo$13452bo836b2o93bobo$13452b3o
833bobo93b2o$13982bo$13886b2o93bo$13315bo571b2o92b3o262bo$13314bo571bo
359bobo$13314b3o929b2o$13844bo$13748b2o93bo$13749b2o92b3o$13748bo624bo
$13441bo835b2o93bo$13441bobo834b2o92b3o$13441b2o834bo2$14235bo$13303bo
835b2o93bo$13303bobo834b2o92b3o$13303b2o834bo$13737bo94bo$13737b2o93bo
bo$13165bo570bobo93b2o$13165bobo262bo835bo94bo$13165b2o262bo836b2o93bo
bo$13429b3o833bobo93b2o3$14128bo94bo$14128b2o93bobo$14127bobo93b2o$
13821bo$13725b2o93bo$13154bo571b2o92b3o$13153bo571bo624bo$13153b3o262b
o930bo$13418bobo262bo665b3o$13418b2o262bo$13682b3o$14212bo$14116b2o93b
o$14117b2o92b3o$14116bo$13714bo$13714b2o358bo$13142bo570bobo357bo$
13142bobo262bo665b3o262bo$13142b2o262bo931bobo$13406b3o167bo94bo666b2o
$13576b2o93bobo$13575bobo93b2o$14105bo94bo$14105b2o93bobo$14104bobo93b
2o167b2o$14370b2o$13702b2o665bo$13131bo571b2o357bo$13130bo571bo359bobo
262bo$13130b3o262bo666b2o262bo$13395bobo262bo665b3o$13395b2o167b2o93bo
$13565b2o92b3o$13564bo624bo$14093b2o93bo$13522bo571b2o92b3o167bo$
13521bo571bo264b2o$13521b3o833bobo$14051bo$13955b2o93bo$13384bo571b2o
92b3o262bo$13383bo571bo359bobo$13383b3o167bo94bo666b2o$13553b2o93bobo
262bo$13552bobo93b2o262bo$13912b3o2$13510bo835b2o$13510bobo834b2o$
13510b2o834bo$13944bo94bo$13944b2o93bobo262bo$13372bo570bobo93b2o262bo
$13372bobo928b3o$13372b2o167b2o$13542b2o357bo$13541bo359bobo$13901b2o$
13499bo835bo$13498bo836b2o$13498b3o833bobo2$13096bo835b2o$13096bobo
262bo571b2o262bo94bo$13096b2o262bo571bo264b2o93bobo$13360b3o167bo665bo
bo93b2o$13530b2o358bo$13529bobo357bo$13223bo665b3o$13222bo$13222b3o
167bo$13392b2o$13391bobo$13085bo835bo$13084bo836b2o358bo$13084b3o262bo
570bobo262b2o93bo$13349bobo834b2o92b3o$13349b2o167b2o665bo$13519b2o
262bo94bo$13518bo264b2o93bobo$13211bo570bobo93b2o$13211bobo$13211b2o
167b2o$13381b2o357bo$13380bo359bobo$13073bo666b2o$13073bobo1098bo94bo$
13073b2o1099b2o93bobo$13507bo665bobo93b2o$13507b2o$13506bobo262b2o$
13200bo571b2o357bo$13199bo571bo359bobo$13199b3o167bo761b2o$13369b2o
358bo$13368bobo262b2o93bo$13062bo571b2o92b3o$13061bo571bo624bo$13061b
3o1098b2o93bo$14163b2o92b3o$13495b2o665bo$13496b2o262bo$13495bo264b2o
358bo$13188bo570bobo262b2o93bo$13188bobo834b2o92b3o$13188b2o167b2o665b
o$13358b2o262bo94bo$13357bo264b2o93bobo$13050bo570bobo93b2o$13050bobo
1193bo$13050b2o1194bobo$13484bo761b2o$13484b2o$13483bobo262b2o$13749b
2o262bo94bo$13748bo264b2o93bobo$13346bo94bo570bobo93b2o$13346b2o93bobo
262bo$13345bobo93b2o167b2o93bo$13611b2o92b3o262bo$13610bo359bobo$
13208bo761b2o$13208b2o$13207bobo262b2o$13473b2o$13472bo624bo$13165bo
835b2o93bo$13165bobo262bo571b2o92b3o167bo$13165b2o167b2o93bo571bo264b
2o$13335b2o92b3o167bo665bobo$13334bo264b2o358bo$13598bobo357bo$13958b
3o$13196b2o$13197b2o262bo$13196bo264b2o$13460bobo$13154bo835bo$13153bo
836b2o$13153b3o167bo94bo570bobo262b2o$13323b2o93bobo834b2o$13322bobo
93b2o167b2o665bo$13588b2o262bo94bo$13587bo264b2o93bobo$13185bo94bo570b
obo93b2o$13185b2o93bobo$13184bobo93b2o167b2o$13450b2o$13449bo$13142bo$
13142bobo262bo835bo$13142b2o167b2o93bo836b2o$13312b2o92b3o167bo665bobo
$13311bo264b2o358bo$13575bobo262b2o93bo$13269bo571b2o92b3o$13173b2o93b
o571bo$13174b2o92b3o167bo$13173bo264b2o358bo$13437bobo357bo$13131bo
665b3o$13130bo$13130b3o167bo94bo835b2o$13300b2o93bobo834b2o$13299bobo
93b2o834bo$13829bo$13829b2o358bo$13162bo94bo570bobo262b2o93bo$13162b2o
93bobo834b2o92b3o$13161bobo93b2o167b2o665bo$13427b2o357bo$13426bo359bo
bo$13119bo666b2o$13119bobo$13119b2o167b2o$13289b2o$13288bo$13817b2o$
13246bo571b2o262bo94bo$13150b2o93bo571bo264b2o93bobo$13151b2o92b3o167b
o665bobo93b2o$13150bo264b2o358bo$13414bobo262b2o93bo$13108bo571b2o92b
3o$13012b2o93bo571bo$13013b2o92b3o167bo$13012bo264b2o$13276bobo2$
14166bo$13139bo94bo835b2o93bo$13139b2o93bobo834b2o92b3o$13138bobo93b2o
834bo$13668bo94bo$13668b2o93bobo262bo$13001bo94bo570bobo93b2o262bo$
13001b2o93bobo928b3o$13000bobo93b2o167b2o$13266b2o$13265bo$12958bo$
12958bobo262bo835bo94bo$12958b2o167b2o93bo836b2o93bobo$13128b2o92b3o
262bo570bobo93b2o$13127bo359bobo$13487b2o167b2o$13657b2o262bo94bo$
12989b2o665bo264b2o93bobo$12990b2o262bo665bobo93b2o$12989bo264b2o$
13253bobo$12947bo$12946bo$12946b3o167bo94bo$13116b2o93bobo262bo$13115b
obo93b2o262bo$13475b3o167bo$13645b2o358bo$12978bo665bobo262b2o93bo$
12978b2o358bo571b2o92b3o$12977bobo357bo571bo$13337b3o167bo$13507b2o$
12935bo570bobo$12935bobo262bo$12935b2o167b2o93bo$13105b2o92b3o262bo$
13104bo359bobo$13464b2o$13898bo94bo$12966b2o930b2o93bobo$12967b2o357bo
570bobo93b2o$12966bo359bobo$13326b2o167b2o$12924bo571b2o357bo$12923bo
571bo359bobo$12923b3o167bo94bo666b2o$13093b2o93bobo262bo$13092bobo93b
2o262bo$13452b3o2$12955bo930b2o$12955b2o358bo571b2o262bo$12954bobo357b
o571bo264b2o$13314b3o167bo665bobo$13484b2o358bo$13483bobo262b2o93bo$
13177bo571b2o92b3o$13176bo571bo$13176b3o4$12943b2o$12944b2o357bo835b2o
$12943bo359bobo834b2o$13303b2o167b2o665bo$13473b2o262bo94bo$13472bo
264b2o93bobo$13165bo570bobo93b2o$13165bobo$13165b2o167b2o$13335b2o$
13334bo2$13292bo835bo$13291bo836b2o$13291b3o833bobo$13821bo$12889bo
835b2o93bo$12889bobo262bo571b2o92b3o262bo$12889b2o262bo571bo359bobo$
13153b3o167bo761b2o$13323b2o$13322bobo$13016bo$13015bo$13015b3o262bo
835b2o$13280bobo834b2o$13280b2o834bo$12878bo835bo$12877bo836b2o358bo$
12877b3o262bo570bobo262b2o93bo$13142bobo834b2o92b3o$13142b2o167b2o665b
o$13312b2o262bo$13311bo264b2o$13004bo570bobo$13004bobo$13004b2o$13533b
o$13533bobo$12866bo666b2o$12866bobo1098bo94bo$12866b2o1099b2o93bobo$
13300bo94bo570bobo93b2o$13300b2o93bobo$13299bobo93b2o167b2o$12993bo
571b2o$12992bo571bo$12992b3o167bo$13162b2o358bo$13161bobo357bo$12855bo
665b3o$12854bo1196bo$12854b3o1098b2o93bo$13384bo571b2o92b3o$13383bo
571bo$13383b3o167bo$13553b2o358bo$12981bo570bobo357bo$12981bobo928b3o$
12981b2o167b2o$13151b2o357bo$13150bo359bobo262bo$12843bo666b2o262bo$
12843bobo928b3o167bo$12843b2o1099b2o$13372bo570bobo$12408b2o962bobo$
12408b2o962b2o167b2o$13542b2o262bo94bo$13541bo264b2o93bobo$13139bo94bo
570bobo93b2o167b2o$13139b2o93bobo262bo571b2o$13138bobo93b2o167b2o93bo
571bo$13404b2o92b3o262bo$13403bo359bobo$13763b2o$12402bo5bo952bo$
12401b3o3b3o950bo$12401bob2ob2obo950b3o$12403b2ob2o1482bo$12403b2ob2o
550bo835b2o93bo$12403b2ob2o550bobo262bo571b2o92b3o167bo$12958b2o167b2o
93bo571bo264b2o$13128b2o92b3o167bo665bobo$12523b2o602bo264b2o358bo$
12523b2o866bobo357bo$13751b3o2$13349bo$12402bo946bobo$12400bobo11b5o
930b2o$12400b5o11bobo528bo835bo94bo$12416bo529bo836b2o93bobo$12946b3o
167bo94bo570bobo93b2o167b2o$12517bo5bo592b2o93bobo834b2o$12516b3o3b3o
590bobo93b2o167b2o665bo$12516bob2ob2obo856b2o357bo$12518b2ob2o857bo
359bobo$12518b2ob2o455bo94bo666b2o$12518b2ob2o455b2o93bobo$12411b2ob2o
561bobo93b2o$12411b2ob2o$12411b2ob2o222b2o$12409bob2ob2obo220b2o295bo
835b2o$12409b3o3b3o517bobo262bo571b2o262bo$12410bo5bo518b2o167b2o93bo
571bo264b2o$13105b2o92b3o167bo665bobo$12517bo586bo264b2o358bo$12515bob
o11b5o834bobo262b2o93bo$12515b5o11bobo528bo571b2o92b3o167bo$12531bo
434b2o93bo571bo264b2o$12428b2o537b2o92b3o167bo665bobo$12428b2o202bo5bo
327bo264b2o358bo$12631b3o3b3o590bobo357bo$12416b2o213bob2ob2obo284bo
665b3o$12416b2o215b2ob2o285bo$12633b2ob2o285b3o167bo94bo$12633b2ob2o
455b2o93bobo262bo$12526b2ob2o561bobo93b2o262bo$12526b2ob2o921b3o167bo
94bo$12526b2ob2o222b2o867b2o93bobo$12524bob2ob2obo220b2o200bo94bo570bo
bo93b2o167b2o$12524b3o3b3o422b2o93bobo834b2o$12487b2o36bo5bo422bobo93b
2o167b2o665bo$12480b3o4b2o731b2o357bo$12428b2o5b2o195bo586bo359bobo$
12427bo2bo3bo2bo41bo3bo146bobo11b5o263bo666b2o$12430b2ob2o44bo3bo146b
5o11bobo263bobo$12429bobobobo44bobo163bo265b2o$2b2o12425bobobobo44b3o
60b2o896bo$bobo12423bo9bo105b2o202bo5bo687bobo262bo$bo12424bo11bo307b
3o3b3o19bo666b2o167b2o93bo$2o12529b2o213bob2ob2obo19bobo262bo571b2o92b
3o167bo94bo$12430b2ob2o96b2o215b2ob2o21b2o167b2o93bo571bo264b2o93bobo$
12428bo2bobo2bo311b2ob2o191b2o92b3o167bo665bobo93b2o$12428b3o3b3o43bo
7bo259b2ob2o190bo264b2o358bo$12478bob2o5b2obo150b2ob2o561bobo357bo$
12478bo3b2ob2o3bo150b2ob2o255bo665b3o262bo$12435b2o42bo3bobo3bo151b2ob
2o222b2o30bo931bobo$12435b2o43b3o3b3o150bob2ob2obo220b2o30b3o929b2o$2o
12637b3o3b3o782bo$bo12600b2o36bo5bo782bo$bobo12591b3o4b2o825b3o167bo
94bo$2b2o12539b2o5b2o195bo16bobo832b2o93bobo262bo$12542bo2bo3bo2bo41bo
3bo146bobo11bo5b2o165bo94bo570bobo93b2o167b2o93bo$12545b2ob2o44bo3bo
146b5o11bo3bo166b2o93bobo834b2o92b3o$12544bobobobo44bobo164bo168bobo
93b2o167b2o665bo$2b2o12540bobobobo44b3o60b2o100b3o434b2o262bo94bo$bobo
12538bo9bo105b2o202bo5bo327bo264b2o93bobo262bo$bo12539bo11bo240bo66b3o
3b3o19bo570bobo93b2o167b2o93bo$2o12485b2o157b2o146b2o65bob2ob2obo19bob
o834b2o92b3o$12487b2o56b2ob2o96b2o145bobo67b2ob2o21b2o834bo$12543bo2bo
bo2bo311b2ob2o550bo$12543b3o3b3o43bo7bo259b2ob2o550bobo262bo$12593bob
2o5b2obo150b2ob2o15bo641b2o262bo$12593bo3b2ob2o3bo150b2ob2o16b2o237bo
665b3o262bo$12550b2o42bo3bobo3bo151b2ob2o15b2o142b2o61b2o30bo931bobo$
12550b2o43b3o3b3o150bob2ob2obo10bo147b2o60b2o30b3o167bo94bo666b2o$2o
12752b3o3b3o8bobo146bo264b2o93bobo$bo12715b2o36bo5bo10b2o410bobo93b2o
167b2o$bobo12706b3o4b2o731b2o262bo94bo$2b2o12654b2o5b2o115b2o78bo16bob
o567bo264b2o93bobo$12657bo2bo3bo2bo41bo3bo69b2o75bobo11bo5b2o165bo665b
obo93b2o$12660b2ob2o44bo3bo68bo77b5o11bo3bo166b2o$12659bobobobo44bobo
164bo168bobo$2b2o12655bobobobo44b3o60b2o100b3o793bo$bobo12653bo9bo105b
2o12bobo187bo5bo687bobo262bo$bo12654bo11bo119b2o186b3o3b3o19bo666b2o
262bo$2o12600b2o157b2o25bo187bob2ob2obo19bobo262bo665b3o$12602b2o56b2o
b2o96b2o215b2ob2o21b2o262bo$12658bo2bobo2bo311b2ob2o285b3o167bo$12658b
3o3b3o43bo7bo259b2ob2o455b2o358bo$12708bob2o5b2obo150b2ob2o561bobo262b
2o93bo$12708bo3b2ob2o3bo150b2ob2o255bo571b2o92b3o$12665b2o42bo3bobo3bo
151b2ob2o159b2o61b2o30bo571bo$12665b2o43b3o3b3o150bob2ob2obo158b2o60b
2o30b3o167bo$2o12867b3o3b3o157bo264b2o358bo$bo12797bo32b2o36bo5bo422bo
bo357bo$bobo12796b2o23b3o4b2o825b3o$2b2o12769b2o5b2o17b2o176bo16bobo$
12772bo2bo3bo2bo41bo3bo146bobo11bo5b2o260bo$12775b2ob2o44bo3bo146b5o
11bo3bo261bobo$12774bobobobo44bobo164bo264b2o167b2o$2b2o12770bobobobo
44b3o60b2o100b3o434b2o262bo94bo$bobo12768bo9bo105b2o202bo5bo327bo264b
2o93bobo$bo12769bo11bo240bo66b3o3b3o19bo570bobo93b2o$2o12715b2o157b2o
146b2o65bob2ob2obo19bobo$12717b2o56b2ob2o96b2o145bobo67b2ob2o21b2o167b
2o$12773bo2bobo2bo311b2ob2o191b2o262bo94bo$12773b3o3b3o43bo7bo259b2ob
2o190bo264b2o93bobo$12823bob2o5b2obo150b2ob2o15bo545bobo93b2o$12823bo
3b2ob2o3bo150b2ob2o16b2o237bo$12780b2o42bo3bobo3bo151b2ob2o15b2o205b2o
30bo$12780b2o43b3o3b3o150bob2ob2obo10bo209b2o30b3o262bo$2o12982b3o3b3o
8bobo506bobo262bo$bo12945b2o36bo5bo10b2o506b2o262bo$bob2o12935b3o4b2o
825b3o167bo$2bo5bo42bo2bo226bo2bo42bo2bo226bo2bo42bo2bo180bo2bo42bo2bo
180bo2bo42bo2bo42bo2bo88bo2bo42bo2bo180bo2bo42bo2bo42bo2bo180bo2bo42bo
2bo42bo2bo456bo2bo42bo2bo88bo2bo42bo2bo226bo2bo42bo2bo42bo2bo226bo2bo
42bo2bo134bo2bo42bo2bo226bo2bo42bo2bo42bo2bo502bo2bo42bo2bo42bo2bo318b
o2bo42bo2bo42bo2bo134bo2bo42bo2bo42bo2bo88bo2bo42bo2bo180bo2bo42bo2bo
42bo2bo88bo2bo42bo2bo226bo2bo42bo2bo42bo2bo180bo2bo42bo2bo180bo2bo42bo
2bo226bo2bo42bo2bo180bo2bo42bo2bo42bo2bo1008bo2bo42bo2bo42bo2bo42bo2bo
272bo2bo42bo2bo226bo2bo42bo2bo42bo2bo226bo2bo42bo2bo226bo2bo42bo2bo
180bo2bo42bo2bo180bo2bo42bo2bo134bo2bo42bo2bo180bo2bo42bo2bo180bo2bo
42bo2bo42bo2bo456bo2bo42bo2bo42bo2bo88bo2bo42bo2bo226bo2bo42bo2bo42bo
2bo180bo2bo42bo2bo134bo2bo42bo2bo226bo2bo42bo2bo42bo2bo502bo2bo42bo2bo
42bo2bo42bo2bo321b2o5b2o115b2o78bo16bobo832b2o$27b4o19bo22b4o203bo22b
4o19bo22b4o203bo22b4o19bo22b4o157bo22b4o19bo22b4o157bo22b4o19bo22b4o
19bo91bo22b4o19bo22b4o157bo22b4o19bo22b4o19bo160b4o19bo22b4o19bo22b4o
19bo436b4o19bo22b4o19bo22b4o65bo22b4o19bo22b4o203bo22b4o19bo22b4o19bo
22b4o180b4o19bo22b4o19bo114b4o19bo22b4o19bo206b4o19bo22b4o19bo22b4o19b
o482b4o19bo22b4o19bo22b4o19bo22b4o295bo22b4o19bo22b4o19bo137bo22b4o19b
o22b4o19bo68b4o19bo22b4o19bo183bo22b4o19bo22b4o19bo68b4o19bo22b4o19bo
206b4o19bo22b4o19bo22b4o19bo183bo22b4o19bo22b4o157bo22b4o19bo22b4o180b
4o19bo22b4o19bo22b4o157bo22b4o19bo22b4o19bo22b4o985bo22b4o19bo22b4o19b
o22b4o19bo252b4o19bo22b4o19bo206b4o19bo22b4o19bo22b4o19bo206b4o19bo22b
4o19bo206b4o19bo22b4o19bo160b4o19bo22b4o19bo160b4o19bo22b4o19bo22b4o
88b4o19bo22b4o19bo160b4o19bo22b4o19bo22b4o157bo22b4o19bo22b4o19bo22b4o
433bo22b4o19bo22b4o19bo68b4o19bo22b4o19bo206b4o19bo22b4o19bo22b4o19bo
183bo22b4o19bo22b4o111bo22b4o19bo22b4o203bo22b4o19bo22b4o19bo22b4o479b
o22b4o19bo22b4o19bo22b4o19bo324bo2bo3bo2bo41bo3bo69b2o75bobo11bo5b2o
165bo665bobo$3bo4bo18bo3bo18bo3bo18bo3bo202bo3bo18bo3bo18bo3bo18bo3bo
202bo3bo18bo3bo18bo3bo18bo3bo156bo3bo18bo3bo18bo3bo18bo3bo156bo3bo18bo
3bo18bo3bo18bo3bo18bo3bo87bo3bo18bo3bo18bo3bo18bo3bo156bo3bo18bo3bo18b
o3bo18bo3bo18bo3bo156bo3bo18bo3bo18bo3bo18bo3bo18bo3bo18bo3bo432bo3bo
18bo3bo18bo3bo18bo3bo18bo3bo64bo3bo18bo3bo18bo3bo18bo3bo202bo3bo18bo3b
o18bo3bo18bo3bo18bo3bo18bo3bo179bo3bo18bo3bo18bo3bo18bo3bo110bo3bo18bo
3bo18bo3bo18bo3bo202bo3bo18bo3bo18bo3bo18bo3bo18bo3bo18bo3bo478bo3bo
18bo3bo18bo3bo18bo3bo18bo3bo18bo3bo18bo3bo294bo3bo18bo3bo18bo3bo18bo3b
o18bo3bo133bo3bo18bo3bo18bo3bo18bo3bo18bo3bo64bo3bo18bo3bo18bo3bo18bo
3bo179bo3bo18bo3bo18bo3bo18bo3bo18bo3bo64bo3bo18bo3bo18bo3bo18bo3bo
202bo3bo18bo3bo18bo3bo18bo3bo18bo3bo18bo3bo179bo3bo18bo3bo18bo3bo18bo
3bo156bo3bo18bo3bo18bo3bo18bo3bo179bo3bo18bo3bo18bo3bo18bo3bo18bo3bo
156bo3bo18bo3bo18bo3bo18bo3bo18bo3bo18bo3bo984bo3bo18bo3bo18bo3bo18bo
3bo18bo3bo18bo3bo18bo3bo248bo3bo18bo3bo18bo3bo18bo3bo202bo3bo18bo3bo
18bo3bo18bo3bo18bo3bo18bo3bo202bo3bo18bo3bo18bo3bo18bo3bo202bo3bo18bo
3bo18bo3bo18bo3bo156bo3bo18bo3bo18bo3bo18bo3bo156bo3bo18bo3bo18bo3bo
18bo3bo18bo3bo87bo3bo18bo3bo18bo3bo18bo3bo156bo3bo18bo3bo18bo3bo18bo3b
o18bo3bo156bo3bo18bo3bo18bo3bo18bo3bo18bo3bo18bo3bo432bo3bo18bo3bo18bo
3bo18bo3bo18bo3bo64bo3bo18bo3bo18bo3bo18bo3bo202bo3bo18bo3bo18bo3bo18b
o3bo18bo3bo18bo3bo179bo3bo18bo3bo18bo3bo18bo3bo110bo3bo18bo3bo18bo3bo
18bo3bo202bo3bo18bo3bo18bo3bo18bo3bo18bo3bo18bo3bo478bo3bo18bo3bo18bo
3bo18bo3bo18bo3bo18bo3bo18bo3bo323b2ob2o44bo3bo68bo77b5o11bo3bo166b2o
358bo$6b2o19bo22b4o19bo206b4o19bo22b4o19bo206b4o19bo22b4o19bo160b4o19b
o22b4o19bo160b4o19bo22b4o19bo22b4o88b4o19bo22b4o19bo160b4o19bo22b4o19b
o22b4o157bo22b4o19bo22b4o19bo22b4o433bo22b4o19bo22b4o19bo68b4o19bo22b
4o19bo206b4o19bo22b4o19bo22b4o19bo183bo22b4o19bo22b4o111bo22b4o19bo22b
4o203bo22b4o19bo22b4o19bo22b4o479bo22b4o19bo22b4o19bo22b4o19bo298b4o
19bo22b4o19bo22b4o134b4o19bo22b4o19bo22b4o65bo22b4o19bo22b4o180b4o19bo
22b4o19bo22b4o65bo22b4o19bo22b4o203bo22b4o19bo22b4o19bo22b4o180b4o19bo
22b4o19bo160b4o19bo22b4o19bo183bo22b4o19bo22b4o19bo160b4o19bo22b4o19bo
22b4o19bo988b4o19bo22b4o19bo22b4o19bo22b4o249bo22b4o19bo22b4o203bo22b
4o19bo22b4o19bo22b4o203bo22b4o19bo22b4o203bo22b4o19bo22b4o157bo22b4o
19bo22b4o157bo22b4o19bo22b4o19bo91bo22b4o19bo22b4o157bo22b4o19bo22b4o
19bo160b4o19bo22b4o19bo22b4o19bo436b4o19bo22b4o19bo22b4o65bo22b4o19bo
22b4o203bo22b4o19bo22b4o19bo22b4o180b4o19bo22b4o19bo114b4o19bo22b4o19b
o206b4o19bo22b4o19bo22b4o19bo482b4o19bo22b4o19bo22b4o19bo22b4o323bobob
obo44bobo164bo168bobo262b2o93bo$2bo25bo2bo42bo2bo226bo2bo42bo2bo226bo
2bo42bo2bo180bo2bo42bo2bo180bo2bo42bo2bo134bo2bo42bo2bo180bo2bo42bo2bo
180bo2bo42bo2bo42bo2bo456bo2bo42bo2bo42bo2bo88bo2bo42bo2bo226bo2bo42bo
2bo42bo2bo180bo2bo42bo2bo134bo2bo42bo2bo226bo2bo42bo2bo42bo2bo502bo2bo
42bo2bo42bo2bo42bo2bo318bo2bo42bo2bo180bo2bo42bo2bo88bo2bo42bo2bo226bo
2bo42bo2bo88bo2bo42bo2bo226bo2bo42bo2bo42bo2bo226bo2bo42bo2bo180bo2bo
42bo2bo180bo2bo42bo2bo42bo2bo180bo2bo42bo2bo42bo2bo1008bo2bo42bo2bo42b
o2bo272bo2bo42bo2bo226bo2bo42bo2bo42bo2bo226bo2bo42bo2bo226bo2bo42bo2b
o180bo2bo42bo2bo180bo2bo42bo2bo42bo2bo88bo2bo42bo2bo180bo2bo42bo2bo42b
o2bo180bo2bo42bo2bo42bo2bo456bo2bo42bo2bo88bo2bo42bo2bo226bo2bo42bo2bo
42bo2bo226bo2bo42bo2bo134bo2bo42bo2bo226bo2bo42bo2bo42bo2bo502bo2bo42b
o2bo42bo2bo345bobobobo44b3o60b2o100b3o434b2o92b3o$bob2o12882bo9bo105b
2o12bobo187bo5bo327bo$bo12884bo11bo119b2o119bo66b3o3b3o$2o12830b2o157b
2o25bo120b2o65bob2ob2obo284bo$12832b2o56b2ob2o96b2o145bobo67b2ob2o285b
o$12888bo2bobo2bo311b2ob2o285b3o262bo$12888b3o3b3o28bobo12bo7bo259b2ob
2o550bobo$12926b2o10bob2o5b2obo150b2ob2o15bo641b2o167b2o$12926bo11bo3b
2ob2o3bo150b2ob2o16b2o809b2o$12895b2o42bo3bobo3bo151b2ob2o15b2o142b2o
61b2o602bo$12895b2o43b3o3b3o150bob2ob2obo10bo147b2o60b2o200bo94bo$2o
13097b3o3b3o8bobo146bo264b2o93bobo262bo$bo13027bo32b2o36bo5bo10b2o410b
obo93b2o262bo$bob2o13025b2o23b3o4b2o825b3o$2bo25bo2bo42bo2bo42bo2bo
180bo2bo42bo2bo226bo2bo42bo2bo180bo2bo42bo2bo134bo2bo42bo2bo42bo2bo42b
o2bo88bo2bo180bo2bo42bo2bo42bo2bo134bo2bo42bo2bo42bo2bo42bo2bo42bo2bo
42bo2bo364bo2bo42bo2bo42bo2bo88bo2bo42bo2bo180bo2bo42bo2bo42bo2bo42bo
2bo42bo2bo134bo2bo42bo2bo134bo2bo42bo2bo180bo2bo42bo2bo42bo2bo42bo2bo
42bo2bo410bo2bo42bo2bo42bo2bo42bo2bo42bo2bo42bo2bo226bo2bo42bo2bo42bo
2bo134bo2bo42bo2bo42bo2bo42bo2bo42bo2bo42bo2bo180bo2bo42bo2bo42bo2bo
42bo2bo42bo2bo42bo2bo180bo2bo42bo2bo42bo2bo42bo2bo42bo2bo42bo2bo134bo
2bo42bo2bo180bo2bo42bo2bo180bo2bo42bo2bo42bo2bo134bo2bo42bo2bo42bo2bo
42bo2bo42bo2bo916bo2bo42bo2bo42bo2bo42bo2bo42bo2bo42bo2bo180bo2bo42bo
2bo180bo2bo42bo2bo42bo2bo42bo2bo42bo2bo180bo2bo42bo2bo226bo2bo42bo2bo
180bo2bo42bo2bo134bo2bo42bo2bo42bo2bo42bo2bo42bo2bo42bo2bo42bo2bo180bo
2bo42bo2bo42bo2bo134bo2bo42bo2bo42bo2bo42bo2bo42bo2bo364bo2bo42bo2bo
42bo2bo42bo2bo42bo2bo42bo2bo180bo2bo42bo2bo42bo2bo42bo2bo42bo2bo42bo2b
o134bo2bo42bo2bo134bo2bo42bo2bo180bo2bo42bo2bo42bo2bo42bo2bo42bo2bo
410bo2bo42bo2bo42bo2bo42bo2bo42bo2bo272bo2bo42bo2bo91b2o5b2o17b2o96b2o
78bo$6b2o19bo22b4o19bo22b4o19bo160b4o19bo22b4o19bo206b4o19bo22b4o19bo
160b4o19bo22b4o19bo114b4o19bo22b4o19bo22b4o19bo22b4o19bo22b4o42b4o19bo
22b4o157bo22b4o19bo22b4o19bo22b4o111bo22b4o19bo22b4o19bo22b4o19bo22b4o
19bo22b4o19bo344b4o19bo22b4o19bo22b4o19bo22b4o42b4o19bo22b4o19bo160b4o
19bo22b4o19bo22b4o19bo22b4o19bo22b4o19bo22b4o111bo22b4o19bo22b4o111bo
22b4o19bo22b4o157bo22b4o19bo22b4o19bo22b4o19bo22b4o19bo22b4o387bo22b4o
19bo22b4o19bo22b4o19bo22b4o19bo22b4o19bo229bo22b4o19bo22b4o19bo22b4o
88b4o19bo22b4o19bo22b4o19bo22b4o19bo45bo22b4o19bo22b4o157bo22b4o19bo
22b4o19bo22b4o19bo45bo22b4o19bo22b4o157bo22b4o19bo22b4o19bo22b4o19bo
22b4o19bo22b4o19bo114b4o19bo22b4o19bo160b4o19bo22b4o19bo160b4o19bo22b
4o19bo22b4o19bo114b4o19bo22b4o19bo22b4o19bo22b4o19bo22b4o19bo22b4o870b
4o19bo22b4o19bo22b4o19bo22b4o19bo22b4o19bo22b4o19bo183bo22b4o19bo22b4o
157bo22b4o19bo22b4o19bo22b4o19bo22b4o19bo22b4o157bo22b4o19bo22b4o203bo
22b4o19bo22b4o157bo22b4o19bo22b4o111bo22b4o19bo22b4o19bo22b4o19bo22b4o
19bo45bo22b4o19bo160b4o19bo22b4o19bo22b4o19bo114b4o19bo22b4o19bo22b4o
19bo22b4o19bo22b4o19bo22b4o341bo22b4o19bo22b4o19bo22b4o19bo45bo22b4o
19bo22b4o157bo22b4o19bo22b4o19bo22b4o19bo22b4o19bo22b4o19bo114b4o19bo
22b4o19bo114b4o19bo22b4o19bo160b4o19bo22b4o19bo22b4o19bo22b4o19bo22b4o
19bo390b4o19bo22b4o19bo22b4o19bo22b4o19bo22b4o19bo22b4o226b4o19bo22b4o
19bo22b4o68bo2bo3bo2bo41bo3bo69b2o75bobo11b5o263bo$3bo4bo18bo3bo18bo3b
o18bo3bo18bo3bo18bo3bo156bo3bo18bo3bo18bo3bo18bo3bo202bo3bo18bo3bo18bo
3bo18bo3bo156bo3bo18bo3bo18bo3bo18bo3bo110bo3bo18bo3bo18bo3bo18bo3bo
18bo3bo18bo3bo18bo3bo18bo3bo18bo3bo41bo3bo18bo3bo18bo3bo156bo3bo18bo3b
o18bo3bo18bo3bo18bo3bo18bo3bo110bo3bo18bo3bo18bo3bo18bo3bo18bo3bo18bo
3bo18bo3bo18bo3bo18bo3bo18bo3bo18bo3bo340bo3bo18bo3bo18bo3bo18bo3bo18b
o3bo18bo3bo18bo3bo41bo3bo18bo3bo18bo3bo18bo3bo156bo3bo18bo3bo18bo3bo
18bo3bo18bo3bo18bo3bo18bo3bo18bo3bo18bo3bo18bo3bo18bo3bo110bo3bo18bo3b
o18bo3bo18bo3bo110bo3bo18bo3bo18bo3bo18bo3bo156bo3bo18bo3bo18bo3bo18bo
3bo18bo3bo18bo3bo18bo3bo18bo3bo18bo3bo18bo3bo386bo3bo18bo3bo18bo3bo18b
o3bo18bo3bo18bo3bo18bo3bo18bo3bo18bo3bo18bo3bo18bo3bo225bo3bo18bo3bo
18bo3bo18bo3bo18bo3bo18bo3bo87bo3bo18bo3bo18bo3bo18bo3bo18bo3bo18bo3bo
18bo3bo18bo3bo41bo3bo18bo3bo18bo3bo18bo3bo156bo3bo18bo3bo18bo3bo18bo3b
o18bo3bo18bo3bo18bo3bo41bo3bo18bo3bo18bo3bo18bo3bo156bo3bo18bo3bo18bo
3bo18bo3bo18bo3bo18bo3bo18bo3bo18bo3bo18bo3bo18bo3bo18bo3bo110bo3bo18b
o3bo18bo3bo18bo3bo156bo3bo18bo3bo18bo3bo18bo3bo156bo3bo18bo3bo18bo3bo
18bo3bo18bo3bo18bo3bo110bo3bo18bo3bo18bo3bo18bo3bo18bo3bo18bo3bo18bo3b
o18bo3bo18bo3bo18bo3bo18bo3bo869bo3bo18bo3bo18bo3bo18bo3bo18bo3bo18bo
3bo18bo3bo18bo3bo18bo3bo18bo3bo18bo3bo18bo3bo179bo3bo18bo3bo18bo3bo18b
o3bo156bo3bo18bo3bo18bo3bo18bo3bo18bo3bo18bo3bo18bo3bo18bo3bo18bo3bo
18bo3bo156bo3bo18bo3bo18bo3bo18bo3bo202bo3bo18bo3bo18bo3bo18bo3bo156bo
3bo18bo3bo18bo3bo18bo3bo110bo3bo18bo3bo18bo3bo18bo3bo18bo3bo18bo3bo18b
o3bo18bo3bo18bo3bo41bo3bo18bo3bo18bo3bo156bo3bo18bo3bo18bo3bo18bo3bo
18bo3bo18bo3bo110bo3bo18bo3bo18bo3bo18bo3bo18bo3bo18bo3bo18bo3bo18bo3b
o18bo3bo18bo3bo18bo3bo340bo3bo18bo3bo18bo3bo18bo3bo18bo3bo18bo3bo18bo
3bo41bo3bo18bo3bo18bo3bo18bo3bo156bo3bo18bo3bo18bo3bo18bo3bo18bo3bo18b
o3bo18bo3bo18bo3bo18bo3bo18bo3bo18bo3bo110bo3bo18bo3bo18bo3bo18bo3bo
110bo3bo18bo3bo18bo3bo18bo3bo156bo3bo18bo3bo18bo3bo18bo3bo18bo3bo18bo
3bo18bo3bo18bo3bo18bo3bo18bo3bo386bo3bo18bo3bo18bo3bo18bo3bo18bo3bo18b
o3bo18bo3bo18bo3bo18bo3bo18bo3bo18bo3bo225bo3bo18bo3bo18bo3bo18bo3bo
18bo3bo70b2ob2o44bo3bo68bo77b5o11bobo263bobo262bo$27b4o19bo22b4o19bo
22b4o157bo22b4o19bo22b4o203bo22b4o19bo22b4o157bo22b4o19bo22b4o111bo22b
4o19bo22b4o19bo22b4o19bo22b4o19bo45bo22b4o19bo160b4o19bo22b4o19bo22b4o
19bo114b4o19bo22b4o19bo22b4o19bo22b4o19bo22b4o19bo22b4o341bo22b4o19bo
22b4o19bo22b4o19bo45bo22b4o19bo22b4o157bo22b4o19bo22b4o19bo22b4o19bo
22b4o19bo22b4o19bo114b4o19bo22b4o19bo114b4o19bo22b4o19bo160b4o19bo22b
4o19bo22b4o19bo22b4o19bo22b4o19bo390b4o19bo22b4o19bo22b4o19bo22b4o19bo
22b4o19bo22b4o226b4o19bo22b4o19bo22b4o19bo91bo22b4o19bo22b4o19bo22b4o
19bo22b4o42b4o19bo22b4o19bo160b4o19bo22b4o19bo22b4o19bo22b4o42b4o19bo
22b4o19bo160b4o19bo22b4o19bo22b4o19bo22b4o19bo22b4o19bo22b4o111bo22b4o
19bo22b4o157bo22b4o19bo22b4o157bo22b4o19bo22b4o19bo22b4o111bo22b4o19bo
22b4o19bo22b4o19bo22b4o19bo22b4o19bo873bo22b4o19bo22b4o19bo22b4o19bo
22b4o19bo22b4o19bo22b4o180b4o19bo22b4o19bo160b4o19bo22b4o19bo22b4o19bo
22b4o19bo22b4o19bo160b4o19bo22b4o19bo206b4o19bo22b4o19bo160b4o19bo22b
4o19bo114b4o19bo22b4o19bo22b4o19bo22b4o19bo22b4o42b4o19bo22b4o157bo22b
4o19bo22b4o19bo22b4o111bo22b4o19bo22b4o19bo22b4o19bo22b4o19bo22b4o19bo
344b4o19bo22b4o19bo22b4o19bo22b4o42b4o19bo22b4o19bo160b4o19bo22b4o19bo
22b4o19bo22b4o19bo22b4o19bo22b4o111bo22b4o19bo22b4o111bo22b4o19bo22b4o
157bo22b4o19bo22b4o19bo22b4o19bo22b4o19bo22b4o387bo22b4o19bo22b4o19bo
22b4o19bo22b4o19bo22b4o19bo229bo22b4o19bo22b4o19bo73bobobobo44bobo163b
o265b2o262bo$2bo5bo42bo2bo42bo2bo180bo2bo42bo2bo226bo2bo42bo2bo180bo2b
o42bo2bo134bo2bo42bo2bo42bo2bo42bo2bo42bo2bo42bo2bo42bo2bo180bo2bo42bo
2bo42bo2bo134bo2bo42bo2bo42bo2bo42bo2bo42bo2bo364bo2bo42bo2bo42bo2bo
42bo2bo42bo2bo42bo2bo180bo2bo42bo2bo42bo2bo42bo2bo42bo2bo42bo2bo134bo
2bo42bo2bo134bo2bo42bo2bo180bo2bo42bo2bo42bo2bo42bo2bo42bo2bo410bo2bo
42bo2bo42bo2bo42bo2bo42bo2bo272bo2bo42bo2bo42bo2bo88bo2bo42bo2bo42bo2b
o42bo2bo88bo2bo42bo2bo180bo2bo42bo2bo42bo2bo88bo2bo42bo2bo180bo2bo42bo
2bo42bo2bo42bo2bo42bo2bo134bo2bo42bo2bo180bo2bo42bo2bo180bo2bo42bo2bo
42bo2bo134bo2bo42bo2bo42bo2bo42bo2bo42bo2bo42bo2bo870bo2bo42bo2bo42bo
2bo42bo2bo42bo2bo42bo2bo226bo2bo42bo2bo180bo2bo42bo2bo42bo2bo42bo2bo
42bo2bo180bo2bo42bo2bo226bo2bo42bo2bo180bo2bo42bo2bo134bo2bo42bo2bo42b
o2bo42bo2bo88bo2bo180bo2bo42bo2bo42bo2bo134bo2bo42bo2bo42bo2bo42bo2bo
42bo2bo42bo2bo364bo2bo42bo2bo42bo2bo88bo2bo42bo2bo180bo2bo42bo2bo42bo
2bo42bo2bo42bo2bo134bo2bo42bo2bo134bo2bo42bo2bo180bo2bo42bo2bo42bo2bo
42bo2bo42bo2bo410bo2bo42bo2bo42bo2bo42bo2bo42bo2bo42bo2bo226bo2bo42bo
2bo42bo2bo69bobobobo44b3o60b2o631b3o167bo$bob2o12997bo9bo105b2o12bobo
187bo5bo592b2o$bo12999bo11bo119b2o119bo66b3o3b3o590bobo$2o12945b2o157b
2o25bo120b2o65bob2ob2obo284bo$12947b2o56b2ob2o96b2o145bobo67b2ob2o190b
2o93bo$13003bo2bobo2bo311b2ob2o191b2o92b3o262bo$13003b3o3b3o28bobo12bo
7bo259b2ob2o190bo359bobo$13041b2o10bob2o5b2obo150b2ob2o657b2o$13041bo
11bo3b2ob2o3bo150b2ob2o255bo$13010b2o42bo3bobo3bo151b2ob2o159b2o61b2o
30bo$13010b2o43b3o3b3o150bob2ob2obo158b2o60b2o30b3o262bo$2o13212b3o3b
3o157bo359bobo$bo13142bo32b2o36bo5bo518b2o167b2o$bob2o13140b2o23b3o4b
2o731b2o$2bo5bo42bo2bo42bo2bo42bo2bo134bo2bo42bo2bo226bo2bo42bo2bo180b
o2bo42bo2bo134bo2bo42bo2bo42bo2bo42bo2bo42bo2bo42bo2bo42bo2bo134bo2bo
42bo2bo42bo2bo42bo2bo88bo2bo42bo2bo42bo2bo42bo2bo42bo2bo42bo2bo42bo2bo
318bo2bo42bo2bo42bo2bo42bo2bo42bo2bo42bo2bo180bo2bo42bo2bo42bo2bo42bo
2bo42bo2bo42bo2bo134bo2bo42bo2bo134bo2bo42bo2bo134bo2bo42bo2bo42bo2bo
42bo2bo42bo2bo42bo2bo364bo2bo42bo2bo42bo2bo42bo2bo42bo2bo42bo2bo42bo2b
o180bo2bo42bo2bo42bo2bo42bo2bo88bo2bo42bo2bo42bo2bo42bo2bo42bo2bo42bo
2bo42bo2bo134bo2bo42bo2bo42bo2bo42bo2bo42bo2bo42bo2bo42bo2bo134bo2bo
42bo2bo42bo2bo42bo2bo42bo2bo42bo2bo42bo2bo88bo2bo42bo2bo180bo2bo42bo2b
o180bo2bo42bo2bo42bo2bo134bo2bo42bo2bo42bo2bo42bo2bo42bo2bo42bo2bo824b
o2bo42bo2bo42bo2bo42bo2bo42bo2bo42bo2bo42bo2bo42bo2bo180bo2bo42bo2bo
134bo2bo42bo2bo42bo2bo42bo2bo42bo2bo42bo2bo180bo2bo42bo2bo226bo2bo42bo
2bo180bo2bo42bo2bo88bo2bo42bo2bo42bo2bo42bo2bo42bo2bo42bo2bo42bo2bo
180bo2bo42bo2bo42bo2bo134bo2bo42bo2bo42bo2bo42bo2bo42bo2bo42bo2bo318bo
2bo42bo2bo42bo2bo42bo2bo42bo2bo42bo2bo42bo2bo134bo2bo42bo2bo42bo2bo42b
o2bo42bo2bo42bo2bo42bo2bo88bo2bo42bo2bo134bo2bo42bo2bo180bo2bo42bo2bo
42bo2bo42bo2bo42bo2bo42bo2bo364bo2bo42bo2bo42bo2bo42bo2bo42bo2bo42bo2b
o226bo2bo42bo2bo42bo2bo183b2o5b2o17b2o176bo586bo$27b4o19bo22b4o19bo22b
4o19bo137bo22b4o19bo22b4o203bo22b4o19bo22b4o157bo22b4o19bo22b4o88b4o
19bo22b4o19bo22b4o19bo22b4o19bo22b4o19bo22b4o19bo22b4o19bo137bo22b4o
19bo22b4o19bo22b4o19bo91bo22b4o19bo22b4o19bo22b4o19bo22b4o19bo22b4o19b
o22b4o19bo298b4o19bo22b4o19bo22b4o19bo22b4o19bo22b4o19bo22b4o19bo22b4o
134b4o19bo22b4o19bo22b4o19bo22b4o19bo22b4o19bo22b4o19bo22b4o88b4o19bo
22b4o19bo114b4o19bo22b4o19bo137bo22b4o19bo22b4o19bo22b4o19bo22b4o19bo
22b4o19bo22b4o341bo22b4o19bo22b4o19bo22b4o19bo22b4o19bo22b4o19bo22b4o
19bo183bo22b4o19bo22b4o19bo22b4o19bo91bo22b4o19bo22b4o19bo22b4o19bo22b
4o19bo22b4o19bo22b4o19bo137bo22b4o19bo22b4o19bo22b4o19bo22b4o19bo22b4o
19bo22b4o19bo137bo22b4o19bo22b4o19bo22b4o19bo22b4o19bo22b4o19bo22b4o
19bo91bo22b4o19bo22b4o157bo22b4o19bo22b4o134b4o19bo22b4o19bo22b4o19bo
22b4o88b4o19bo22b4o19bo22b4o19bo22b4o19bo22b4o19bo22b4o19bo22b4o801bo
22b4o19bo22b4o19bo22b4o19bo22b4o19bo22b4o19bo22b4o19bo22b4o19bo22b4o
134b4o19bo22b4o19bo137bo22b4o19bo22b4o19bo22b4o19bo22b4o19bo22b4o19bo
22b4o134b4o19bo22b4o19bo206b4o19bo22b4o19bo160b4o19bo22b4o19bo91bo22b
4o19bo22b4o19bo22b4o19bo22b4o19bo22b4o19bo22b4o19bo22b4o134b4o19bo22b
4o19bo22b4o19bo22b4o88b4o19bo22b4o19bo22b4o19bo22b4o19bo22b4o19bo22b4o
19bo22b4o295bo22b4o19bo22b4o19bo22b4o19bo22b4o19bo22b4o19bo22b4o19bo
137bo22b4o19bo22b4o19bo22b4o19bo22b4o19bo22b4o19bo22b4o19bo91bo22b4o
19bo22b4o111bo22b4o19bo22b4o134b4o19bo22b4o19bo22b4o19bo22b4o19bo22b4o
19bo22b4o19bo344b4o19bo22b4o19bo22b4o19bo22b4o19bo22b4o19bo22b4o19bo
22b4o180b4o19bo22b4o19bo22b4o19bo22b4o88b4o68bo2bo3bo2bo41bo3bo146bobo
11b5o$3bo4bo18bo3bo18bo3bo18bo3bo18bo3bo18bo3bo18bo3bo133bo3bo18bo3bo
18bo3bo18bo3bo202bo3bo18bo3bo18bo3bo18bo3bo156bo3bo18bo3bo18bo3bo18bo
3bo87bo3bo18bo3bo18bo3bo18bo3bo18bo3bo18bo3bo18bo3bo18bo3bo18bo3bo18bo
3bo18bo3bo18bo3bo18bo3bo18bo3bo133bo3bo18bo3bo18bo3bo18bo3bo18bo3bo18b
o3bo18bo3bo87bo3bo18bo3bo18bo3bo18bo3bo18bo3bo18bo3bo18bo3bo18bo3bo18b
o3bo18bo3bo18bo3bo18bo3bo18bo3bo294bo3bo18bo3bo18bo3bo18bo3bo18bo3bo
18bo3bo18bo3bo18bo3bo18bo3bo18bo3bo18bo3bo18bo3bo18bo3bo133bo3bo18bo3b
o18bo3bo18bo3bo18bo3bo18bo3bo18bo3bo18bo3bo18bo3bo18bo3bo18bo3bo18bo3b
o18bo3bo87bo3bo18bo3bo18bo3bo18bo3bo110bo3bo18bo3bo18bo3bo18bo3bo133bo
3bo18bo3bo18bo3bo18bo3bo18bo3bo18bo3bo18bo3bo18bo3bo18bo3bo18bo3bo18bo
3bo18bo3bo340bo3bo18bo3bo18bo3bo18bo3bo18bo3bo18bo3bo18bo3bo18bo3bo18b
o3bo18bo3bo18bo3bo18bo3bo18bo3bo179bo3bo18bo3bo18bo3bo18bo3bo18bo3bo
18bo3bo18bo3bo87bo3bo18bo3bo18bo3bo18bo3bo18bo3bo18bo3bo18bo3bo18bo3bo
18bo3bo18bo3bo18bo3bo18bo3bo18bo3bo133bo3bo18bo3bo18bo3bo18bo3bo18bo3b
o18bo3bo18bo3bo18bo3bo18bo3bo18bo3bo18bo3bo18bo3bo18bo3bo133bo3bo18bo
3bo18bo3bo18bo3bo18bo3bo18bo3bo18bo3bo18bo3bo18bo3bo18bo3bo18bo3bo18bo
3bo18bo3bo87bo3bo18bo3bo18bo3bo18bo3bo156bo3bo18bo3bo18bo3bo18bo3bo
133bo3bo18bo3bo18bo3bo18bo3bo18bo3bo18bo3bo18bo3bo87bo3bo18bo3bo18bo3b
o18bo3bo18bo3bo18bo3bo18bo3bo18bo3bo18bo3bo18bo3bo18bo3bo18bo3bo18bo3b
o800bo3bo18bo3bo18bo3bo18bo3bo18bo3bo18bo3bo18bo3bo18bo3bo18bo3bo18bo
3bo18bo3bo18bo3bo18bo3bo18bo3bo18bo3bo18bo3bo133bo3bo18bo3bo18bo3bo18b
o3bo133bo3bo18bo3bo18bo3bo18bo3bo18bo3bo18bo3bo18bo3bo18bo3bo18bo3bo
18bo3bo18bo3bo18bo3bo133bo3bo18bo3bo18bo3bo18bo3bo202bo3bo18bo3bo18bo
3bo18bo3bo156bo3bo18bo3bo18bo3bo18bo3bo87bo3bo18bo3bo18bo3bo18bo3bo18b
o3bo18bo3bo18bo3bo18bo3bo18bo3bo18bo3bo18bo3bo18bo3bo18bo3bo18bo3bo
133bo3bo18bo3bo18bo3bo18bo3bo18bo3bo18bo3bo18bo3bo87bo3bo18bo3bo18bo3b
o18bo3bo18bo3bo18bo3bo18bo3bo18bo3bo18bo3bo18bo3bo18bo3bo18bo3bo18bo3b
o294bo3bo18bo3bo18bo3bo18bo3bo18bo3bo18bo3bo18bo3bo18bo3bo18bo3bo18bo
3bo18bo3bo18bo3bo18bo3bo133bo3bo18bo3bo18bo3bo18bo3bo18bo3bo18bo3bo18b
o3bo18bo3bo18bo3bo18bo3bo18bo3bo18bo3bo18bo3bo87bo3bo18bo3bo18bo3bo18b
o3bo110bo3bo18bo3bo18bo3bo18bo3bo133bo3bo18bo3bo18bo3bo18bo3bo18bo3bo
18bo3bo18bo3bo18bo3bo18bo3bo18bo3bo18bo3bo18bo3bo340bo3bo18bo3bo18bo3b
o18bo3bo18bo3bo18bo3bo18bo3bo18bo3bo18bo3bo18bo3bo18bo3bo18bo3bo18bo3b
o179bo3bo18bo3bo18bo3bo18bo3bo18bo3bo18bo3bo18bo3bo87bo3bo70b2ob2o44bo
3bo146b5o11bobo528bo$6b2o19bo22b4o19bo22b4o19bo22b4o134b4o19bo22b4o19b
o206b4o19bo22b4o19bo160b4o19bo22b4o19bo91bo22b4o19bo22b4o19bo22b4o19bo
22b4o19bo22b4o19bo22b4o19bo22b4o134b4o19bo22b4o19bo22b4o19bo22b4o88b4o
19bo22b4o19bo22b4o19bo22b4o19bo22b4o19bo22b4o19bo22b4o295bo22b4o19bo
22b4o19bo22b4o19bo22b4o19bo22b4o19bo22b4o19bo137bo22b4o19bo22b4o19bo
22b4o19bo22b4o19bo22b4o19bo22b4o19bo91bo22b4o19bo22b4o111bo22b4o19bo
22b4o134b4o19bo22b4o19bo22b4o19bo22b4o19bo22b4o19bo22b4o19bo344b4o19bo
22b4o19bo22b4o19bo22b4o19bo22b4o19bo22b4o19bo22b4o180b4o19bo22b4o19bo
22b4o19bo22b4o88b4o19bo22b4o19bo22b4o19bo22b4o19bo22b4o19bo22b4o19bo
22b4o134b4o19bo22b4o19bo22b4o19bo22b4o19bo22b4o19bo22b4o19bo22b4o134b
4o19bo22b4o19bo22b4o19bo22b4o19bo22b4o19bo22b4o19bo22b4o88b4o19bo22b4o
19bo160b4o19bo22b4o19bo137bo22b4o19bo22b4o19bo22b4o19bo91bo22b4o19bo
22b4o19bo22b4o19bo22b4o19bo22b4o19bo22b4o19bo804b4o19bo22b4o19bo22b4o
19bo22b4o19bo22b4o19bo22b4o19bo22b4o19bo22b4o19bo137bo22b4o19bo22b4o
134b4o19bo22b4o19bo22b4o19bo22b4o19bo22b4o19bo22b4o19bo137bo22b4o19bo
22b4o203bo22b4o19bo22b4o157bo22b4o19bo22b4o88b4o19bo22b4o19bo22b4o19bo
22b4o19bo22b4o19bo22b4o19bo22b4o19bo137bo22b4o19bo22b4o19bo22b4o19bo
91bo22b4o19bo22b4o19bo22b4o19bo22b4o19bo22b4o19bo22b4o19bo298b4o19bo
22b4o19bo22b4o19bo22b4o19bo22b4o19bo22b4o19bo22b4o134b4o19bo22b4o19bo
22b4o19bo22b4o19bo22b4o19bo22b4o19bo22b4o88b4o19bo22b4o19bo114b4o19bo
22b4o19bo137bo22b4o19bo22b4o19bo22b4o19bo22b4o19bo22b4o19bo22b4o341bo
22b4o19bo22b4o19bo22b4o19bo22b4o19bo22b4o19bo22b4o19bo183bo22b4o19bo
22b4o19bo22b4o19bo91bo73bobobobo44bobo163bo434b2o93bo$2bo25bo2bo42bo2b
o42bo2bo180bo2bo42bo2bo226bo2bo42bo2bo180bo2bo42bo2bo88bo2bo42bo2bo42b
o2bo42bo2bo42bo2bo42bo2bo42bo2bo180bo2bo42bo2bo42bo2bo134bo2bo42bo2bo
42bo2bo42bo2bo42bo2bo42bo2bo318bo2bo42bo2bo42bo2bo42bo2bo42bo2bo42bo2b
o42bo2bo134bo2bo42bo2bo42bo2bo42bo2bo42bo2bo42bo2bo42bo2bo88bo2bo42bo
2bo134bo2bo42bo2bo180bo2bo42bo2bo42bo2bo42bo2bo42bo2bo42bo2bo364bo2bo
42bo2bo42bo2bo42bo2bo42bo2bo42bo2bo226bo2bo42bo2bo42bo2bo134bo2bo42bo
2bo42bo2bo42bo2bo42bo2bo42bo2bo180bo2bo42bo2bo42bo2bo42bo2bo42bo2bo42b
o2bo180bo2bo42bo2bo42bo2bo42bo2bo42bo2bo42bo2bo134bo2bo42bo2bo180bo2bo
42bo2bo134bo2bo42bo2bo42bo2bo42bo2bo88bo2bo42bo2bo42bo2bo42bo2bo42bo2b
o42bo2bo42bo2bo824bo2bo42bo2bo42bo2bo42bo2bo42bo2bo42bo2bo42bo2bo42bo
2bo134bo2bo42bo2bo180bo2bo42bo2bo42bo2bo42bo2bo42bo2bo42bo2bo134bo2bo
42bo2bo226bo2bo42bo2bo180bo2bo42bo2bo134bo2bo42bo2bo42bo2bo42bo2bo42bo
2bo42bo2bo42bo2bo134bo2bo42bo2bo42bo2bo42bo2bo88bo2bo42bo2bo42bo2bo42b
o2bo42bo2bo42bo2bo42bo2bo318bo2bo42bo2bo42bo2bo42bo2bo42bo2bo42bo2bo
180bo2bo42bo2bo42bo2bo42bo2bo42bo2bo42bo2bo134bo2bo42bo2bo134bo2bo42bo
2bo134bo2bo42bo2bo42bo2bo42bo2bo42bo2bo42bo2bo364bo2bo42bo2bo42bo2bo
42bo2bo42bo2bo42bo2bo42bo2bo180bo2bo42bo2bo42bo2bo42bo2bo88bo2bo69bobo
bobo44b3o60b2o537b2o92b3o$bob2o13112bo9bo105b2o202bo5bo327bo$bo13114bo
11bo240bo66b3o3b3o$2o13060b2o157b2o146b2o65bob2ob2obo284bo$13062b2o56b
2ob2o96b2o145bobo67b2ob2o285bo$13118bo2bobo2bo311b2ob2o285b3o$13118b3o
3b3o43bo7bo259b2ob2o$13168bob2o5b2obo150b2ob2o15bo$13168bo3b2ob2o3bo
150b2ob2o16b2o$13125b2o42bo3bobo3bo151b2ob2o15b2o205b2o$13125b2o43b3o
3b3o150bob2ob2obo10bo209b2o200bo94bo$2o13327b3o3b3o8bobo411b2o93bobo$b
o13257bo32b2o36bo5bo10b2o410bobo93b2o$bobo13256b2o23b3o4b2o$2b2o70bo2b
o42bo2bo42bo2bo134bo2bo42bo2bo226bo2bo42bo2bo180bo2bo42bo2bo88bo2bo42b
o2bo42bo2bo134bo2bo42bo2bo180bo2bo42bo2bo134bo2bo42bo2bo42bo2bo134bo2b
o364bo2bo42bo2bo134bo2bo42bo2bo42bo2bo134bo2bo42bo2bo134bo2bo42bo2bo
134bo2bo42bo2bo134bo2bo42bo2bo134bo2bo42bo2bo42bo2bo134bo2bo42bo2bo
318bo2bo42bo2bo42bo2bo42bo2bo42bo2bo42bo2bo42bo2bo42bo2bo180bo2bo42bo
2bo134bo2bo42bo2bo42bo2bo88bo2bo42bo2bo42bo2bo134bo2bo42bo2bo42bo2bo
88bo2bo42bo2bo42bo2bo134bo2bo42bo2bo42bo2bo134bo2bo180bo2bo42bo2bo180b
o2bo42bo2bo134bo2bo42bo2bo180bo2bo42bo2bo134bo2bo42bo2bo824bo2bo42bo2b
o42bo2bo42bo2bo42bo2bo42bo2bo42bo2bo42bo2bo42bo2bo134bo2bo42bo2bo134bo
2bo42bo2bo42bo2bo134bo2bo42bo2bo134bo2bo42bo2bo226bo2bo42bo2bo180bo2bo
42bo2bo134bo2bo42bo2bo134bo2bo42bo2bo42bo2bo134bo2bo42bo2bo180bo2bo42b
o2bo134bo2bo42bo2bo318bo2bo42bo2bo42bo2bo88bo2bo42bo2bo42bo2bo134bo2bo
42bo2bo42bo2bo134bo2bo180bo2bo42bo2bo134bo2bo42bo2bo134bo2bo42bo2bo
134bo2bo42bo2bo42bo2bo318bo2bo42bo2bo42bo2bo42bo2bo42bo2bo42bo2bo42bo
2bo180bo2bo42bo2bo180bo2bo42bo2bo137b2o5b2o17b2o96b2o78bo$73bo22b4o19b
o22b4o19bo114b4o19bo22b4o19bo206b4o19bo22b4o19bo160b4o19bo22b4o19bo91b
o22b4o19bo22b4o19bo114b4o19bo22b4o19bo22b4o134b4o19bo22b4o19bo137bo22b
4o19bo22b4o19bo114b4o19bo22b4o318b4o19bo22b4o19bo22b4o88b4o19bo22b4o
19bo22b4o19bo114b4o19bo22b4o19bo22b4o111bo22b4o19bo137bo22b4o19bo22b4o
111bo22b4o19bo22b4o111bo22b4o19bo22b4o19bo114b4o19bo22b4o19bo22b4o295b
o22b4o19bo22b4o19bo22b4o19bo22b4o19bo22b4o19bo22b4o19bo22b4o19bo160b4o
19bo22b4o19bo137bo22b4o19bo22b4o19bo91bo22b4o19bo22b4o19bo22b4o111bo
22b4o19bo22b4o19bo91bo22b4o19bo22b4o19bo22b4o111bo22b4o19bo22b4o19bo
114b4o19bo22b4o134b4o19bo22b4o19bo160b4o19bo22b4o19bo137bo22b4o19bo22b
4o134b4o19bo22b4o19bo22b4o111bo22b4o19bo827bo22b4o19bo22b4o19bo22b4o
19bo22b4o19bo22b4o19bo22b4o19bo22b4o19bo22b4o19bo22b4o111bo22b4o19bo
22b4o111bo22b4o19bo22b4o19bo114b4o19bo22b4o19bo22b4o111bo22b4o19bo22b
4o203bo22b4o19bo22b4o157bo22b4o19bo22b4o88b4o19bo22b4o19bo22b4o111bo
22b4o19bo22b4o19bo137bo22b4o19bo22b4o134b4o19bo22b4o19bo22b4o111bo22b
4o19bo321bo22b4o19bo22b4o19bo91bo22b4o19bo22b4o19bo22b4o111bo22b4o19bo
22b4o19bo114b4o19bo22b4o134b4o19bo22b4o19bo114b4o19bo22b4o19bo114b4o
19bo22b4o19bo22b4o111bo22b4o19bo22b4o19bo298b4o19bo22b4o19bo22b4o19bo
22b4o19bo22b4o19bo22b4o19bo22b4o19bo22b4o157bo22b4o19bo22b4o134b4o19bo
22b4o19bo22b4o114bo2bo3bo2bo41bo3bo69b2o75bobo11b5o263bo$73bo3bo18bo3b
o18bo3bo18bo3bo18bo3bo110bo3bo18bo3bo18bo3bo18bo3bo202bo3bo18bo3bo18bo
3bo18bo3bo156bo3bo18bo3bo18bo3bo18bo3bo87bo3bo18bo3bo18bo3bo18bo3bo18b
o3bo110bo3bo18bo3bo18bo3bo18bo3bo18bo3bo133bo3bo18bo3bo18bo3bo18bo3bo
133bo3bo18bo3bo18bo3bo18bo3bo18bo3bo110bo3bo18bo3bo18bo3bo317bo3bo18bo
3bo18bo3bo18bo3bo18bo3bo87bo3bo18bo3bo18bo3bo18bo3bo18bo3bo18bo3bo110b
o3bo18bo3bo18bo3bo18bo3bo18bo3bo110bo3bo18bo3bo18bo3bo133bo3bo18bo3bo
18bo3bo18bo3bo110bo3bo18bo3bo18bo3bo18bo3bo110bo3bo18bo3bo18bo3bo18bo
3bo18bo3bo110bo3bo18bo3bo18bo3bo18bo3bo18bo3bo294bo3bo18bo3bo18bo3bo
18bo3bo18bo3bo18bo3bo18bo3bo18bo3bo18bo3bo18bo3bo18bo3bo18bo3bo18bo3bo
18bo3bo18bo3bo156bo3bo18bo3bo18bo3bo18bo3bo133bo3bo18bo3bo18bo3bo18bo
3bo18bo3bo87bo3bo18bo3bo18bo3bo18bo3bo18bo3bo18bo3bo110bo3bo18bo3bo18b
o3bo18bo3bo18bo3bo87bo3bo18bo3bo18bo3bo18bo3bo18bo3bo18bo3bo110bo3bo
18bo3bo18bo3bo18bo3bo18bo3bo110bo3bo18bo3bo18bo3bo133bo3bo18bo3bo18bo
3bo18bo3bo156bo3bo18bo3bo18bo3bo18bo3bo133bo3bo18bo3bo18bo3bo18bo3bo
133bo3bo18bo3bo18bo3bo18bo3bo18bo3bo110bo3bo18bo3bo18bo3bo823bo3bo18bo
3bo18bo3bo18bo3bo18bo3bo18bo3bo18bo3bo18bo3bo18bo3bo18bo3bo18bo3bo18bo
3bo18bo3bo18bo3bo18bo3bo18bo3bo18bo3bo18bo3bo110bo3bo18bo3bo18bo3bo18b
o3bo110bo3bo18bo3bo18bo3bo18bo3bo18bo3bo110bo3bo18bo3bo18bo3bo18bo3bo
18bo3bo110bo3bo18bo3bo18bo3bo18bo3bo202bo3bo18bo3bo18bo3bo18bo3bo156bo
3bo18bo3bo18bo3bo18bo3bo87bo3bo18bo3bo18bo3bo18bo3bo18bo3bo110bo3bo18b
o3bo18bo3bo18bo3bo18bo3bo133bo3bo18bo3bo18bo3bo18bo3bo133bo3bo18bo3bo
18bo3bo18bo3bo18bo3bo110bo3bo18bo3bo18bo3bo317bo3bo18bo3bo18bo3bo18bo
3bo18bo3bo87bo3bo18bo3bo18bo3bo18bo3bo18bo3bo18bo3bo110bo3bo18bo3bo18b
o3bo18bo3bo18bo3bo110bo3bo18bo3bo18bo3bo133bo3bo18bo3bo18bo3bo18bo3bo
110bo3bo18bo3bo18bo3bo18bo3bo110bo3bo18bo3bo18bo3bo18bo3bo18bo3bo110bo
3bo18bo3bo18bo3bo18bo3bo18bo3bo294bo3bo18bo3bo18bo3bo18bo3bo18bo3bo18b
o3bo18bo3bo18bo3bo18bo3bo18bo3bo18bo3bo18bo3bo18bo3bo18bo3bo18bo3bo
156bo3bo18bo3bo18bo3bo18bo3bo133bo3bo18bo3bo18bo3bo18bo3bo18bo3bo116b
2ob2o44bo3bo68bo77b5o11bobo263bobo$73b4o19bo22b4o19bo22b4o111bo22b4o
19bo22b4o203bo22b4o19bo22b4o157bo22b4o19bo22b4o88b4o19bo22b4o19bo22b4o
111bo22b4o19bo22b4o19bo137bo22b4o19bo22b4o134b4o19bo22b4o19bo22b4o111b
o22b4o19bo321bo22b4o19bo22b4o19bo91bo22b4o19bo22b4o19bo22b4o111bo22b4o
19bo22b4o19bo114b4o19bo22b4o134b4o19bo22b4o19bo114b4o19bo22b4o19bo114b
4o19bo22b4o19bo22b4o111bo22b4o19bo22b4o19bo298b4o19bo22b4o19bo22b4o19b
o22b4o19bo22b4o19bo22b4o19bo22b4o19bo22b4o157bo22b4o19bo22b4o134b4o19b
o22b4o19bo22b4o88b4o19bo22b4o19bo22b4o19bo114b4o19bo22b4o19bo22b4o88b
4o19bo22b4o19bo22b4o19bo114b4o19bo22b4o19bo22b4o111bo22b4o19bo137bo22b
4o19bo22b4o157bo22b4o19bo22b4o134b4o19bo22b4o19bo137bo22b4o19bo22b4o
19bo114b4o19bo22b4o824b4o19bo22b4o19bo22b4o19bo22b4o19bo22b4o19bo22b4o
19bo22b4o19bo22b4o19bo22b4o19bo114b4o19bo22b4o19bo114b4o19bo22b4o19bo
22b4o111bo22b4o19bo22b4o19bo114b4o19bo22b4o19bo206b4o19bo22b4o19bo160b
4o19bo22b4o19bo91bo22b4o19bo22b4o19bo114b4o19bo22b4o19bo22b4o134b4o19b
o22b4o19bo137bo22b4o19bo22b4o19bo114b4o19bo22b4o318b4o19bo22b4o19bo22b
4o88b4o19bo22b4o19bo22b4o19bo114b4o19bo22b4o19bo22b4o111bo22b4o19bo
137bo22b4o19bo22b4o111bo22b4o19bo22b4o111bo22b4o19bo22b4o19bo114b4o19b
o22b4o19bo22b4o295bo22b4o19bo22b4o19bo22b4o19bo22b4o19bo22b4o19bo22b4o
19bo22b4o19bo160b4o19bo22b4o19bo137bo22b4o19bo22b4o19bo119bobobobo44bo
bo163bo265b2o$2b2o93bo2bo42bo2bo134bo2bo42bo2bo226bo2bo42bo2bo180bo2bo
42bo2bo134bo2bo42bo2bo134bo2bo42bo2bo42bo2bo134bo2bo42bo2bo180bo2bo42b
o2bo134bo2bo42bo2bo318bo2bo42bo2bo42bo2bo88bo2bo42bo2bo42bo2bo134bo2bo
42bo2bo42bo2bo134bo2bo180bo2bo42bo2bo134bo2bo42bo2bo134bo2bo42bo2bo
134bo2bo42bo2bo42bo2bo318bo2bo42bo2bo42bo2bo42bo2bo42bo2bo42bo2bo42bo
2bo180bo2bo42bo2bo180bo2bo42bo2bo134bo2bo42bo2bo42bo2bo134bo2bo42bo2bo
134bo2bo42bo2bo42bo2bo134bo2bo42bo2bo134bo2bo42bo2bo134bo2bo42bo2bo
180bo2bo42bo2bo180bo2bo42bo2bo134bo2bo42bo2bo42bo2bo134bo2bo870bo2bo
42bo2bo42bo2bo42bo2bo42bo2bo42bo2bo42bo2bo42bo2bo42bo2bo134bo2bo42bo2b
o134bo2bo42bo2bo134bo2bo42bo2bo42bo2bo134bo2bo42bo2bo226bo2bo42bo2bo
180bo2bo42bo2bo88bo2bo42bo2bo42bo2bo134bo2bo42bo2bo180bo2bo42bo2bo134b
o2bo42bo2bo42bo2bo134bo2bo364bo2bo42bo2bo134bo2bo42bo2bo42bo2bo134bo2b
o42bo2bo134bo2bo42bo2bo134bo2bo42bo2bo134bo2bo42bo2bo134bo2bo42bo2bo
42bo2bo134bo2bo42bo2bo318bo2bo42bo2bo42bo2bo42bo2bo42bo2bo42bo2bo42bo
2bo42bo2bo180bo2bo42bo2bo134bo2bo42bo2bo42bo2bo115bobobobo44b3o60b2o$b
obo13228bo9bo105b2o12bobo187bo5bo$bo13229bo11bo119b2o186b3o3b3o$2o
13175b2o157b2o25bo187bob2ob2obo284bo$13177b2o56b2ob2o96b2o215b2ob2o
190b2o93bo$13233bo2bobo2bo311b2ob2o191b2o92b3o$13233b3o3b3o28bobo12bo
7bo259b2ob2o190bo$13271b2o10bob2o5b2obo150b2ob2o$13271bo11bo3b2ob2o3bo
150b2ob2o255bo$13240b2o42bo3bobo3bo151b2ob2o222b2o30bo$13240b2o43b3o3b
3o150bob2ob2obo220b2o30b3o$2o13442b3o3b3o$bo13372bo32b2o36bo5bo$bobo
13371b2o23b3o4b2o$2b2o93bo2bo42bo2bo134bo2bo42bo2bo226bo2bo42bo2bo180b
o2bo42bo2bo134bo2bo42bo2bo180bo2bo42bo2bo134bo2bo42bo2bo180bo2bo42bo2b
o502bo2bo42bo2bo180bo2bo42bo2bo134bo2bo42bo2bo364bo2bo42bo2bo134bo2bo
42bo2bo134bo2bo42bo2bo180bo2bo42bo2bo318bo2bo42bo2bo180bo2bo42bo2bo42b
o2bo134bo2bo42bo2bo180bo2bo42bo2bo134bo2bo42bo2bo42bo2bo134bo2bo42bo2b
o134bo2bo42bo2bo42bo2bo134bo2bo42bo2bo318bo2bo42bo2bo180bo2bo42bo2bo
180bo2bo42bo2bo134bo2bo42bo2bo1054bo2bo42bo2bo42bo2bo180bo2bo42bo2bo
42bo2bo134bo2bo42bo2bo134bo2bo42bo2bo180bo2bo42bo2bo134bo2bo42bo2bo
226bo2bo42bo2bo180bo2bo42bo2bo88bo2bo42bo2bo180bo2bo42bo2bo180bo2bo42b
o2bo134bo2bo42bo2bo548bo2bo42bo2bo134bo2bo42bo2bo42bo2bo134bo2bo42bo2b
o318bo2bo42bo2bo134bo2bo42bo2bo134bo2bo42bo2bo180bo2bo42bo2bo318bo2bo
42bo2bo42bo2bo134bo2bo42bo2bo42bo2bo180bo2bo42bo2bo134bo2bo42bo2bo180b
o2bo91b2o5b2o17b2o176bo16bobo$96bo22b4o19bo22b4o111bo22b4o19bo22b4o
203bo22b4o19bo22b4o157bo22b4o19bo22b4o88b4o19bo22b4o19bo160b4o19bo22b
4o19bo137bo22b4o19bo22b4o134b4o19bo22b4o19bo505bo22b4o19bo22b4o134b4o
19bo22b4o19bo22b4o111bo22b4o19bo22b4o318b4o19bo22b4o19bo114b4o19bo22b
4o19bo114b4o19bo22b4o19bo160b4o19bo22b4o19bo298b4o19bo22b4o19bo22b4o
134b4o19bo22b4o19bo22b4o19bo137bo22b4o19bo22b4o134b4o19bo22b4o19bo137b
o22b4o19bo22b4o19bo114b4o19bo22b4o19bo137bo22b4o19bo22b4o19bo114b4o19b
o22b4o19bo321bo22b4o19bo22b4o157bo22b4o19bo22b4o134b4o19bo22b4o19bo
137bo22b4o19bo22b4o1008b4o19bo22b4o19bo22b4o19bo160b4o19bo22b4o19bo22b
4o19bo114b4o19bo22b4o19bo114b4o19bo22b4o19bo160b4o19bo22b4o19bo114b4o
19bo22b4o19bo206b4o19bo22b4o19bo160b4o19bo22b4o19bo91bo22b4o19bo22b4o
157bo22b4o19bo22b4o134b4o19bo22b4o19bo137bo22b4o19bo22b4o502b4o19bo22b
4o19bo137bo22b4o19bo22b4o19bo114b4o19bo22b4o19bo321bo22b4o19bo22b4o
111bo22b4o19bo22b4o111bo22b4o19bo22b4o157bo22b4o19bo22b4o295bo22b4o19b
o22b4o19bo137bo22b4o19bo22b4o19bo22b4o134b4o19bo22b4o19bo137bo22b4o19b
o22b4o134b4o19bo22b4o68bo2bo3bo2bo41bo3bo146bobo11bo5b2o165bo94bo$96bo
3bo18bo3bo18bo3bo18bo3bo110bo3bo18bo3bo18bo3bo18bo3bo202bo3bo18bo3bo
18bo3bo18bo3bo156bo3bo18bo3bo18bo3bo18bo3bo87bo3bo18bo3bo18bo3bo18bo3b
o156bo3bo18bo3bo18bo3bo18bo3bo133bo3bo18bo3bo18bo3bo18bo3bo133bo3bo18b
o3bo18bo3bo18bo3bo501bo3bo18bo3bo18bo3bo18bo3bo133bo3bo18bo3bo18bo3bo
18bo3bo18bo3bo110bo3bo18bo3bo18bo3bo18bo3bo317bo3bo18bo3bo18bo3bo18bo
3bo110bo3bo18bo3bo18bo3bo18bo3bo110bo3bo18bo3bo18bo3bo18bo3bo156bo3bo
18bo3bo18bo3bo18bo3bo294bo3bo18bo3bo18bo3bo18bo3bo18bo3bo133bo3bo18bo
3bo18bo3bo18bo3bo18bo3bo18bo3bo133bo3bo18bo3bo18bo3bo18bo3bo133bo3bo
18bo3bo18bo3bo18bo3bo133bo3bo18bo3bo18bo3bo18bo3bo18bo3bo110bo3bo18bo
3bo18bo3bo18bo3bo133bo3bo18bo3bo18bo3bo18bo3bo18bo3bo110bo3bo18bo3bo
18bo3bo18bo3bo317bo3bo18bo3bo18bo3bo18bo3bo156bo3bo18bo3bo18bo3bo18bo
3bo133bo3bo18bo3bo18bo3bo18bo3bo133bo3bo18bo3bo18bo3bo18bo3bo1007bo3bo
18bo3bo18bo3bo18bo3bo18bo3bo18bo3bo156bo3bo18bo3bo18bo3bo18bo3bo18bo3b
o18bo3bo110bo3bo18bo3bo18bo3bo18bo3bo110bo3bo18bo3bo18bo3bo18bo3bo156b
o3bo18bo3bo18bo3bo18bo3bo110bo3bo18bo3bo18bo3bo18bo3bo202bo3bo18bo3bo
18bo3bo18bo3bo156bo3bo18bo3bo18bo3bo18bo3bo87bo3bo18bo3bo18bo3bo18bo3b
o156bo3bo18bo3bo18bo3bo18bo3bo133bo3bo18bo3bo18bo3bo18bo3bo133bo3bo18b
o3bo18bo3bo18bo3bo501bo3bo18bo3bo18bo3bo18bo3bo133bo3bo18bo3bo18bo3bo
18bo3bo18bo3bo110bo3bo18bo3bo18bo3bo18bo3bo317bo3bo18bo3bo18bo3bo18bo
3bo110bo3bo18bo3bo18bo3bo18bo3bo110bo3bo18bo3bo18bo3bo18bo3bo156bo3bo
18bo3bo18bo3bo18bo3bo294bo3bo18bo3bo18bo3bo18bo3bo18bo3bo133bo3bo18bo
3bo18bo3bo18bo3bo18bo3bo18bo3bo133bo3bo18bo3bo18bo3bo18bo3bo133bo3bo
18bo3bo18bo3bo18bo3bo133bo3bo18bo3bo18bo3bo70b2ob2o44bo3bo146b5o11bo3b
o166b2o93bobo$96b4o19bo22b4o19bo114b4o19bo22b4o19bo206b4o19bo22b4o19bo
160b4o19bo22b4o19bo91bo22b4o19bo22b4o157bo22b4o19bo22b4o134b4o19bo22b
4o19bo137bo22b4o19bo22b4o502b4o19bo22b4o19bo137bo22b4o19bo22b4o19bo
114b4o19bo22b4o19bo321bo22b4o19bo22b4o111bo22b4o19bo22b4o111bo22b4o19b
o22b4o157bo22b4o19bo22b4o295bo22b4o19bo22b4o19bo137bo22b4o19bo22b4o19b
o22b4o134b4o19bo22b4o19bo137bo22b4o19bo22b4o134b4o19bo22b4o19bo22b4o
111bo22b4o19bo22b4o134b4o19bo22b4o19bo22b4o111bo22b4o19bo22b4o318b4o
19bo22b4o19bo160b4o19bo22b4o19bo137bo22b4o19bo22b4o134b4o19bo22b4o19bo
1011bo22b4o19bo22b4o19bo22b4o157bo22b4o19bo22b4o19bo22b4o111bo22b4o19b
o22b4o111bo22b4o19bo22b4o157bo22b4o19bo22b4o111bo22b4o19bo22b4o203bo
22b4o19bo22b4o157bo22b4o19bo22b4o88b4o19bo22b4o19bo160b4o19bo22b4o19bo
137bo22b4o19bo22b4o134b4o19bo22b4o19bo505bo22b4o19bo22b4o134b4o19bo22b
4o19bo22b4o111bo22b4o19bo22b4o318b4o19bo22b4o19bo114b4o19bo22b4o19bo
114b4o19bo22b4o19bo160b4o19bo22b4o19bo298b4o19bo22b4o19bo22b4o134b4o
19bo22b4o19bo22b4o19bo137bo22b4o19bo22b4o134b4o19bo22b4o19bo137bo22b4o
19bo73bobobobo44bobo164bo168bobo93b2o$2b2o116bo2bo42bo2bo134bo2bo42bo
2bo226bo2bo42bo2bo180bo2bo42bo2bo88bo2bo42bo2bo180bo2bo42bo2bo180bo2bo
42bo2bo134bo2bo42bo2bo548bo2bo42bo2bo134bo2bo42bo2bo42bo2bo134bo2bo42b
o2bo318bo2bo42bo2bo134bo2bo42bo2bo134bo2bo42bo2bo180bo2bo42bo2bo318bo
2bo42bo2bo42bo2bo134bo2bo42bo2bo42bo2bo180bo2bo42bo2bo134bo2bo42bo2bo
180bo2bo42bo2bo134bo2bo42bo2bo180bo2bo42bo2bo134bo2bo42bo2bo364bo2bo
42bo2bo180bo2bo42bo2bo134bo2bo42bo2bo180bo2bo42bo2bo1008bo2bo42bo2bo
42bo2bo180bo2bo42bo2bo42bo2bo134bo2bo42bo2bo134bo2bo42bo2bo180bo2bo42b
o2bo134bo2bo42bo2bo226bo2bo42bo2bo180bo2bo42bo2bo134bo2bo42bo2bo180bo
2bo42bo2bo134bo2bo42bo2bo180bo2bo42bo2bo502bo2bo42bo2bo180bo2bo42bo2bo
134bo2bo42bo2bo364bo2bo42bo2bo134bo2bo42bo2bo134bo2bo42bo2bo180bo2bo
42bo2bo318bo2bo42bo2bo180bo2bo42bo2bo42bo2bo134bo2bo42bo2bo180bo2bo42b
o2bo134bo2bo42bo2bo69bobobobo44b3o60b2o100b3o$bobo13343bo9bo105b2o202b
o5bo$bo13344bo11bo240bo66b3o3b3o19bo$2o13290b2o157b2o146b2o65bob2ob2ob
o19bobo$13292b2o56b2ob2o96b2o145bobo67b2ob2o21b2o167b2o$13348bo2bobo2b
o311b2ob2o191b2o$13348b3o3b3o28bobo12bo7bo259b2ob2o190bo$13386b2o10bob
2o5b2obo150b2ob2o15bo$13386bo11bo3b2ob2o3bo150b2ob2o16b2o237bo$13355b
2o42bo3bobo3bo151b2ob2o15b2o205b2o30bo$13355b2o43b3o3b3o150bob2ob2obo
10bo209b2o30b3o$2o13557b3o3b3o8bobo$bo13520b2o36bo5bo10b2o$bobo13511b
3o4b2o$2b2o116bo2bo42bo2bo134bo2bo42bo2bo226bo2bo42bo2bo180bo2bo42bo2b
o88bo2bo42bo2bo180bo2bo42bo2bo180bo2bo42bo2bo134bo2bo42bo2bo502bo2bo
42bo2bo226bo2bo42bo2bo88bo2bo42bo2bo364bo2bo42bo2bo134bo2bo42bo2bo134b
o2bo42bo2bo226bo2bo42bo2bo272bo2bo42bo2bo226bo2bo42bo2bo180bo2bo42bo2b
o134bo2bo42bo2bo180bo2bo42bo2bo134bo2bo42bo2bo180bo2bo42bo2bo134bo2bo
42bo2bo364bo2bo42bo2bo180bo2bo42bo2bo134bo2bo42bo2bo134bo2bo42bo2bo
1054bo2bo42bo2bo272bo2bo42bo2bo134bo2bo42bo2bo134bo2bo42bo2bo226bo2bo
42bo2bo88bo2bo42bo2bo226bo2bo42bo2bo180bo2bo42bo2bo134bo2bo42bo2bo180b
o2bo42bo2bo134bo2bo42bo2bo134bo2bo42bo2bo548bo2bo42bo2bo180bo2bo42bo2b
o134bo2bo42bo2bo364bo2bo42bo2bo134bo2bo42bo2bo88bo2bo42bo2bo226bo2bo
42bo2bo272bo2bo42bo2bo42bo2bo226bo2bo42bo2bo134bo2bo42bo2bo180bo2bo42b
o2bo180bo2bo42bo2bo137b2o5b2o115b2o78bo16bobo$119bo22b4o19bo22b4o88b4o
19bo22b4o19bo206b4o19bo22b4o19bo160b4o19bo22b4o19bo91bo22b4o19bo22b4o
157bo22b4o19bo22b4o134b4o19bo22b4o19bo114b4o19bo22b4o19bo505bo22b4o19b
o22b4o180b4o19bo22b4o19bo91bo22b4o19bo22b4o341bo22b4o19bo22b4o111bo22b
4o19bo22b4o88b4o19bo22b4o19bo206b4o19bo22b4o19bo252b4o19bo22b4o19bo22b
4o203bo22b4o19bo22b4o134b4o19bo22b4o19bo137bo22b4o19bo22b4o157bo22b4o
19bo22b4o88b4o19bo22b4o19bo183bo22b4o19bo22b4o88b4o19bo22b4o19bo344b4o
19bo22b4o19bo160b4o19bo22b4o19bo137bo22b4o19bo22b4o111bo22b4o19bo22b4o
1008b4o19bo22b4o19bo22b4o249bo22b4o19bo22b4o111bo22b4o19bo22b4o88b4o
19bo22b4o19bo206b4o19bo22b4o19bo91bo22b4o19bo22b4o203bo22b4o19bo22b4o
157bo22b4o19bo22b4o88b4o19bo22b4o19bo160b4o19bo22b4o19bo137bo22b4o19bo
22b4o111bo22b4o19bo22b4o502b4o19bo22b4o19bo183bo22b4o19bo22b4o88b4o19b
o22b4o19bo344b4o19bo22b4o19bo114b4o19bo22b4o19bo91bo22b4o19bo22b4o203b
o22b4o19bo22b4o249bo22b4o19bo22b4o19bo206b4o19bo22b4o19bo137bo22b4o19b
o22b4o134b4o19bo22b4o19bo160b4o19bo22b4o19bo140bo2bo3bo2bo41bo3bo69b2o
75bobo11bo5b2o165bo$119bo3bo18bo3bo18bo3bo18bo3bo87bo3bo18bo3bo18bo3bo
18bo3bo202bo3bo18bo3bo18bo3bo18bo3bo156bo3bo18bo3bo18bo3bo18bo3bo87bo
3bo18bo3bo18bo3bo18bo3bo156bo3bo18bo3bo18bo3bo18bo3bo133bo3bo18bo3bo
18bo3bo18bo3bo110bo3bo18bo3bo18bo3bo18bo3bo501bo3bo18bo3bo18bo3bo18bo
3bo179bo3bo18bo3bo18bo3bo18bo3bo87bo3bo18bo3bo18bo3bo18bo3bo340bo3bo
18bo3bo18bo3bo18bo3bo110bo3bo18bo3bo18bo3bo18bo3bo87bo3bo18bo3bo18bo3b
o18bo3bo202bo3bo18bo3bo18bo3bo18bo3bo248bo3bo18bo3bo18bo3bo18bo3bo18bo
3bo202bo3bo18bo3bo18bo3bo18bo3bo133bo3bo18bo3bo18bo3bo18bo3bo133bo3bo
18bo3bo18bo3bo18bo3bo156bo3bo18bo3bo18bo3bo18bo3bo87bo3bo18bo3bo18bo3b
o18bo3bo179bo3bo18bo3bo18bo3bo18bo3bo87bo3bo18bo3bo18bo3bo18bo3bo340bo
3bo18bo3bo18bo3bo18bo3bo156bo3bo18bo3bo18bo3bo18bo3bo133bo3bo18bo3bo
18bo3bo18bo3bo110bo3bo18bo3bo18bo3bo18bo3bo1007bo3bo18bo3bo18bo3bo18bo
3bo18bo3bo248bo3bo18bo3bo18bo3bo18bo3bo110bo3bo18bo3bo18bo3bo18bo3bo
87bo3bo18bo3bo18bo3bo18bo3bo202bo3bo18bo3bo18bo3bo18bo3bo87bo3bo18bo3b
o18bo3bo18bo3bo202bo3bo18bo3bo18bo3bo18bo3bo156bo3bo18bo3bo18bo3bo18bo
3bo87bo3bo18bo3bo18bo3bo18bo3bo156bo3bo18bo3bo18bo3bo18bo3bo133bo3bo
18bo3bo18bo3bo18bo3bo110bo3bo18bo3bo18bo3bo18bo3bo501bo3bo18bo3bo18bo
3bo18bo3bo179bo3bo18bo3bo18bo3bo18bo3bo87bo3bo18bo3bo18bo3bo18bo3bo
340bo3bo18bo3bo18bo3bo18bo3bo110bo3bo18bo3bo18bo3bo18bo3bo87bo3bo18bo
3bo18bo3bo18bo3bo202bo3bo18bo3bo18bo3bo18bo3bo248bo3bo18bo3bo18bo3bo
18bo3bo18bo3bo202bo3bo18bo3bo18bo3bo18bo3bo133bo3bo18bo3bo18bo3bo18bo
3bo133bo3bo18bo3bo18bo3bo18bo3bo156bo3bo18bo3bo18bo3bo18bo3bo139b2ob2o
44bo3bo68bo77b5o11bo3bo166b2o$119b4o19bo22b4o19bo91bo22b4o19bo22b4o
203bo22b4o19bo22b4o157bo22b4o19bo22b4o88b4o19bo22b4o19bo160b4o19bo22b
4o19bo137bo22b4o19bo22b4o111bo22b4o19bo22b4o502b4o19bo22b4o19bo183bo
22b4o19bo22b4o88b4o19bo22b4o19bo344b4o19bo22b4o19bo114b4o19bo22b4o19bo
91bo22b4o19bo22b4o203bo22b4o19bo22b4o249bo22b4o19bo22b4o19bo206b4o19bo
22b4o19bo137bo22b4o19bo22b4o134b4o19bo22b4o19bo160b4o19bo22b4o19bo91bo
22b4o19bo22b4o180b4o19bo22b4o19bo91bo22b4o19bo22b4o341bo22b4o19bo22b4o
157bo22b4o19bo22b4o134b4o19bo22b4o19bo114b4o19bo22b4o19bo1011bo22b4o
19bo22b4o19bo252b4o19bo22b4o19bo114b4o19bo22b4o19bo91bo22b4o19bo22b4o
203bo22b4o19bo22b4o88b4o19bo22b4o19bo206b4o19bo22b4o19bo160b4o19bo22b
4o19bo91bo22b4o19bo22b4o157bo22b4o19bo22b4o134b4o19bo22b4o19bo114b4o
19bo22b4o19bo505bo22b4o19bo22b4o180b4o19bo22b4o19bo91bo22b4o19bo22b4o
341bo22b4o19bo22b4o111bo22b4o19bo22b4o88b4o19bo22b4o19bo206b4o19bo22b
4o19bo252b4o19bo22b4o19bo22b4o203bo22b4o19bo22b4o134b4o19bo22b4o19bo
137bo22b4o19bo22b4o157bo22b4o19bo22b4o139bobobobo44bobo164bo168bobo$2b
2o139bo2bo42bo2bo88bo2bo42bo2bo226bo2bo42bo2bo180bo2bo42bo2bo134bo2bo
42bo2bo180bo2bo42bo2bo134bo2bo42bo2bo134bo2bo42bo2bo548bo2bo42bo2bo
180bo2bo42bo2bo134bo2bo42bo2bo364bo2bo42bo2bo134bo2bo42bo2bo88bo2bo42b
o2bo226bo2bo42bo2bo272bo2bo42bo2bo42bo2bo226bo2bo42bo2bo134bo2bo42bo2b
o180bo2bo42bo2bo180bo2bo42bo2bo88bo2bo42bo2bo226bo2bo42bo2bo88bo2bo42b
o2bo364bo2bo42bo2bo180bo2bo42bo2bo180bo2bo42bo2bo134bo2bo42bo2bo1008bo
2bo42bo2bo42bo2bo272bo2bo42bo2bo134bo2bo42bo2bo88bo2bo42bo2bo226bo2bo
42bo2bo134bo2bo42bo2bo226bo2bo42bo2bo180bo2bo42bo2bo88bo2bo42bo2bo180b
o2bo42bo2bo180bo2bo42bo2bo134bo2bo42bo2bo502bo2bo42bo2bo226bo2bo42bo2b
o88bo2bo42bo2bo364bo2bo42bo2bo134bo2bo42bo2bo134bo2bo42bo2bo226bo2bo
42bo2bo272bo2bo42bo2bo226bo2bo42bo2bo180bo2bo42bo2bo134bo2bo42bo2bo
180bo2bo42bo2bo161bobobobo44b3o60b2o100b3o$bobo13458bo9bo105b2o12bobo
187bo5bo$bo13459bo11bo119b2o186b3o3b3o19bo$2o13405b2o157b2o25bo187bob
2ob2obo19bobo$13407b2o56b2ob2o96b2o215b2ob2o21b2o$13463bo2bobo2bo311b
2ob2o$13463b3o3b3o43bo7bo259b2ob2o$13513bob2o5b2obo150b2ob2o15bo$
13513bo3b2ob2o3bo150b2ob2o16b2o$13470b2o42bo3bobo3bo151b2ob2o15b2o142b
2o$13470b2o43b3o3b3o150bob2ob2obo10bo147b2o$2o13672b3o3b3o8bobo146bo$b
o13602bo32b2o36bo5bo10b2o$bobo13601b2o23b3o4b2o$2b2o139bo2bo42bo2bo88b
o2bo42bo2bo226bo2bo42bo2bo180bo2bo42bo2bo134bo2bo42bo2bo42bo2bo134bo2b
o42bo2bo134bo2bo42bo2bo134bo2bo42bo2bo548bo2bo42bo2bo180bo2bo42bo2bo
134bo2bo42bo2bo364bo2bo42bo2bo134bo2bo42bo2bo88bo2bo42bo2bo226bo2bo42b
o2bo272bo2bo42bo2bo272bo2bo42bo2bo134bo2bo42bo2bo180bo2bo42bo2bo180bo
2bo42bo2bo88bo2bo42bo2bo226bo2bo42bo2bo88bo2bo42bo2bo364bo2bo42bo2bo
180bo2bo42bo2bo180bo2bo42bo2bo134bo2bo42bo2bo1008bo2bo42bo2bo318bo2bo
42bo2bo134bo2bo42bo2bo88bo2bo42bo2bo226bo2bo42bo2bo134bo2bo42bo2bo226b
o2bo42bo2bo180bo2bo42bo2bo134bo2bo42bo2bo42bo2bo88bo2bo42bo2bo180bo2bo
42bo2bo134bo2bo42bo2bo502bo2bo42bo2bo226bo2bo42bo2bo88bo2bo42bo2bo364b
o2bo42bo2bo134bo2bo42bo2bo134bo2bo42bo2bo226bo2bo42bo2bo272bo2bo42bo2b
o226bo2bo42bo2bo180bo2bo42bo2bo134bo2bo42bo2bo180bo2bo42bo2bo134bo2bo
42bo2bo91b2o5b2o17b2o176bo16bobo$142bo22b4o19bo91bo22b4o19bo22b4o203bo
22b4o19bo22b4o157bo22b4o19bo22b4o111bo22b4o19bo22b4o19bo22b4o88b4o19bo
22b4o19bo137bo22b4o19bo22b4o111bo22b4o19bo22b4o502b4o19bo22b4o19bo183b
o22b4o19bo22b4o88b4o19bo22b4o19bo344b4o19bo22b4o19bo114b4o19bo22b4o19b
o91bo22b4o19bo22b4o203bo22b4o19bo22b4o249bo22b4o19bo22b4o226b4o19bo22b
4o19bo137bo22b4o19bo22b4o134b4o19bo22b4o19bo160b4o19bo22b4o19bo91bo22b
4o19bo22b4o180b4o19bo22b4o19bo91bo22b4o19bo22b4o341bo22b4o19bo22b4o
157bo22b4o19bo22b4o134b4o19bo22b4o19bo114b4o19bo22b4o19bo1011bo22b4o
19bo22b4o272b4o19bo22b4o19bo114b4o19bo22b4o19bo91bo22b4o19bo22b4o203bo
22b4o19bo22b4o88b4o19bo22b4o19bo206b4o19bo22b4o19bo160b4o19bo22b4o19bo
114b4o19bo22b4o19bo22b4o19bo91bo22b4o19bo22b4o134b4o19bo22b4o19bo114b
4o19bo22b4o19bo505bo22b4o19bo22b4o180b4o19bo22b4o19bo91bo22b4o19bo22b
4o341bo22b4o19bo22b4o111bo22b4o19bo22b4o88b4o19bo22b4o19bo206b4o19bo
22b4o19bo252b4o19bo22b4o19bo229bo22b4o19bo22b4o134b4o19bo22b4o19bo137b
o22b4o19bo22b4o157bo22b4o19bo22b4o88b4o19bo22b4o19bo94bo2bo3bo2bo41bo
3bo146bobo11bo5b2o$142bo3bo18bo3bo18bo3bo87bo3bo18bo3bo18bo3bo18bo3bo
202bo3bo18bo3bo18bo3bo18bo3bo156bo3bo18bo3bo18bo3bo18bo3bo110bo3bo18bo
3bo18bo3bo18bo3bo18bo3bo18bo3bo87bo3bo18bo3bo18bo3bo18bo3bo133bo3bo18b
o3bo18bo3bo18bo3bo110bo3bo18bo3bo18bo3bo18bo3bo501bo3bo18bo3bo18bo3bo
18bo3bo179bo3bo18bo3bo18bo3bo18bo3bo87bo3bo18bo3bo18bo3bo18bo3bo340bo
3bo18bo3bo18bo3bo18bo3bo110bo3bo18bo3bo18bo3bo18bo3bo87bo3bo18bo3bo18b
o3bo18bo3bo202bo3bo18bo3bo18bo3bo18bo3bo248bo3bo18bo3bo18bo3bo18bo3bo
225bo3bo18bo3bo18bo3bo18bo3bo133bo3bo18bo3bo18bo3bo18bo3bo133bo3bo18bo
3bo18bo3bo18bo3bo156bo3bo18bo3bo18bo3bo18bo3bo87bo3bo18bo3bo18bo3bo18b
o3bo179bo3bo18bo3bo18bo3bo18bo3bo87bo3bo18bo3bo18bo3bo18bo3bo340bo3bo
18bo3bo18bo3bo18bo3bo156bo3bo18bo3bo18bo3bo18bo3bo133bo3bo18bo3bo18bo
3bo18bo3bo110bo3bo18bo3bo18bo3bo18bo3bo1007bo3bo18bo3bo18bo3bo18bo3bo
271bo3bo18bo3bo18bo3bo18bo3bo110bo3bo18bo3bo18bo3bo18bo3bo87bo3bo18bo
3bo18bo3bo18bo3bo202bo3bo18bo3bo18bo3bo18bo3bo87bo3bo18bo3bo18bo3bo18b
o3bo202bo3bo18bo3bo18bo3bo18bo3bo156bo3bo18bo3bo18bo3bo18bo3bo110bo3bo
18bo3bo18bo3bo18bo3bo18bo3bo18bo3bo87bo3bo18bo3bo18bo3bo18bo3bo133bo3b
o18bo3bo18bo3bo18bo3bo110bo3bo18bo3bo18bo3bo18bo3bo501bo3bo18bo3bo18bo
3bo18bo3bo179bo3bo18bo3bo18bo3bo18bo3bo87bo3bo18bo3bo18bo3bo18bo3bo
340bo3bo18bo3bo18bo3bo18bo3bo110bo3bo18bo3bo18bo3bo18bo3bo87bo3bo18bo
3bo18bo3bo18bo3bo202bo3bo18bo3bo18bo3bo18bo3bo248bo3bo18bo3bo18bo3bo
18bo3bo225bo3bo18bo3bo18bo3bo18bo3bo133bo3bo18bo3bo18bo3bo18bo3bo133bo
3bo18bo3bo18bo3bo18bo3bo156bo3bo18bo3bo18bo3bo18bo3bo87bo3bo18bo3bo18b
o3bo18bo3bo93b2ob2o44bo3bo146b5o11bo3bo$142b4o19bo22b4o88b4o19bo22b4o
19bo206b4o19bo22b4o19bo160b4o19bo22b4o19bo114b4o19bo22b4o19bo22b4o19bo
91bo22b4o19bo22b4o134b4o19bo22b4o19bo114b4o19bo22b4o19bo505bo22b4o19bo
22b4o180b4o19bo22b4o19bo91bo22b4o19bo22b4o341bo22b4o19bo22b4o111bo22b
4o19bo22b4o88b4o19bo22b4o19bo206b4o19bo22b4o19bo252b4o19bo22b4o19bo
229bo22b4o19bo22b4o134b4o19bo22b4o19bo137bo22b4o19bo22b4o157bo22b4o19b
o22b4o88b4o19bo22b4o19bo183bo22b4o19bo22b4o88b4o19bo22b4o19bo344b4o19b
o22b4o19bo160b4o19bo22b4o19bo137bo22b4o19bo22b4o111bo22b4o19bo22b4o
1008b4o19bo22b4o19bo275bo22b4o19bo22b4o111bo22b4o19bo22b4o88b4o19bo22b
4o19bo206b4o19bo22b4o19bo91bo22b4o19bo22b4o203bo22b4o19bo22b4o157bo22b
4o19bo22b4o111bo22b4o19bo22b4o19bo22b4o88b4o19bo22b4o19bo137bo22b4o19b
o22b4o111bo22b4o19bo22b4o502b4o19bo22b4o19bo183bo22b4o19bo22b4o88b4o
19bo22b4o19bo344b4o19bo22b4o19bo114b4o19bo22b4o19bo91bo22b4o19bo22b4o
203bo22b4o19bo22b4o249bo22b4o19bo22b4o226b4o19bo22b4o19bo137bo22b4o19b
o22b4o134b4o19bo22b4o19bo160b4o19bo22b4o19bo91bo22b4o19bo22b4o93bobobo
bo44bobo164bo$2b2o162bo2bo134bo2bo42bo2bo226bo2bo42bo2bo180bo2bo42bo2b
o134bo2bo42bo2bo42bo2bo88bo2bo42bo2bo180bo2bo42bo2bo134bo2bo42bo2bo
502bo2bo42bo2bo226bo2bo42bo2bo88bo2bo42bo2bo364bo2bo42bo2bo134bo2bo42b
o2bo134bo2bo42bo2bo226bo2bo42bo2bo272bo2bo42bo2bo226bo2bo42bo2bo180bo
2bo42bo2bo134bo2bo42bo2bo180bo2bo42bo2bo134bo2bo42bo2bo180bo2bo42bo2bo
134bo2bo42bo2bo364bo2bo42bo2bo180bo2bo42bo2bo134bo2bo42bo2bo134bo2bo
42bo2bo1054bo2bo42bo2bo272bo2bo42bo2bo134bo2bo42bo2bo134bo2bo42bo2bo
226bo2bo42bo2bo88bo2bo42bo2bo226bo2bo42bo2bo180bo2bo42bo2bo134bo2bo42b
o2bo42bo2bo134bo2bo42bo2bo134bo2bo42bo2bo134bo2bo42bo2bo548bo2bo42bo2b
o180bo2bo42bo2bo134bo2bo42bo2bo364bo2bo42bo2bo134bo2bo42bo2bo88bo2bo
42bo2bo226bo2bo42bo2bo272bo2bo42bo2bo272bo2bo42bo2bo134bo2bo42bo2bo
180bo2bo42bo2bo180bo2bo42bo2bo88bo2bo42bo2bo115bobobobo44b3o60b2o100b
3o$bobo13573bo9bo105b2o$bo13574bo11bo240bo$2o13520b2o157b2o146b2o$
13522b2o56b2ob2o96b2o145bobo$13578bo2bobo2bo$13578b3o3b3o43bo7bo$
13628bob2o5b2obo150b2ob2o15bo$13628bo3b2ob2o3bo150b2ob2o16b2o$13585b2o
42bo3bobo3bo151b2ob2o15b2o$13585b2o43b3o3b3o150bob2ob2obo10bo$2o13787b
3o3b3o8bobo$bo13750b2o36bo5bo10b2o$bobo13741b3o4b2o$2b2o300bo2bo42bo2b
o226bo2bo42bo2bo180bo2bo42bo2bo134bo2bo42bo2bo42bo2bo42bo2bo42bo2bo42b
o2bo180bo2bo42bo2bo134bo2bo42bo2bo42bo2bo42bo2bo42bo2bo42bo2bo42bo2bo
272bo2bo42bo2bo226bo2bo42bo2bo88bo2bo42bo2bo42bo2bo42bo2bo42bo2bo42bo
2bo42bo2bo42bo2bo88bo2bo42bo2bo134bo2bo42bo2bo134bo2bo42bo2bo226bo2bo
42bo2bo548bo2bo42bo2bo180bo2bo42bo2bo134bo2bo42bo2bo180bo2bo42bo2bo
134bo2bo42bo2bo180bo2bo42bo2bo134bo2bo42bo2bo42bo2bo42bo2bo42bo2bo42bo
2bo42bo2bo134bo2bo42bo2bo180bo2bo42bo2bo134bo2bo42bo2bo134bo2bo42bo2bo
42bo2bo42bo2bo42bo2bo42bo2bo42bo2bo42bo2bo732bo2bo42bo2bo42bo2bo272bo
2bo42bo2bo134bo2bo42bo2bo134bo2bo42bo2bo226bo2bo42bo2bo88bo2bo42bo2bo
226bo2bo42bo2bo180bo2bo42bo2bo180bo2bo42bo2bo42bo2bo42bo2bo42bo2bo42bo
2bo134bo2bo42bo2bo134bo2bo42bo2bo42bo2bo42bo2bo42bo2bo42bo2bo42bo2bo
42bo2bo272bo2bo42bo2bo180bo2bo42bo2bo134bo2bo42bo2bo42bo2bo42bo2bo42bo
2bo42bo2bo42bo2bo134bo2bo42bo2bo134bo2bo42bo2bo88bo2bo42bo2bo226bo2bo
42bo2bo548bo2bo42bo2bo42bo2bo134bo2bo42bo2bo180bo2bo42bo2bo180bo2bo42b
o2bo88bo2bo42bo2bo229b2o5b2o115b2o$280b4o19bo22b4o19bo206b4o19bo22b4o
19bo160b4o19bo22b4o19bo137bo22b4o19bo22b4o19bo22b4o19bo22b4o19bo22b4o
19bo22b4o134b4o19bo22b4o19bo114b4o19bo22b4o19bo22b4o19bo22b4o19bo22b4o
19bo22b4o19bo22b4o19bo22b4o249bo22b4o19bo22b4o180b4o19bo22b4o19bo91bo
22b4o19bo22b4o19bo22b4o19bo22b4o19bo22b4o19bo22b4o19bo22b4o19bo91bo22b
4o19bo22b4o111bo22b4o19bo22b4o88b4o19bo22b4o19bo206b4o19bo22b4o19bo
528b4o19bo22b4o19bo22b4o134b4o19bo22b4o19bo137bo22b4o19bo22b4o157bo22b
4o19bo22b4o88b4o19bo22b4o19bo183bo22b4o19bo22b4o88b4o19bo22b4o19bo22b
4o19bo22b4o19bo22b4o19bo22b4o19bo22b4o19bo22b4o88b4o19bo22b4o19bo160b
4o19bo22b4o19bo137bo22b4o19bo22b4o111bo22b4o19bo22b4o19bo22b4o19bo22b
4o19bo22b4o19bo22b4o19bo22b4o19bo735bo22b4o19bo22b4o19bo275bo22b4o19bo
22b4o111bo22b4o19bo22b4o88b4o19bo22b4o19bo206b4o19bo22b4o19bo91bo22b4o
19bo22b4o203bo22b4o19bo22b4o157bo22b4o19bo22b4o134b4o19bo22b4o19bo22b
4o19bo22b4o19bo22b4o19bo22b4o19bo137bo22b4o19bo22b4o111bo22b4o19bo22b
4o19bo22b4o19bo22b4o19bo22b4o19bo22b4o19bo22b4o19bo252b4o19bo22b4o19bo
183bo22b4o19bo22b4o88b4o19bo22b4o19bo22b4o19bo22b4o19bo22b4o19bo22b4o
19bo22b4o19bo22b4o88b4o19bo22b4o19bo114b4o19bo22b4o19bo91bo22b4o19bo
22b4o203bo22b4o19bo22b4o525bo22b4o19bo22b4o19bo137bo22b4o19bo22b4o134b
4o19bo22b4o19bo160b4o19bo22b4o19bo91bo22b4o19bo22b4o206bo2bo3bo2bo41bo
3bo69b2o$280bo3bo18bo3bo18bo3bo18bo3bo202bo3bo18bo3bo18bo3bo18bo3bo
156bo3bo18bo3bo18bo3bo18bo3bo133bo3bo18bo3bo18bo3bo18bo3bo18bo3bo18bo
3bo18bo3bo18bo3bo18bo3bo18bo3bo18bo3bo18bo3bo133bo3bo18bo3bo18bo3bo18b
o3bo110bo3bo18bo3bo18bo3bo18bo3bo18bo3bo18bo3bo18bo3bo18bo3bo18bo3bo
18bo3bo18bo3bo18bo3bo18bo3bo18bo3bo18bo3bo248bo3bo18bo3bo18bo3bo18bo3b
o179bo3bo18bo3bo18bo3bo18bo3bo87bo3bo18bo3bo18bo3bo18bo3bo18bo3bo18bo
3bo18bo3bo18bo3bo18bo3bo18bo3bo18bo3bo18bo3bo18bo3bo18bo3bo18bo3bo87bo
3bo18bo3bo18bo3bo18bo3bo110bo3bo18bo3bo18bo3bo18bo3bo87bo3bo18bo3bo18b
o3bo18bo3bo202bo3bo18bo3bo18bo3bo18bo3bo524bo3bo18bo3bo18bo3bo18bo3bo
18bo3bo133bo3bo18bo3bo18bo3bo18bo3bo133bo3bo18bo3bo18bo3bo18bo3bo156bo
3bo18bo3bo18bo3bo18bo3bo87bo3bo18bo3bo18bo3bo18bo3bo179bo3bo18bo3bo18b
o3bo18bo3bo87bo3bo18bo3bo18bo3bo18bo3bo18bo3bo18bo3bo18bo3bo18bo3bo18b
o3bo18bo3bo18bo3bo18bo3bo18bo3bo18bo3bo18bo3bo87bo3bo18bo3bo18bo3bo18b
o3bo156bo3bo18bo3bo18bo3bo18bo3bo133bo3bo18bo3bo18bo3bo18bo3bo110bo3bo
18bo3bo18bo3bo18bo3bo18bo3bo18bo3bo18bo3bo18bo3bo18bo3bo18bo3bo18bo3bo
18bo3bo18bo3bo18bo3bo18bo3bo731bo3bo18bo3bo18bo3bo18bo3bo18bo3bo271bo
3bo18bo3bo18bo3bo18bo3bo110bo3bo18bo3bo18bo3bo18bo3bo87bo3bo18bo3bo18b
o3bo18bo3bo202bo3bo18bo3bo18bo3bo18bo3bo87bo3bo18bo3bo18bo3bo18bo3bo
202bo3bo18bo3bo18bo3bo18bo3bo156bo3bo18bo3bo18bo3bo18bo3bo133bo3bo18bo
3bo18bo3bo18bo3bo18bo3bo18bo3bo18bo3bo18bo3bo18bo3bo18bo3bo18bo3bo18bo
3bo133bo3bo18bo3bo18bo3bo18bo3bo110bo3bo18bo3bo18bo3bo18bo3bo18bo3bo
18bo3bo18bo3bo18bo3bo18bo3bo18bo3bo18bo3bo18bo3bo18bo3bo18bo3bo18bo3bo
248bo3bo18bo3bo18bo3bo18bo3bo179bo3bo18bo3bo18bo3bo18bo3bo87bo3bo18bo
3bo18bo3bo18bo3bo18bo3bo18bo3bo18bo3bo18bo3bo18bo3bo18bo3bo18bo3bo18bo
3bo18bo3bo18bo3bo18bo3bo87bo3bo18bo3bo18bo3bo18bo3bo110bo3bo18bo3bo18b
o3bo18bo3bo87bo3bo18bo3bo18bo3bo18bo3bo202bo3bo18bo3bo18bo3bo18bo3bo
524bo3bo18bo3bo18bo3bo18bo3bo18bo3bo133bo3bo18bo3bo18bo3bo18bo3bo133bo
3bo18bo3bo18bo3bo18bo3bo156bo3bo18bo3bo18bo3bo18bo3bo87bo3bo18bo3bo18b
o3bo18bo3bo208b2ob2o44bo3bo68bo$280bo22b4o19bo22b4o203bo22b4o19bo22b4o
157bo22b4o19bo22b4o134b4o19bo22b4o19bo22b4o19bo22b4o19bo22b4o19bo22b4o
19bo137bo22b4o19bo22b4o111bo22b4o19bo22b4o19bo22b4o19bo22b4o19bo22b4o
19bo22b4o19bo22b4o19bo252b4o19bo22b4o19bo183bo22b4o19bo22b4o88b4o19bo
22b4o19bo22b4o19bo22b4o19bo22b4o19bo22b4o19bo22b4o19bo22b4o88b4o19bo
22b4o19bo114b4o19bo22b4o19bo91bo22b4o19bo22b4o203bo22b4o19bo22b4o525bo
22b4o19bo22b4o19bo137bo22b4o19bo22b4o134b4o19bo22b4o19bo160b4o19bo22b
4o19bo91bo22b4o19bo22b4o180b4o19bo22b4o19bo91bo22b4o19bo22b4o19bo22b4o
19bo22b4o19bo22b4o19bo22b4o19bo22b4o19bo91bo22b4o19bo22b4o157bo22b4o
19bo22b4o134b4o19bo22b4o19bo114b4o19bo22b4o19bo22b4o19bo22b4o19bo22b4o
19bo22b4o19bo22b4o19bo22b4o732b4o19bo22b4o19bo22b4o272b4o19bo22b4o19bo
114b4o19bo22b4o19bo91bo22b4o19bo22b4o203bo22b4o19bo22b4o88b4o19bo22b4o
19bo206b4o19bo22b4o19bo160b4o19bo22b4o19bo137bo22b4o19bo22b4o19bo22b4o
19bo22b4o19bo22b4o19bo22b4o134b4o19bo22b4o19bo114b4o19bo22b4o19bo22b4o
19bo22b4o19bo22b4o19bo22b4o19bo22b4o19bo22b4o249bo22b4o19bo22b4o180b4o
19bo22b4o19bo91bo22b4o19bo22b4o19bo22b4o19bo22b4o19bo22b4o19bo22b4o19b
o22b4o19bo91bo22b4o19bo22b4o111bo22b4o19bo22b4o88b4o19bo22b4o19bo206b
4o19bo22b4o19bo528b4o19bo22b4o19bo22b4o134b4o19bo22b4o19bo137bo22b4o
19bo22b4o157bo22b4o19bo22b4o88b4o19bo22b4o19bo211bobobobo44bobo$2b2o
277bo2bo42bo2bo226bo2bo42bo2bo180bo2bo42bo2bo180bo2bo42bo2bo42bo2bo42b
o2bo42bo2bo42bo2bo134bo2bo42bo2bo134bo2bo42bo2bo42bo2bo42bo2bo42bo2bo
42bo2bo42bo2bo42bo2bo272bo2bo42bo2bo180bo2bo42bo2bo134bo2bo42bo2bo42bo
2bo42bo2bo42bo2bo42bo2bo42bo2bo134bo2bo42bo2bo134bo2bo42bo2bo88bo2bo
42bo2bo226bo2bo42bo2bo548bo2bo42bo2bo42bo2bo134bo2bo42bo2bo180bo2bo42b
o2bo180bo2bo42bo2bo88bo2bo42bo2bo226bo2bo42bo2bo88bo2bo42bo2bo42bo2bo
42bo2bo42bo2bo42bo2bo42bo2bo42bo2bo88bo2bo42bo2bo180bo2bo42bo2bo180bo
2bo42bo2bo134bo2bo42bo2bo42bo2bo42bo2bo42bo2bo42bo2bo42bo2bo778bo2bo
42bo2bo318bo2bo42bo2bo134bo2bo42bo2bo88bo2bo42bo2bo226bo2bo42bo2bo134b
o2bo42bo2bo226bo2bo42bo2bo180bo2bo42bo2bo134bo2bo42bo2bo42bo2bo42bo2bo
42bo2bo42bo2bo180bo2bo42bo2bo134bo2bo42bo2bo42bo2bo42bo2bo42bo2bo42bo
2bo42bo2bo272bo2bo42bo2bo226bo2bo42bo2bo88bo2bo42bo2bo42bo2bo42bo2bo
42bo2bo42bo2bo42bo2bo42bo2bo88bo2bo42bo2bo134bo2bo42bo2bo134bo2bo42bo
2bo226bo2bo42bo2bo548bo2bo42bo2bo180bo2bo42bo2bo134bo2bo42bo2bo180bo2b
o42bo2bo134bo2bo42bo2bo207bobobobo44b3o60b2o$bobo13688bo9bo105b2o12bob
o$bo13689bo11bo119b2o$2o13635b2o157b2o25bo$13637b2o56b2ob2o96b2o$
13693bo2bobo2bo$13693b3o3b3o43bo7bo$13743bob2o5b2obo$13743bo3b2ob2o3bo
$13700b2o42bo3bobo3bo$13700b2o43b3o3b3o$2o$bo13832bo32b2o$bobo13831b2o
23b3o4b2o$2b2o553bo2bo42bo2bo180bo2bo42bo2bo226bo2bo42bo2bo42bo2bo42bo
2bo42bo2bo134bo2bo42bo2bo134bo2bo42bo2bo42bo2bo42bo2bo42bo2bo42bo2bo
42bo2bo42bo2bo272bo2bo42bo2bo180bo2bo42bo2bo134bo2bo42bo2bo42bo2bo42bo
2bo42bo2bo42bo2bo42bo2bo134bo2bo42bo2bo134bo2bo42bo2bo88bo2bo42bo2bo
226bo2bo42bo2bo502bo2bo42bo2bo42bo2bo42bo2bo134bo2bo42bo2bo180bo2bo42b
o2bo180bo2bo42bo2bo88bo2bo42bo2bo226bo2bo42bo2bo88bo2bo42bo2bo42bo2bo
42bo2bo42bo2bo42bo2bo42bo2bo42bo2bo88bo2bo42bo2bo180bo2bo42bo2bo180bo
2bo42bo2bo134bo2bo42bo2bo42bo2bo42bo2bo42bo2bo42bo2bo42bo2bo778bo2bo
42bo2bo180bo2bo42bo2bo42bo2bo42bo2bo42bo2bo134bo2bo42bo2bo88bo2bo42bo
2bo226bo2bo42bo2bo134bo2bo42bo2bo226bo2bo42bo2bo180bo2bo42bo2bo180bo2b
o42bo2bo42bo2bo42bo2bo42bo2bo180bo2bo42bo2bo134bo2bo42bo2bo42bo2bo42bo
2bo42bo2bo42bo2bo42bo2bo272bo2bo42bo2bo226bo2bo42bo2bo88bo2bo42bo2bo
42bo2bo42bo2bo42bo2bo42bo2bo42bo2bo42bo2bo88bo2bo42bo2bo134bo2bo42bo2b
o134bo2bo42bo2bo226bo2bo42bo2bo502bo2bo42bo2bo42bo2bo180bo2bo42bo2bo
134bo2bo42bo2bo180bo2bo42bo2bo134bo2bo42bo2bo180bo2bo42bo2bo91b2o5b2o
17b2o$556bo22b4o19bo22b4o157bo22b4o19bo22b4o180b4o19bo22b4o19bo22b4o
19bo22b4o19bo22b4o19bo137bo22b4o19bo22b4o111bo22b4o19bo22b4o19bo22b4o
19bo22b4o19bo22b4o19bo22b4o19bo22b4o19bo252b4o19bo22b4o19bo183bo22b4o
19bo22b4o88b4o19bo22b4o19bo22b4o19bo22b4o19bo22b4o19bo22b4o19bo22b4o
19bo22b4o88b4o19bo22b4o19bo114b4o19bo22b4o19bo91bo22b4o19bo22b4o203bo
22b4o19bo22b4o479bo22b4o19bo22b4o19bo22b4o19bo137bo22b4o19bo22b4o134b
4o19bo22b4o19bo160b4o19bo22b4o19bo91bo22b4o19bo22b4o180b4o19bo22b4o19b
o91bo22b4o19bo22b4o19bo22b4o19bo22b4o19bo22b4o19bo22b4o19bo22b4o19bo
91bo22b4o19bo22b4o157bo22b4o19bo22b4o134b4o19bo22b4o19bo114b4o19bo22b
4o19bo22b4o19bo22b4o19bo22b4o19bo22b4o19bo22b4o19bo22b4o732b4o19bo22b
4o19bo183bo22b4o19bo22b4o19bo22b4o19bo22b4o19bo114b4o19bo22b4o19bo91bo
22b4o19bo22b4o203bo22b4o19bo22b4o88b4o19bo22b4o19bo206b4o19bo22b4o19bo
160b4o19bo22b4o19bo183bo22b4o19bo22b4o19bo22b4o19bo22b4o19bo22b4o134b
4o19bo22b4o19bo114b4o19bo22b4o19bo22b4o19bo22b4o19bo22b4o19bo22b4o19bo
22b4o19bo22b4o249bo22b4o19bo22b4o180b4o19bo22b4o19bo91bo22b4o19bo22b4o
19bo22b4o19bo22b4o19bo22b4o19bo22b4o19bo22b4o19bo91bo22b4o19bo22b4o
111bo22b4o19bo22b4o88b4o19bo22b4o19bo206b4o19bo22b4o19bo482b4o19bo22b
4o19bo22b4o19bo22b4o134b4o19bo22b4o19bo137bo22b4o19bo22b4o157bo22b4o
19bo22b4o88b4o19bo22b4o19bo183bo22b4o19bo22b4o68bo2bo3bo2bo41bo3bo$
556bo3bo18bo3bo18bo3bo18bo3bo156bo3bo18bo3bo18bo3bo18bo3bo179bo3bo18bo
3bo18bo3bo18bo3bo18bo3bo18bo3bo18bo3bo18bo3bo18bo3bo18bo3bo133bo3bo18b
o3bo18bo3bo18bo3bo110bo3bo18bo3bo18bo3bo18bo3bo18bo3bo18bo3bo18bo3bo
18bo3bo18bo3bo18bo3bo18bo3bo18bo3bo18bo3bo18bo3bo18bo3bo248bo3bo18bo3b
o18bo3bo18bo3bo179bo3bo18bo3bo18bo3bo18bo3bo87bo3bo18bo3bo18bo3bo18bo
3bo18bo3bo18bo3bo18bo3bo18bo3bo18bo3bo18bo3bo18bo3bo18bo3bo18bo3bo18bo
3bo18bo3bo87bo3bo18bo3bo18bo3bo18bo3bo110bo3bo18bo3bo18bo3bo18bo3bo87b
o3bo18bo3bo18bo3bo18bo3bo202bo3bo18bo3bo18bo3bo18bo3bo478bo3bo18bo3bo
18bo3bo18bo3bo18bo3bo18bo3bo18bo3bo133bo3bo18bo3bo18bo3bo18bo3bo133bo
3bo18bo3bo18bo3bo18bo3bo156bo3bo18bo3bo18bo3bo18bo3bo87bo3bo18bo3bo18b
o3bo18bo3bo179bo3bo18bo3bo18bo3bo18bo3bo87bo3bo18bo3bo18bo3bo18bo3bo
18bo3bo18bo3bo18bo3bo18bo3bo18bo3bo18bo3bo18bo3bo18bo3bo18bo3bo18bo3bo
18bo3bo87bo3bo18bo3bo18bo3bo18bo3bo156bo3bo18bo3bo18bo3bo18bo3bo133bo
3bo18bo3bo18bo3bo18bo3bo110bo3bo18bo3bo18bo3bo18bo3bo18bo3bo18bo3bo18b
o3bo18bo3bo18bo3bo18bo3bo18bo3bo18bo3bo18bo3bo18bo3bo18bo3bo731bo3bo
18bo3bo18bo3bo18bo3bo179bo3bo18bo3bo18bo3bo18bo3bo18bo3bo18bo3bo18bo3b
o18bo3bo18bo3bo110bo3bo18bo3bo18bo3bo18bo3bo87bo3bo18bo3bo18bo3bo18bo
3bo202bo3bo18bo3bo18bo3bo18bo3bo87bo3bo18bo3bo18bo3bo18bo3bo202bo3bo
18bo3bo18bo3bo18bo3bo156bo3bo18bo3bo18bo3bo18bo3bo179bo3bo18bo3bo18bo
3bo18bo3bo18bo3bo18bo3bo18bo3bo18bo3bo18bo3bo18bo3bo133bo3bo18bo3bo18b
o3bo18bo3bo110bo3bo18bo3bo18bo3bo18bo3bo18bo3bo18bo3bo18bo3bo18bo3bo
18bo3bo18bo3bo18bo3bo18bo3bo18bo3bo18bo3bo18bo3bo248bo3bo18bo3bo18bo3b
o18bo3bo179bo3bo18bo3bo18bo3bo18bo3bo87bo3bo18bo3bo18bo3bo18bo3bo18bo
3bo18bo3bo18bo3bo18bo3bo18bo3bo18bo3bo18bo3bo18bo3bo18bo3bo18bo3bo18bo
3bo87bo3bo18bo3bo18bo3bo18bo3bo110bo3bo18bo3bo18bo3bo18bo3bo87bo3bo18b
o3bo18bo3bo18bo3bo202bo3bo18bo3bo18bo3bo18bo3bo478bo3bo18bo3bo18bo3bo
18bo3bo18bo3bo18bo3bo18bo3bo133bo3bo18bo3bo18bo3bo18bo3bo133bo3bo18bo
3bo18bo3bo18bo3bo156bo3bo18bo3bo18bo3bo18bo3bo87bo3bo18bo3bo18bo3bo18b
o3bo179bo3bo18bo3bo18bo3bo18bo3bo70b2ob2o44bo3bo$556b4o19bo22b4o19bo
160b4o19bo22b4o19bo183bo22b4o19bo22b4o19bo22b4o19bo22b4o19bo22b4o134b
4o19bo22b4o19bo114b4o19bo22b4o19bo22b4o19bo22b4o19bo22b4o19bo22b4o19bo
22b4o19bo22b4o249bo22b4o19bo22b4o180b4o19bo22b4o19bo91bo22b4o19bo22b4o
19bo22b4o19bo22b4o19bo22b4o19bo22b4o19bo22b4o19bo91bo22b4o19bo22b4o
111bo22b4o19bo22b4o88b4o19bo22b4o19bo206b4o19bo22b4o19bo482b4o19bo22b
4o19bo22b4o19bo22b4o134b4o19bo22b4o19bo137bo22b4o19bo22b4o157bo22b4o
19bo22b4o88b4o19bo22b4o19bo183bo22b4o19bo22b4o88b4o19bo22b4o19bo22b4o
19bo22b4o19bo22b4o19bo22b4o19bo22b4o19bo22b4o88b4o19bo22b4o19bo160b4o
19bo22b4o19bo137bo22b4o19bo22b4o111bo22b4o19bo22b4o19bo22b4o19bo22b4o
19bo22b4o19bo22b4o19bo22b4o19bo735bo22b4o19bo22b4o180b4o19bo22b4o19bo
22b4o19bo22b4o19bo22b4o111bo22b4o19bo22b4o88b4o19bo22b4o19bo206b4o19bo
22b4o19bo91bo22b4o19bo22b4o203bo22b4o19bo22b4o157bo22b4o19bo22b4o180b
4o19bo22b4o19bo22b4o19bo22b4o19bo22b4o19bo137bo22b4o19bo22b4o111bo22b
4o19bo22b4o19bo22b4o19bo22b4o19bo22b4o19bo22b4o19bo22b4o19bo252b4o19bo
22b4o19bo183bo22b4o19bo22b4o88b4o19bo22b4o19bo22b4o19bo22b4o19bo22b4o
19bo22b4o19bo22b4o19bo22b4o88b4o19bo22b4o19bo114b4o19bo22b4o19bo91bo
22b4o19bo22b4o203bo22b4o19bo22b4o479bo22b4o19bo22b4o19bo22b4o19bo137bo
22b4o19bo22b4o134b4o19bo22b4o19bo160b4o19bo22b4o19bo91bo22b4o19bo22b4o
180b4o19bo22b4o19bo73bobobobo44bobo$2b2o576bo2bo42bo2bo180bo2bo42bo2bo
180bo2bo42bo2bo42bo2bo42bo2bo42bo2bo180bo2bo42bo2bo134bo2bo42bo2bo42bo
2bo42bo2bo42bo2bo42bo2bo42bo2bo272bo2bo42bo2bo226bo2bo42bo2bo88bo2bo
42bo2bo42bo2bo42bo2bo42bo2bo42bo2bo42bo2bo42bo2bo88bo2bo42bo2bo134bo2b
o42bo2bo134bo2bo42bo2bo226bo2bo42bo2bo502bo2bo42bo2bo42bo2bo180bo2bo
42bo2bo134bo2bo42bo2bo180bo2bo42bo2bo134bo2bo42bo2bo180bo2bo42bo2bo
134bo2bo42bo2bo42bo2bo42bo2bo42bo2bo42bo2bo42bo2bo134bo2bo42bo2bo180bo
2bo42bo2bo134bo2bo42bo2bo134bo2bo42bo2bo42bo2bo42bo2bo42bo2bo42bo2bo
42bo2bo42bo2bo732bo2bo42bo2bo226bo2bo42bo2bo42bo2bo42bo2bo134bo2bo42bo
2bo134bo2bo42bo2bo226bo2bo42bo2bo88bo2bo42bo2bo226bo2bo42bo2bo180bo2bo
42bo2bo226bo2bo42bo2bo42bo2bo42bo2bo42bo2bo134bo2bo42bo2bo134bo2bo42bo
2bo42bo2bo42bo2bo42bo2bo42bo2bo42bo2bo42bo2bo272bo2bo42bo2bo180bo2bo
42bo2bo134bo2bo42bo2bo42bo2bo42bo2bo42bo2bo42bo2bo42bo2bo134bo2bo42bo
2bo134bo2bo42bo2bo88bo2bo42bo2bo226bo2bo42bo2bo502bo2bo42bo2bo42bo2bo
42bo2bo134bo2bo42bo2bo180bo2bo42bo2bo180bo2bo42bo2bo88bo2bo42bo2bo226b
o2bo42bo2bo69bobobobo44b3o$bobo13803bo9bo$bo13804bo11bo$2o13750b2o$
13752b2o56b2ob2o$13808bo2bobo2bo$13808b3o3b3o28bobo12bo7bo$13846b2o10b
ob2o5b2obo$13846bo11bo3b2ob2o3bo$13815b2o42bo3bobo3bo$13815b2o43b3o3b
3o$2o$bo$bobo$2b2o576bo2bo42bo2bo180bo2bo42bo2bo272bo2bo42bo2bo42bo2bo
180bo2bo42bo2bo134bo2bo42bo2bo42bo2bo42bo2bo42bo2bo42bo2bo42bo2bo272bo
2bo42bo2bo226bo2bo42bo2bo88bo2bo42bo2bo42bo2bo42bo2bo42bo2bo42bo2bo42b
o2bo42bo2bo88bo2bo42bo2bo134bo2bo42bo2bo134bo2bo42bo2bo226bo2bo42bo2bo
410bo2bo42bo2bo42bo2bo42bo2bo42bo2bo180bo2bo42bo2bo134bo2bo42bo2bo180b
o2bo42bo2bo134bo2bo42bo2bo180bo2bo42bo2bo134bo2bo42bo2bo42bo2bo42bo2bo
42bo2bo42bo2bo42bo2bo134bo2bo42bo2bo180bo2bo42bo2bo134bo2bo42bo2bo134b
o2bo42bo2bo42bo2bo42bo2bo42bo2bo42bo2bo42bo2bo42bo2bo732bo2bo42bo2bo
226bo2bo42bo2bo42bo2bo42bo2bo134bo2bo42bo2bo134bo2bo42bo2bo226bo2bo42b
o2bo88bo2bo42bo2bo226bo2bo42bo2bo180bo2bo42bo2bo318bo2bo42bo2bo42bo2bo
134bo2bo42bo2bo134bo2bo42bo2bo42bo2bo42bo2bo42bo2bo42bo2bo42bo2bo42bo
2bo272bo2bo42bo2bo180bo2bo42bo2bo134bo2bo42bo2bo42bo2bo42bo2bo42bo2bo
42bo2bo42bo2bo134bo2bo42bo2bo134bo2bo42bo2bo88bo2bo42bo2bo226bo2bo42bo
2bo456bo2bo42bo2bo42bo2bo42bo2bo180bo2bo42bo2bo180bo2bo42bo2bo180bo2bo
42bo2bo88bo2bo42bo2bo226bo2bo42bo2bo88bo2bo$556b4o19bo22b4o19bo160b4o
19bo22b4o19bo275bo22b4o19bo22b4o19bo22b4o134b4o19bo22b4o19bo114b4o19bo
22b4o19bo22b4o19bo22b4o19bo22b4o19bo22b4o19bo22b4o19bo22b4o249bo22b4o
19bo22b4o180b4o19bo22b4o19bo91bo22b4o19bo22b4o19bo22b4o19bo22b4o19bo
22b4o19bo22b4o19bo22b4o19bo91bo22b4o19bo22b4o111bo22b4o19bo22b4o88b4o
19bo22b4o19bo206b4o19bo22b4o19bo413bo22b4o19bo22b4o19bo22b4o19bo22b4o
19bo160b4o19bo22b4o19bo137bo22b4o19bo22b4o157bo22b4o19bo22b4o88b4o19bo
22b4o19bo183bo22b4o19bo22b4o88b4o19bo22b4o19bo22b4o19bo22b4o19bo22b4o
19bo22b4o19bo22b4o19bo22b4o88b4o19bo22b4o19bo160b4o19bo22b4o19bo137bo
22b4o19bo22b4o111bo22b4o19bo22b4o19bo22b4o19bo22b4o19bo22b4o19bo22b4o
19bo22b4o19bo735bo22b4o19bo22b4o180b4o19bo22b4o19bo22b4o19bo22b4o19bo
22b4o111bo22b4o19bo22b4o88b4o19bo22b4o19bo206b4o19bo22b4o19bo91bo22b4o
19bo22b4o203bo22b4o19bo22b4o157bo22b4o19bo22b4o272b4o19bo22b4o19bo22b
4o19bo137bo22b4o19bo22b4o111bo22b4o19bo22b4o19bo22b4o19bo22b4o19bo22b
4o19bo22b4o19bo22b4o19bo252b4o19bo22b4o19bo183bo22b4o19bo22b4o88b4o19b
o22b4o19bo22b4o19bo22b4o19bo22b4o19bo22b4o19bo22b4o19bo22b4o88b4o19bo
22b4o19bo114b4o19bo22b4o19bo91bo22b4o19bo22b4o203bo22b4o19bo22b4o410b
4o19bo22b4o19bo22b4o19bo22b4o19bo22b4o157bo22b4o19bo22b4o134b4o19bo22b
4o19bo160b4o19bo22b4o19bo91bo22b4o19bo22b4o180b4o19bo22b4o19bo91bo22b
4o$556bo3bo18bo3bo18bo3bo18bo3bo156bo3bo18bo3bo18bo3bo18bo3bo271bo3bo
18bo3bo18bo3bo18bo3bo18bo3bo18bo3bo133bo3bo18bo3bo18bo3bo18bo3bo110bo
3bo18bo3bo18bo3bo18bo3bo18bo3bo18bo3bo18bo3bo18bo3bo18bo3bo18bo3bo18bo
3bo18bo3bo18bo3bo18bo3bo18bo3bo248bo3bo18bo3bo18bo3bo18bo3bo179bo3bo
18bo3bo18bo3bo18bo3bo87bo3bo18bo3bo18bo3bo18bo3bo18bo3bo18bo3bo18bo3bo
18bo3bo18bo3bo18bo3bo18bo3bo18bo3bo18bo3bo18bo3bo18bo3bo87bo3bo18bo3bo
18bo3bo18bo3bo110bo3bo18bo3bo18bo3bo18bo3bo87bo3bo18bo3bo18bo3bo18bo3b
o202bo3bo18bo3bo18bo3bo18bo3bo409bo3bo18bo3bo18bo3bo18bo3bo18bo3bo18bo
3bo18bo3bo18bo3bo18bo3bo156bo3bo18bo3bo18bo3bo18bo3bo133bo3bo18bo3bo
18bo3bo18bo3bo156bo3bo18bo3bo18bo3bo18bo3bo87bo3bo18bo3bo18bo3bo18bo3b
o179bo3bo18bo3bo18bo3bo18bo3bo87bo3bo18bo3bo18bo3bo18bo3bo18bo3bo18bo
3bo18bo3bo18bo3bo18bo3bo18bo3bo18bo3bo18bo3bo18bo3bo18bo3bo18bo3bo87bo
3bo18bo3bo18bo3bo18bo3bo156bo3bo18bo3bo18bo3bo18bo3bo133bo3bo18bo3bo
18bo3bo18bo3bo110bo3bo18bo3bo18bo3bo18bo3bo18bo3bo18bo3bo18bo3bo18bo3b
o18bo3bo18bo3bo18bo3bo18bo3bo18bo3bo18bo3bo18bo3bo731bo3bo18bo3bo18bo
3bo18bo3bo179bo3bo18bo3bo18bo3bo18bo3bo18bo3bo18bo3bo18bo3bo18bo3bo18b
o3bo110bo3bo18bo3bo18bo3bo18bo3bo87bo3bo18bo3bo18bo3bo18bo3bo202bo3bo
18bo3bo18bo3bo18bo3bo87bo3bo18bo3bo18bo3bo18bo3bo202bo3bo18bo3bo18bo3b
o18bo3bo156bo3bo18bo3bo18bo3bo18bo3bo271bo3bo18bo3bo18bo3bo18bo3bo18bo
3bo18bo3bo133bo3bo18bo3bo18bo3bo18bo3bo110bo3bo18bo3bo18bo3bo18bo3bo
18bo3bo18bo3bo18bo3bo18bo3bo18bo3bo18bo3bo18bo3bo18bo3bo18bo3bo18bo3bo
18bo3bo248bo3bo18bo3bo18bo3bo18bo3bo179bo3bo18bo3bo18bo3bo18bo3bo87bo
3bo18bo3bo18bo3bo18bo3bo18bo3bo18bo3bo18bo3bo18bo3bo18bo3bo18bo3bo18bo
3bo18bo3bo18bo3bo18bo3bo18bo3bo87bo3bo18bo3bo18bo3bo18bo3bo110bo3bo18b
o3bo18bo3bo18bo3bo87bo3bo18bo3bo18bo3bo18bo3bo202bo3bo18bo3bo18bo3bo
18bo3bo409bo3bo18bo3bo18bo3bo18bo3bo18bo3bo18bo3bo18bo3bo18bo3bo18bo3b
o156bo3bo18bo3bo18bo3bo18bo3bo133bo3bo18bo3bo18bo3bo18bo3bo156bo3bo18b
o3bo18bo3bo18bo3bo87bo3bo18bo3bo18bo3bo18bo3bo179bo3bo18bo3bo18bo3bo
18bo3bo87bo3bo18bo3bo$556bo22b4o19bo22b4o157bo22b4o19bo22b4o272b4o19bo
22b4o19bo22b4o19bo137bo22b4o19bo22b4o111bo22b4o19bo22b4o19bo22b4o19bo
22b4o19bo22b4o19bo22b4o19bo22b4o19bo252b4o19bo22b4o19bo183bo22b4o19bo
22b4o88b4o19bo22b4o19bo22b4o19bo22b4o19bo22b4o19bo22b4o19bo22b4o19bo
22b4o88b4o19bo22b4o19bo114b4o19bo22b4o19bo91bo22b4o19bo22b4o203bo22b4o
19bo22b4o410b4o19bo22b4o19bo22b4o19bo22b4o19bo22b4o157bo22b4o19bo22b4o
134b4o19bo22b4o19bo160b4o19bo22b4o19bo91bo22b4o19bo22b4o180b4o19bo22b
4o19bo91bo22b4o19bo22b4o19bo22b4o19bo22b4o19bo22b4o19bo22b4o19bo22b4o
19bo91bo22b4o19bo22b4o157bo22b4o19bo22b4o134b4o19bo22b4o19bo114b4o19bo
22b4o19bo22b4o19bo22b4o19bo22b4o19bo22b4o19bo22b4o19bo22b4o732b4o19bo
22b4o19bo183bo22b4o19bo22b4o19bo22b4o19bo22b4o19bo114b4o19bo22b4o19bo
91bo22b4o19bo22b4o203bo22b4o19bo22b4o88b4o19bo22b4o19bo206b4o19bo22b4o
19bo160b4o19bo22b4o19bo275bo22b4o19bo22b4o19bo22b4o134b4o19bo22b4o19bo
114b4o19bo22b4o19bo22b4o19bo22b4o19bo22b4o19bo22b4o19bo22b4o19bo22b4o
249bo22b4o19bo22b4o180b4o19bo22b4o19bo91bo22b4o19bo22b4o19bo22b4o19bo
22b4o19bo22b4o19bo22b4o19bo22b4o19bo91bo22b4o19bo22b4o111bo22b4o19bo
22b4o88b4o19bo22b4o19bo206b4o19bo22b4o19bo413bo22b4o19bo22b4o19bo22b4o
19bo22b4o19bo160b4o19bo22b4o19bo137bo22b4o19bo22b4o157bo22b4o19bo22b4o
88b4o19bo22b4o19bo183bo22b4o19bo22b4o88b4o19bo$557bo2bo42bo2bo180bo2bo
42bo2bo318bo2bo42bo2bo42bo2bo134bo2bo42bo2bo134bo2bo42bo2bo42bo2bo42bo
2bo42bo2bo42bo2bo42bo2bo42bo2bo272bo2bo42bo2bo180bo2bo42bo2bo134bo2bo
42bo2bo42bo2bo42bo2bo42bo2bo42bo2bo42bo2bo134bo2bo42bo2bo134bo2bo42bo
2bo88bo2bo42bo2bo226bo2bo42bo2bo456bo2bo42bo2bo42bo2bo42bo2bo180bo2bo
42bo2bo180bo2bo42bo2bo180bo2bo42bo2bo88bo2bo42bo2bo226bo2bo42bo2bo88bo
2bo42bo2bo42bo2bo42bo2bo42bo2bo42bo2bo42bo2bo42bo2bo88bo2bo42bo2bo180b
o2bo42bo2bo180bo2bo42bo2bo134bo2bo42bo2bo42bo2bo42bo2bo42bo2bo42bo2bo
42bo2bo778bo2bo42bo2bo180bo2bo42bo2bo42bo2bo42bo2bo42bo2bo134bo2bo42bo
2bo88bo2bo42bo2bo226bo2bo42bo2bo134bo2bo42bo2bo226bo2bo42bo2bo180bo2bo
42bo2bo272bo2bo42bo2bo42bo2bo180bo2bo42bo2bo134bo2bo42bo2bo42bo2bo42bo
2bo42bo2bo42bo2bo42bo2bo272bo2bo42bo2bo226bo2bo42bo2bo88bo2bo42bo2bo
42bo2bo42bo2bo42bo2bo42bo2bo42bo2bo42bo2bo88bo2bo42bo2bo134bo2bo42bo2b
o134bo2bo42bo2bo226bo2bo42bo2bo410bo2bo42bo2bo42bo2bo42bo2bo42bo2bo
180bo2bo42bo2bo134bo2bo42bo2bo180bo2bo42bo2bo134bo2bo42bo2bo180bo2bo
42bo2bo134bo2bo3$13867b2o$13867b2o9$13867b2o$13867b2o3$557bo2bo42bo2bo
42bo2bo134bo2bo42bo2bo180bo2bo180bo2bo42bo2bo134bo2bo42bo2bo180bo2bo
42bo2bo180bo2bo318bo2bo42bo2bo180bo2bo42bo2bo134bo2bo42bo2bo180bo2bo
42bo2bo134bo2bo42bo2bo134bo2bo42bo2bo134bo2bo42bo2bo180bo2bo42bo2bo
364bo2bo42bo2bo42bo2bo42bo2bo42bo2bo226bo2bo42bo2bo180bo2bo42bo2bo180b
o2bo42bo2bo88bo2bo42bo2bo42bo2bo134bo2bo42bo2bo42bo2bo134bo2bo42bo2bo
180bo2bo134bo2bo42bo2bo42bo2bo134bo2bo42bo2bo180bo2bo42bo2bo134bo2bo
42bo2bo180bo2bo42bo2bo778bo2bo42bo2bo180bo2bo42bo2bo42bo2bo42bo2bo42bo
2bo134bo2bo42bo2bo134bo2bo42bo2bo180bo2bo42bo2bo134bo2bo42bo2bo226bo2b
o42bo2bo180bo2bo42bo2bo134bo2bo180bo2bo42bo2bo180bo2bo42bo2bo134bo2bo
42bo2bo180bo2bo42bo2bo272bo2bo42bo2bo42bo2bo134bo2bo42bo2bo42bo2bo134b
o2bo42bo2bo180bo2bo134bo2bo42bo2bo134bo2bo42bo2bo134bo2bo42bo2bo180bo
2bo42bo2bo364bo2bo42bo2bo42bo2bo42bo2bo42bo2bo42bo2bo226bo2bo42bo2bo
134bo2bo42bo2bo180bo2bo42bo2bo134bo2bo42bo2bo180bo2bo42bo2bo134bo2bo$
556bo22b4o19bo22b4o19bo137bo22b4o19bo22b4o134b4o19bo160b4o19bo22b4o19b
o137bo22b4o19bo22b4o134b4o19bo22b4o19bo160b4o19bo22b4o272b4o19bo22b4o
19bo22b4o134b4o19bo22b4o19bo22b4o111bo22b4o19bo22b4o157bo22b4o19bo114b
4o19bo22b4o19bo114b4o19bo22b4o19bo114b4o19bo22b4o19bo160b4o19bo22b4o
19bo344b4o19bo22b4o19bo22b4o19bo22b4o19bo22b4o19bo22b4o203bo22b4o19bo
22b4o134b4o19bo22b4o19bo160b4o19bo22b4o19bo91bo22b4o19bo22b4o19bo137bo
22b4o19bo22b4o19bo114b4o19bo22b4o19bo160b4o19bo22b4o111bo22b4o19bo22b
4o19bo137bo22b4o19bo22b4o134b4o19bo22b4o19bo137bo22b4o19bo22b4o157bo
22b4o19bo758b4o19bo22b4o19bo183bo22b4o19bo22b4o19bo22b4o19bo22b4o19bo
114b4o19bo22b4o19bo114b4o19bo22b4o19bo160b4o19bo22b4o19bo114b4o19bo22b
4o19bo22b4o180b4o19bo22b4o19bo22b4o134b4o19bo22b4o19bo137bo22b4o157bo
22b4o19bo22b4o134b4o19bo22b4o19bo137bo22b4o19bo22b4o157bo22b4o19bo275b
o22b4o19bo22b4o19bo137bo22b4o19bo22b4o19bo114b4o19bo22b4o19bo160b4o19b
o22b4o111bo22b4o19bo22b4o111bo22b4o19bo22b4o111bo22b4o19bo22b4o157bo
22b4o19bo22b4o341bo22b4o19bo22b4o19bo22b4o19bo22b4o19bo22b4o19bo206b4o
19bo22b4o19bo137bo22b4o19bo22b4o157bo22b4o19bo22b4o88b4o19bo22b4o19bo
22b4o134b4o19bo22b4o19bo22b4o111bo$556bo3bo18bo3bo18bo3bo18bo3bo18bo3b
o133bo3bo18bo3bo18bo3bo18bo3bo133bo3bo18bo3bo156bo3bo18bo3bo18bo3bo18b
o3bo133bo3bo18bo3bo18bo3bo18bo3bo133bo3bo18bo3bo18bo3bo18bo3bo156bo3bo
18bo3bo18bo3bo271bo3bo18bo3bo18bo3bo18bo3bo18bo3bo133bo3bo18bo3bo18bo
3bo18bo3bo18bo3bo110bo3bo18bo3bo18bo3bo18bo3bo156bo3bo18bo3bo18bo3bo
110bo3bo18bo3bo18bo3bo18bo3bo110bo3bo18bo3bo18bo3bo18bo3bo110bo3bo18bo
3bo18bo3bo18bo3bo156bo3bo18bo3bo18bo3bo18bo3bo340bo3bo18bo3bo18bo3bo
18bo3bo18bo3bo18bo3bo18bo3bo18bo3bo18bo3bo18bo3bo18bo3bo202bo3bo18bo3b
o18bo3bo18bo3bo133bo3bo18bo3bo18bo3bo18bo3bo156bo3bo18bo3bo18bo3bo18bo
3bo87bo3bo18bo3bo18bo3bo18bo3bo18bo3bo133bo3bo18bo3bo18bo3bo18bo3bo18b
o3bo110bo3bo18bo3bo18bo3bo18bo3bo156bo3bo18bo3bo18bo3bo110bo3bo18bo3bo
18bo3bo18bo3bo18bo3bo133bo3bo18bo3bo18bo3bo18bo3bo133bo3bo18bo3bo18bo
3bo18bo3bo133bo3bo18bo3bo18bo3bo18bo3bo156bo3bo18bo3bo18bo3bo754bo3bo
18bo3bo18bo3bo18bo3bo179bo3bo18bo3bo18bo3bo18bo3bo18bo3bo18bo3bo18bo3b
o18bo3bo18bo3bo110bo3bo18bo3bo18bo3bo18bo3bo110bo3bo18bo3bo18bo3bo18bo
3bo156bo3bo18bo3bo18bo3bo18bo3bo110bo3bo18bo3bo18bo3bo18bo3bo18bo3bo
179bo3bo18bo3bo18bo3bo18bo3bo18bo3bo133bo3bo18bo3bo18bo3bo18bo3bo133bo
3bo18bo3bo156bo3bo18bo3bo18bo3bo18bo3bo133bo3bo18bo3bo18bo3bo18bo3bo
133bo3bo18bo3bo18bo3bo18bo3bo156bo3bo18bo3bo18bo3bo271bo3bo18bo3bo18bo
3bo18bo3bo18bo3bo133bo3bo18bo3bo18bo3bo18bo3bo18bo3bo110bo3bo18bo3bo
18bo3bo18bo3bo156bo3bo18bo3bo18bo3bo110bo3bo18bo3bo18bo3bo18bo3bo110bo
3bo18bo3bo18bo3bo18bo3bo110bo3bo18bo3bo18bo3bo18bo3bo156bo3bo18bo3bo
18bo3bo18bo3bo340bo3bo18bo3bo18bo3bo18bo3bo18bo3bo18bo3bo18bo3bo18bo3b
o18bo3bo18bo3bo18bo3bo202bo3bo18bo3bo18bo3bo18bo3bo133bo3bo18bo3bo18bo
3bo18bo3bo156bo3bo18bo3bo18bo3bo18bo3bo87bo3bo18bo3bo18bo3bo18bo3bo18b
o3bo133bo3bo18bo3bo18bo3bo18bo3bo18bo3bo110bo3bo$556b4o19bo22b4o19bo
22b4o134b4o19bo22b4o19bo137bo22b4o157bo22b4o19bo22b4o134b4o19bo22b4o
19bo137bo22b4o19bo22b4o157bo22b4o19bo275bo22b4o19bo22b4o19bo137bo22b4o
19bo22b4o19bo114b4o19bo22b4o19bo160b4o19bo22b4o111bo22b4o19bo22b4o111b
o22b4o19bo22b4o111bo22b4o19bo22b4o157bo22b4o19bo22b4o341bo22b4o19bo22b
4o19bo22b4o19bo22b4o19bo22b4o19bo206b4o19bo22b4o19bo137bo22b4o19bo22b
4o157bo22b4o19bo22b4o88b4o19bo22b4o19bo22b4o134b4o19bo22b4o19bo22b4o
111bo22b4o19bo22b4o157bo22b4o19bo114b4o19bo22b4o19bo22b4o134b4o19bo22b
4o19bo137bo22b4o19bo22b4o134b4o19bo22b4o19bo160b4o19bo22b4o755bo22b4o
19bo22b4o180b4o19bo22b4o19bo22b4o19bo22b4o19bo22b4o111bo22b4o19bo22b4o
111bo22b4o19bo22b4o157bo22b4o19bo22b4o111bo22b4o19bo22b4o19bo183bo22b
4o19bo22b4o19bo137bo22b4o19bo22b4o134b4o19bo160b4o19bo22b4o19bo137bo
22b4o19bo22b4o134b4o19bo22b4o19bo160b4o19bo22b4o272b4o19bo22b4o19bo22b
4o134b4o19bo22b4o19bo22b4o111bo22b4o19bo22b4o157bo22b4o19bo114b4o19bo
22b4o19bo114b4o19bo22b4o19bo114b4o19bo22b4o19bo160b4o19bo22b4o19bo344b
4o19bo22b4o19bo22b4o19bo22b4o19bo22b4o19bo22b4o203bo22b4o19bo22b4o134b
4o19bo22b4o19bo160b4o19bo22b4o19bo91bo22b4o19bo22b4o19bo137bo22b4o19bo
22b4o19bo114b4o$2b2o576bo2bo42bo2bo180bo2bo42bo2bo134bo2bo180bo2bo42bo
2bo180bo2bo42bo2bo134bo2bo42bo2bo180bo2bo42bo2bo272bo2bo42bo2bo42bo2bo
134bo2bo42bo2bo42bo2bo134bo2bo42bo2bo180bo2bo134bo2bo42bo2bo134bo2bo
42bo2bo134bo2bo42bo2bo180bo2bo42bo2bo364bo2bo42bo2bo42bo2bo42bo2bo42bo
2bo42bo2bo226bo2bo42bo2bo134bo2bo42bo2bo180bo2bo42bo2bo134bo2bo42bo2bo
180bo2bo42bo2bo134bo2bo42bo2bo180bo2bo42bo2bo134bo2bo42bo2bo180bo2bo
42bo2bo134bo2bo42bo2bo180bo2bo42bo2bo180bo2bo778bo2bo42bo2bo226bo2bo
42bo2bo42bo2bo42bo2bo134bo2bo42bo2bo134bo2bo42bo2bo180bo2bo42bo2bo134b
o2bo42bo2bo42bo2bo180bo2bo42bo2bo42bo2bo134bo2bo42bo2bo180bo2bo180bo2b
o42bo2bo134bo2bo42bo2bo180bo2bo42bo2bo180bo2bo318bo2bo42bo2bo180bo2bo
42bo2bo134bo2bo42bo2bo180bo2bo42bo2bo134bo2bo42bo2bo134bo2bo42bo2bo
134bo2bo42bo2bo180bo2bo42bo2bo364bo2bo42bo2bo42bo2bo42bo2bo42bo2bo226b
o2bo42bo2bo180bo2bo42bo2bo180bo2bo42bo2bo88bo2bo42bo2bo42bo2bo134bo2bo
42bo2bo42bo2bo$bobo$bo$2o$13815b2o43b3o3b3o$13815b2o42bo3bobo3bo$
13846bo11bo3b2ob2o3bo$13846b2o10bob2o5b2obo$13808b3o3b3o28bobo12bo7bo$
13808bo2bobo2bo$13752b2o56b2ob2o$2o13750b2o$bo13804bo11bo$bobo13803bo
9bo$2b2o576bo2bo42bo2bo42bo2bo88bo2bo42bo2bo42bo2bo134bo2bo42bo2bo134b
o2bo42bo2bo180bo2bo42bo2bo134bo2bo42bo2bo42bo2bo88bo2bo42bo2bo42bo2bo
318bo2bo42bo2bo134bo2bo42bo2bo42bo2bo134bo2bo42bo2bo134bo2bo42bo2bo
134bo2bo42bo2bo134bo2bo42bo2bo134bo2bo42bo2bo42bo2bo134bo2bo42bo2bo
364bo2bo42bo2bo42bo2bo42bo2bo42bo2bo272bo2bo42bo2bo134bo2bo42bo2bo180b
o2bo42bo2bo134bo2bo42bo2bo42bo2bo88bo2bo42bo2bo42bo2bo134bo2bo42bo2bo
42bo2bo88bo2bo42bo2bo42bo2bo134bo2bo42bo2bo42bo2bo88bo2bo42bo2bo42bo2b
o134bo2bo42bo2bo180bo2bo42bo2bo134bo2bo42bo2bo778bo2bo42bo2bo502bo2bo
42bo2bo134bo2bo42bo2bo42bo2bo134bo2bo42bo2bo134bo2bo42bo2bo42bo2bo180b
o2bo42bo2bo42bo2bo134bo2bo42bo2bo134bo2bo42bo2bo134bo2bo42bo2bo42bo2bo
134bo2bo42bo2bo180bo2bo42bo2bo134bo2bo42bo2bo318bo2bo42bo2bo42bo2bo88b
o2bo42bo2bo42bo2bo134bo2bo42bo2bo42bo2bo88bo2bo42bo2bo42bo2bo134bo2bo
42bo2bo134bo2bo42bo2bo134bo2bo42bo2bo134bo2bo42bo2bo42bo2bo318bo2bo42b
o2bo42bo2bo42bo2bo42bo2bo272bo2bo42bo2bo180bo2bo42bo2bo180bo2bo42bo2bo
134bo2bo42bo2bo134bo2bo42bo2bo42bo2bo69bobobobo44b3o$372b4o180b4o19bo
22b4o19bo22b4o19bo91bo22b4o19bo22b4o19bo114b4o19bo22b4o19bo114b4o19bo
22b4o19bo22b4o134b4o19bo22b4o19bo137bo22b4o19bo22b4o19bo91bo22b4o19bo
22b4o19bo298b4o19bo22b4o19bo22b4o88b4o19bo22b4o19bo22b4o19bo114b4o19bo
22b4o19bo22b4o88b4o19bo22b4o19bo22b4o111bo22b4o19bo22b4o111bo22b4o19bo
22b4o111bo22b4o19bo22b4o19bo114b4o19bo22b4o19bo22b4o318b4o19bo22b4o19b
o22b4o19bo22b4o19bo22b4o19bo252b4o19bo22b4o19bo137bo22b4o19bo22b4o157b
o22b4o19bo22b4o111bo22b4o19bo22b4o19bo91bo22b4o19bo22b4o19bo22b4o111bo
22b4o19bo22b4o19bo91bo22b4o19bo22b4o19bo114b4o19bo22b4o19bo22b4o19bo
91bo22b4o19bo22b4o19bo137bo22b4o19bo22b4o134b4o19bo22b4o19bo22b4o88b4o
19bo22b4o19bo22b4o755bo22b4o19bo22b4o479bo22b4o19bo22b4o111bo22b4o19bo
22b4o19bo114b4o19bo22b4o19bo22b4o111bo22b4o19bo22b4o19bo183bo22b4o19bo
22b4o19bo22b4o88b4o19bo22b4o19bo22b4o111bo22b4o19bo22b4o111bo22b4o19bo
22b4o19bo137bo22b4o19bo22b4o134b4o19bo22b4o19bo22b4o88b4o19bo22b4o19bo
22b4o295bo22b4o19bo22b4o19bo91bo22b4o19bo22b4o19bo22b4o111bo22b4o19bo
22b4o19bo91bo22b4o19bo22b4o19bo114b4o19bo22b4o19bo114b4o19bo22b4o19bo
114b4o19bo22b4o19bo22b4o111bo22b4o19bo22b4o19bo321bo22b4o19bo22b4o19bo
22b4o19bo22b4o19bo22b4o249bo22b4o19bo22b4o134b4o19bo22b4o19bo160b4o19b
o22b4o19bo114b4o19bo22b4o19bo22b4o88b4o19bo22b4o19bo22b4o19bo73bobobob
o44bobo$372bo3bo179bo3bo18bo3bo18bo3bo18bo3bo18bo3bo18bo3bo87bo3bo18bo
3bo18bo3bo18bo3bo18bo3bo110bo3bo18bo3bo18bo3bo18bo3bo110bo3bo18bo3bo
18bo3bo18bo3bo18bo3bo133bo3bo18bo3bo18bo3bo18bo3bo133bo3bo18bo3bo18bo
3bo18bo3bo18bo3bo87bo3bo18bo3bo18bo3bo18bo3bo18bo3bo294bo3bo18bo3bo18b
o3bo18bo3bo18bo3bo87bo3bo18bo3bo18bo3bo18bo3bo18bo3bo18bo3bo110bo3bo
18bo3bo18bo3bo18bo3bo18bo3bo87bo3bo18bo3bo18bo3bo18bo3bo18bo3bo110bo3b
o18bo3bo18bo3bo18bo3bo110bo3bo18bo3bo18bo3bo18bo3bo110bo3bo18bo3bo18bo
3bo18bo3bo18bo3bo110bo3bo18bo3bo18bo3bo18bo3bo18bo3bo317bo3bo18bo3bo
18bo3bo18bo3bo18bo3bo18bo3bo18bo3bo18bo3bo18bo3bo18bo3bo248bo3bo18bo3b
o18bo3bo18bo3bo133bo3bo18bo3bo18bo3bo18bo3bo156bo3bo18bo3bo18bo3bo18bo
3bo110bo3bo18bo3bo18bo3bo18bo3bo18bo3bo87bo3bo18bo3bo18bo3bo18bo3bo18b
o3bo18bo3bo110bo3bo18bo3bo18bo3bo18bo3bo18bo3bo87bo3bo18bo3bo18bo3bo
18bo3bo18bo3bo110bo3bo18bo3bo18bo3bo18bo3bo18bo3bo18bo3bo87bo3bo18bo3b
o18bo3bo18bo3bo18bo3bo133bo3bo18bo3bo18bo3bo18bo3bo133bo3bo18bo3bo18bo
3bo18bo3bo18bo3bo87bo3bo18bo3bo18bo3bo18bo3bo18bo3bo754bo3bo18bo3bo18b
o3bo18bo3bo478bo3bo18bo3bo18bo3bo18bo3bo110bo3bo18bo3bo18bo3bo18bo3bo
18bo3bo110bo3bo18bo3bo18bo3bo18bo3bo18bo3bo110bo3bo18bo3bo18bo3bo18bo
3bo18bo3bo179bo3bo18bo3bo18bo3bo18bo3bo18bo3bo18bo3bo87bo3bo18bo3bo18b
o3bo18bo3bo18bo3bo110bo3bo18bo3bo18bo3bo18bo3bo110bo3bo18bo3bo18bo3bo
18bo3bo18bo3bo133bo3bo18bo3bo18bo3bo18bo3bo133bo3bo18bo3bo18bo3bo18bo
3bo18bo3bo87bo3bo18bo3bo18bo3bo18bo3bo18bo3bo294bo3bo18bo3bo18bo3bo18b
o3bo18bo3bo87bo3bo18bo3bo18bo3bo18bo3bo18bo3bo18bo3bo110bo3bo18bo3bo
18bo3bo18bo3bo18bo3bo87bo3bo18bo3bo18bo3bo18bo3bo18bo3bo110bo3bo18bo3b
o18bo3bo18bo3bo110bo3bo18bo3bo18bo3bo18bo3bo110bo3bo18bo3bo18bo3bo18bo
3bo18bo3bo110bo3bo18bo3bo18bo3bo18bo3bo18bo3bo317bo3bo18bo3bo18bo3bo
18bo3bo18bo3bo18bo3bo18bo3bo18bo3bo18bo3bo18bo3bo248bo3bo18bo3bo18bo3b
o18bo3bo133bo3bo18bo3bo18bo3bo18bo3bo156bo3bo18bo3bo18bo3bo18bo3bo110b
o3bo18bo3bo18bo3bo18bo3bo18bo3bo87bo3bo18bo3bo18bo3bo18bo3bo18bo3bo18b
o3bo70b2ob2o44bo3bo$372bo183bo22b4o19bo22b4o19bo22b4o88b4o19bo22b4o19b
o22b4o111bo22b4o19bo22b4o111bo22b4o19bo22b4o19bo137bo22b4o19bo22b4o
134b4o19bo22b4o19bo22b4o88b4o19bo22b4o19bo22b4o295bo22b4o19bo22b4o19bo
91bo22b4o19bo22b4o19bo22b4o111bo22b4o19bo22b4o19bo91bo22b4o19bo22b4o
19bo114b4o19bo22b4o19bo114b4o19bo22b4o19bo114b4o19bo22b4o19bo22b4o111b
o22b4o19bo22b4o19bo321bo22b4o19bo22b4o19bo22b4o19bo22b4o19bo22b4o249bo
22b4o19bo22b4o134b4o19bo22b4o19bo160b4o19bo22b4o19bo114b4o19bo22b4o19b
o22b4o88b4o19bo22b4o19bo22b4o19bo114b4o19bo22b4o19bo22b4o88b4o19bo22b
4o19bo22b4o111bo22b4o19bo22b4o19bo22b4o88b4o19bo22b4o19bo22b4o134b4o
19bo22b4o19bo137bo22b4o19bo22b4o19bo91bo22b4o19bo22b4o19bo758b4o19bo
22b4o19bo482b4o19bo22b4o19bo114b4o19bo22b4o19bo22b4o111bo22b4o19bo22b
4o19bo114b4o19bo22b4o19bo22b4o180b4o19bo22b4o19bo22b4o19bo91bo22b4o19b
o22b4o19bo114b4o19bo22b4o19bo114b4o19bo22b4o19bo22b4o134b4o19bo22b4o
19bo137bo22b4o19bo22b4o19bo91bo22b4o19bo22b4o19bo298b4o19bo22b4o19bo
22b4o88b4o19bo22b4o19bo22b4o19bo114b4o19bo22b4o19bo22b4o88b4o19bo22b4o
19bo22b4o111bo22b4o19bo22b4o111bo22b4o19bo22b4o111bo22b4o19bo22b4o19bo
114b4o19bo22b4o19bo22b4o318b4o19bo22b4o19bo22b4o19bo22b4o19bo22b4o19bo
252b4o19bo22b4o19bo137bo22b4o19bo22b4o157bo22b4o19bo22b4o111bo22b4o19b
o22b4o19bo91bo22b4o19bo22b4o19bo22b4o68bo2bo3bo2bo41bo3bo$2b2o369bo2bo
180bo2bo42bo2bo42bo2bo134bo2bo42bo2bo134bo2bo42bo2bo134bo2bo42bo2bo42b
o2bo134bo2bo42bo2bo180bo2bo42bo2bo134bo2bo42bo2bo318bo2bo42bo2bo42bo2b
o88bo2bo42bo2bo42bo2bo134bo2bo42bo2bo42bo2bo88bo2bo42bo2bo42bo2bo134bo
2bo42bo2bo134bo2bo42bo2bo134bo2bo42bo2bo134bo2bo42bo2bo42bo2bo318bo2bo
42bo2bo42bo2bo42bo2bo42bo2bo272bo2bo42bo2bo180bo2bo42bo2bo180bo2bo42bo
2bo134bo2bo42bo2bo134bo2bo42bo2bo42bo2bo134bo2bo42bo2bo134bo2bo42bo2bo
134bo2bo42bo2bo42bo2bo134bo2bo42bo2bo180bo2bo42bo2bo134bo2bo42bo2bo42b
o2bo88bo2bo42bo2bo42bo2bo778bo2bo42bo2bo502bo2bo42bo2bo134bo2bo42bo2bo
134bo2bo42bo2bo42bo2bo134bo2bo42bo2bo226bo2bo42bo2bo42bo2bo88bo2bo42bo
2bo42bo2bo134bo2bo42bo2bo134bo2bo42bo2bo180bo2bo42bo2bo134bo2bo42bo2bo
42bo2bo88bo2bo42bo2bo42bo2bo318bo2bo42bo2bo134bo2bo42bo2bo42bo2bo134bo
2bo42bo2bo134bo2bo42bo2bo134bo2bo42bo2bo134bo2bo42bo2bo134bo2bo42bo2bo
42bo2bo134bo2bo42bo2bo364bo2bo42bo2bo42bo2bo42bo2bo42bo2bo272bo2bo42bo
2bo134bo2bo42bo2bo180bo2bo42bo2bo134bo2bo42bo2bo42bo2bo88bo2bo42bo2bo
42bo2bo91b2o5b2o17b2o$bobo13831b2o23b3o4b2o$bo13832bo32b2o$2o$13700b2o
43b3o3b3o$13700b2o42bo3bobo3bo$13743bo3b2ob2o3bo$13743bob2o5b2obo$
13693b3o3b3o43bo7bo$13693bo2bobo2bo$13637b2o56b2ob2o96b2o$2o13635b2o
157b2o25bo$bo13689bo11bo119b2o$bobo13688bo9bo105b2o12bobo$2b2o277bo2bo
42bo2bo42bo2bo42bo2bo42bo2bo88bo2bo42bo2bo42bo2bo42bo2bo42bo2bo42bo2bo
42bo2bo180bo2bo42bo2bo42bo2bo42bo2bo42bo2bo134bo2bo42bo2bo42bo2bo42bo
2bo42bo2bo88bo2bo42bo2bo42bo2bo42bo2bo42bo2bo42bo2bo364bo2bo42bo2bo42b
o2bo42bo2bo42bo2bo42bo2bo180bo2bo42bo2bo42bo2bo42bo2bo42bo2bo180bo2bo
42bo2bo134bo2bo42bo2bo134bo2bo42bo2bo42bo2bo42bo2bo42bo2bo42bo2bo364bo
2bo42bo2bo42bo2bo42bo2bo272bo2bo42bo2bo42bo2bo42bo2bo42bo2bo88bo2bo42b
o2bo180bo2bo42bo2bo134bo2bo42bo2bo42bo2bo42bo2bo42bo2bo42bo2bo42bo2bo
134bo2bo42bo2bo42bo2bo42bo2bo42bo2bo42bo2bo134bo2bo42bo2bo42bo2bo42bo
2bo42bo2bo42bo2bo42bo2bo134bo2bo42bo2bo42bo2bo42bo2bo134bo2bo42bo2bo
42bo2bo42bo2bo42bo2bo824bo2bo42bo2bo502bo2bo42bo2bo134bo2bo42bo2bo42bo
2bo42bo2bo42bo2bo42bo2bo180bo2bo42bo2bo42bo2bo42bo2bo134bo2bo42bo2bo
42bo2bo42bo2bo42bo2bo42bo2bo180bo2bo42bo2bo42bo2bo42bo2bo42bo2bo42bo2b
o134bo2bo42bo2bo42bo2bo42bo2bo134bo2bo42bo2bo42bo2bo42bo2bo42bo2bo364b
o2bo42bo2bo42bo2bo42bo2bo42bo2bo42bo2bo42bo2bo134bo2bo42bo2bo42bo2bo
42bo2bo42bo2bo42bo2bo134bo2bo42bo2bo134bo2bo42bo2bo180bo2bo42bo2bo42bo
2bo42bo2bo42bo2bo42bo2bo364bo2bo42bo2bo42bo2bo42bo2bo272bo2bo42bo2bo
42bo2bo42bo2bo88bo2bo42bo2bo180bo2bo42bo2bo180bo2bo42bo2bo42bo2bo42bo
2bo69bobobobo44b3o60b2o$280bo22b4o19bo22b4o19bo22b4o19bo22b4o19bo91bo
22b4o19bo22b4o19bo22b4o19bo22b4o19bo22b4o19bo22b4o19bo160b4o19bo22b4o
19bo22b4o19bo22b4o19bo22b4o19bo22b4o111bo22b4o19bo22b4o19bo22b4o19bo
22b4o19bo91bo22b4o19bo22b4o19bo22b4o19bo22b4o19bo22b4o19bo344b4o19bo
22b4o19bo22b4o19bo22b4o19bo22b4o19bo22b4o19bo22b4o134b4o19bo22b4o19bo
22b4o19bo22b4o19bo22b4o19bo22b4o134b4o19bo22b4o19bo114b4o19bo22b4o19bo
137bo22b4o19bo22b4o19bo22b4o19bo22b4o19bo22b4o19bo22b4o341bo22b4o19bo
22b4o19bo22b4o19bo22b4o249bo22b4o19bo22b4o19bo22b4o19bo22b4o19bo68b4o
19bo22b4o19bo160b4o19bo22b4o19bo137bo22b4o19bo22b4o19bo22b4o19bo22b4o
19bo22b4o19bo22b4o19bo137bo22b4o19bo22b4o19bo22b4o19bo22b4o19bo22b4o
19bo137bo22b4o19bo22b4o19bo22b4o19bo22b4o19bo22b4o19bo22b4o19bo114b4o
19bo22b4o19bo22b4o19bo22b4o19bo22b4o88b4o19bo22b4o19bo22b4o19bo22b4o
19bo22b4o19bo22b4o778b4o19bo22b4o19bo482b4o19bo22b4o19bo137bo22b4o19bo
22b4o19bo22b4o19bo22b4o19bo22b4o19bo22b4o134b4o19bo22b4o19bo22b4o19bo
22b4o19bo22b4o88b4o19bo22b4o19bo22b4o19bo22b4o19bo22b4o19bo22b4o19bo
22b4o157bo22b4o19bo22b4o19bo22b4o19bo22b4o19bo22b4o19bo114b4o19bo22b4o
19bo22b4o19bo22b4o19bo22b4o88b4o19bo22b4o19bo22b4o19bo22b4o19bo22b4o
19bo22b4o341bo22b4o19bo22b4o19bo22b4o19bo22b4o19bo22b4o19bo22b4o19bo
137bo22b4o19bo22b4o19bo22b4o19bo22b4o19bo22b4o19bo137bo22b4o19bo22b4o
111bo22b4o19bo22b4o134b4o19bo22b4o19bo22b4o19bo22b4o19bo22b4o19bo22b4o
19bo344b4o19bo22b4o19bo22b4o19bo22b4o19bo252b4o19bo22b4o19bo22b4o19bo
22b4o19bo22b4o65bo22b4o19bo22b4o157bo22b4o19bo22b4o134b4o19bo22b4o19bo
22b4o19bo22b4o19bo73bobobobo44bobo$280bo3bo18bo3bo18bo3bo18bo3bo18bo3b
o18bo3bo18bo3bo18bo3bo18bo3bo87bo3bo18bo3bo18bo3bo18bo3bo18bo3bo18bo3b
o18bo3bo18bo3bo18bo3bo18bo3bo18bo3bo18bo3bo18bo3bo156bo3bo18bo3bo18bo
3bo18bo3bo18bo3bo18bo3bo18bo3bo18bo3bo18bo3bo18bo3bo18bo3bo110bo3bo18b
o3bo18bo3bo18bo3bo18bo3bo18bo3bo18bo3bo18bo3bo18bo3bo87bo3bo18bo3bo18b
o3bo18bo3bo18bo3bo18bo3bo18bo3bo18bo3bo18bo3bo18bo3bo18bo3bo340bo3bo
18bo3bo18bo3bo18bo3bo18bo3bo18bo3bo18bo3bo18bo3bo18bo3bo18bo3bo18bo3bo
18bo3bo18bo3bo133bo3bo18bo3bo18bo3bo18bo3bo18bo3bo18bo3bo18bo3bo18bo3b
o18bo3bo18bo3bo18bo3bo133bo3bo18bo3bo18bo3bo18bo3bo110bo3bo18bo3bo18bo
3bo18bo3bo133bo3bo18bo3bo18bo3bo18bo3bo18bo3bo18bo3bo18bo3bo18bo3bo18b
o3bo18bo3bo18bo3bo18bo3bo340bo3bo18bo3bo18bo3bo18bo3bo18bo3bo18bo3bo
18bo3bo18bo3bo248bo3bo18bo3bo18bo3bo18bo3bo18bo3bo18bo3bo18bo3bo18bo3b
o18bo3bo64bo3bo18bo3bo18bo3bo18bo3bo156bo3bo18bo3bo18bo3bo18bo3bo133bo
3bo18bo3bo18bo3bo18bo3bo18bo3bo18bo3bo18bo3bo18bo3bo18bo3bo18bo3bo18bo
3bo18bo3bo18bo3bo133bo3bo18bo3bo18bo3bo18bo3bo18bo3bo18bo3bo18bo3bo18b
o3bo18bo3bo18bo3bo18bo3bo133bo3bo18bo3bo18bo3bo18bo3bo18bo3bo18bo3bo
18bo3bo18bo3bo18bo3bo18bo3bo18bo3bo18bo3bo18bo3bo110bo3bo18bo3bo18bo3b
o18bo3bo18bo3bo18bo3bo18bo3bo18bo3bo18bo3bo87bo3bo18bo3bo18bo3bo18bo3b
o18bo3bo18bo3bo18bo3bo18bo3bo18bo3bo18bo3bo18bo3bo777bo3bo18bo3bo18bo
3bo18bo3bo478bo3bo18bo3bo18bo3bo18bo3bo133bo3bo18bo3bo18bo3bo18bo3bo
18bo3bo18bo3bo18bo3bo18bo3bo18bo3bo18bo3bo18bo3bo18bo3bo133bo3bo18bo3b
o18bo3bo18bo3bo18bo3bo18bo3bo18bo3bo18bo3bo18bo3bo87bo3bo18bo3bo18bo3b
o18bo3bo18bo3bo18bo3bo18bo3bo18bo3bo18bo3bo18bo3bo18bo3bo18bo3bo18bo3b
o156bo3bo18bo3bo18bo3bo18bo3bo18bo3bo18bo3bo18bo3bo18bo3bo18bo3bo18bo
3bo18bo3bo110bo3bo18bo3bo18bo3bo18bo3bo18bo3bo18bo3bo18bo3bo18bo3bo18b
o3bo87bo3bo18bo3bo18bo3bo18bo3bo18bo3bo18bo3bo18bo3bo18bo3bo18bo3bo18b
o3bo18bo3bo340bo3bo18bo3bo18bo3bo18bo3bo18bo3bo18bo3bo18bo3bo18bo3bo
18bo3bo18bo3bo18bo3bo18bo3bo18bo3bo133bo3bo18bo3bo18bo3bo18bo3bo18bo3b
o18bo3bo18bo3bo18bo3bo18bo3bo18bo3bo18bo3bo133bo3bo18bo3bo18bo3bo18bo
3bo110bo3bo18bo3bo18bo3bo18bo3bo133bo3bo18bo3bo18bo3bo18bo3bo18bo3bo
18bo3bo18bo3bo18bo3bo18bo3bo18bo3bo18bo3bo18bo3bo340bo3bo18bo3bo18bo3b
o18bo3bo18bo3bo18bo3bo18bo3bo18bo3bo248bo3bo18bo3bo18bo3bo18bo3bo18bo
3bo18bo3bo18bo3bo18bo3bo18bo3bo64bo3bo18bo3bo18bo3bo18bo3bo156bo3bo18b
o3bo18bo3bo18bo3bo133bo3bo18bo3bo18bo3bo18bo3bo18bo3bo18bo3bo18bo3bo
18bo3bo70b2ob2o44bo3bo68bo$280b4o19bo22b4o19bo22b4o19bo22b4o19bo22b4o
88b4o19bo22b4o19bo22b4o19bo22b4o19bo22b4o19bo22b4o19bo22b4o157bo22b4o
19bo22b4o19bo22b4o19bo22b4o19bo22b4o19bo114b4o19bo22b4o19bo22b4o19bo
22b4o19bo22b4o88b4o19bo22b4o19bo22b4o19bo22b4o19bo22b4o19bo22b4o341bo
22b4o19bo22b4o19bo22b4o19bo22b4o19bo22b4o19bo22b4o19bo137bo22b4o19bo
22b4o19bo22b4o19bo22b4o19bo22b4o19bo137bo22b4o19bo22b4o111bo22b4o19bo
22b4o134b4o19bo22b4o19bo22b4o19bo22b4o19bo22b4o19bo22b4o19bo344b4o19bo
22b4o19bo22b4o19bo22b4o19bo252b4o19bo22b4o19bo22b4o19bo22b4o19bo22b4o
65bo22b4o19bo22b4o157bo22b4o19bo22b4o134b4o19bo22b4o19bo22b4o19bo22b4o
19bo22b4o19bo22b4o19bo22b4o134b4o19bo22b4o19bo22b4o19bo22b4o19bo22b4o
19bo22b4o134b4o19bo22b4o19bo22b4o19bo22b4o19bo22b4o19bo22b4o19bo22b4o
111bo22b4o19bo22b4o19bo22b4o19bo22b4o19bo91bo22b4o19bo22b4o19bo22b4o
19bo22b4o19bo22b4o19bo781bo22b4o19bo22b4o479bo22b4o19bo22b4o134b4o19bo
22b4o19bo22b4o19bo22b4o19bo22b4o19bo22b4o19bo137bo22b4o19bo22b4o19bo
22b4o19bo22b4o19bo91bo22b4o19bo22b4o19bo22b4o19bo22b4o19bo22b4o19bo22b
4o19bo160b4o19bo22b4o19bo22b4o19bo22b4o19bo22b4o19bo22b4o111bo22b4o19b
o22b4o19bo22b4o19bo22b4o19bo91bo22b4o19bo22b4o19bo22b4o19bo22b4o19bo
22b4o19bo344b4o19bo22b4o19bo22b4o19bo22b4o19bo22b4o19bo22b4o19bo22b4o
134b4o19bo22b4o19bo22b4o19bo22b4o19bo22b4o19bo22b4o134b4o19bo22b4o19bo
114b4o19bo22b4o19bo137bo22b4o19bo22b4o19bo22b4o19bo22b4o19bo22b4o19bo
22b4o341bo22b4o19bo22b4o19bo22b4o19bo22b4o249bo22b4o19bo22b4o19bo22b4o
19bo22b4o19bo68b4o19bo22b4o19bo160b4o19bo22b4o19bo137bo22b4o19bo22b4o
19bo22b4o19bo22b4o68bo2bo3bo2bo41bo3bo69b2o$2b2o300bo2bo42bo2bo42bo2bo
42bo2bo134bo2bo42bo2bo42bo2bo42bo2bo42bo2bo42bo2bo180bo2bo42bo2bo42bo
2bo42bo2bo42bo2bo42bo2bo134bo2bo42bo2bo42bo2bo42bo2bo134bo2bo42bo2bo
42bo2bo42bo2bo42bo2bo364bo2bo42bo2bo42bo2bo42bo2bo42bo2bo42bo2bo42bo2b
o134bo2bo42bo2bo42bo2bo42bo2bo42bo2bo42bo2bo134bo2bo42bo2bo134bo2bo42b
o2bo180bo2bo42bo2bo42bo2bo42bo2bo42bo2bo42bo2bo364bo2bo42bo2bo42bo2bo
42bo2bo272bo2bo42bo2bo42bo2bo42bo2bo88bo2bo42bo2bo180bo2bo42bo2bo180bo
2bo42bo2bo42bo2bo42bo2bo42bo2bo42bo2bo180bo2bo42bo2bo42bo2bo42bo2bo42b
o2bo180bo2bo42bo2bo42bo2bo42bo2bo42bo2bo42bo2bo134bo2bo42bo2bo42bo2bo
42bo2bo42bo2bo88bo2bo42bo2bo42bo2bo42bo2bo42bo2bo42bo2bo778bo2bo42bo2b
o502bo2bo42bo2bo180bo2bo42bo2bo42bo2bo42bo2bo42bo2bo42bo2bo134bo2bo42b
o2bo42bo2bo42bo2bo42bo2bo88bo2bo42bo2bo42bo2bo42bo2bo42bo2bo42bo2bo42b
o2bo180bo2bo42bo2bo42bo2bo42bo2bo42bo2bo134bo2bo42bo2bo42bo2bo42bo2bo
42bo2bo88bo2bo42bo2bo42bo2bo42bo2bo42bo2bo42bo2bo364bo2bo42bo2bo42bo2b
o42bo2bo42bo2bo42bo2bo180bo2bo42bo2bo42bo2bo42bo2bo42bo2bo180bo2bo42bo
2bo134bo2bo42bo2bo134bo2bo42bo2bo42bo2bo42bo2bo42bo2bo42bo2bo364bo2bo
42bo2bo42bo2bo42bo2bo272bo2bo42bo2bo42bo2bo42bo2bo42bo2bo88bo2bo42bo2b
o180bo2bo42bo2bo134bo2bo42bo2bo42bo2bo42bo2bo91b2o5b2o115b2o$bobo
13741b3o4b2o$bo13750b2o36bo5bo$2o13787b3o3b3o$13585b2o43b3o3b3o150bob
2ob2obo$13585b2o42bo3bobo3bo151b2ob2o$13616bo11bo3b2ob2o3bo150b2ob2o$
13616b2o10bob2o5b2obo150b2ob2o$13578b3o3b3o28bobo12bo7bo$13578bo2bobo
2bo$13522b2o56b2ob2o96b2o145bobo$2o13520b2o157b2o146b2o$bo13574bo11bo
240bo$bobo13573bo9bo105b2o$2b2o300bo2bo42bo2bo42bo2bo42bo2bo134bo2bo
42bo2bo42bo2bo42bo2bo42bo2bo42bo2bo226bo2bo42bo2bo42bo2bo42bo2bo42bo2b
o134bo2bo42bo2bo42bo2bo42bo2bo134bo2bo42bo2bo42bo2bo42bo2bo42bo2bo364b
o2bo42bo2bo42bo2bo42bo2bo88bo2bo42bo2bo180bo2bo42bo2bo42bo2bo42bo2bo
180bo2bo42bo2bo134bo2bo42bo2bo180bo2bo42bo2bo42bo2bo42bo2bo42bo2bo364b
o2bo42bo2bo42bo2bo364bo2bo42bo2bo42bo2bo42bo2bo88bo2bo42bo2bo180bo2bo
42bo2bo180bo2bo42bo2bo42bo2bo42bo2bo42bo2bo42bo2bo180bo2bo42bo2bo42bo
2bo42bo2bo42bo2bo180bo2bo42bo2bo42bo2bo42bo2bo42bo2bo42bo2bo134bo2bo
42bo2bo42bo2bo42bo2bo42bo2bo134bo2bo42bo2bo42bo2bo42bo2bo824bo2bo42bo
2bo42bo2bo318bo2bo134bo2bo42bo2bo180bo2bo42bo2bo42bo2bo42bo2bo42bo2bo
180bo2bo42bo2bo42bo2bo42bo2bo42bo2bo88bo2bo42bo2bo88bo2bo42bo2bo42bo2b
o42bo2bo180bo2bo42bo2bo42bo2bo42bo2bo42bo2bo134bo2bo42bo2bo42bo2bo42bo
2bo42bo2bo134bo2bo42bo2bo42bo2bo42bo2bo410bo2bo42bo2bo42bo2bo42bo2bo
42bo2bo42bo2bo180bo2bo42bo2bo42bo2bo42bo2bo42bo2bo180bo2bo42bo2bo134bo
2bo42bo2bo180bo2bo42bo2bo42bo2bo42bo2bo42bo2bo364bo2bo42bo2bo42bo2bo
318bo2bo42bo2bo42bo2bo42bo2bo42bo2bo88bo2bo42bo2bo180bo2bo42bo2bo134bo
2bo42bo2bo69bobobobo44b3o60b2o$280b4o19bo22b4o19bo22b4o19bo22b4o19bo
22b4o88b4o19bo22b4o19bo45bo22b4o19bo22b4o19bo22b4o19bo22b4o180b4o19bo
22b4o19bo22b4o19bo22b4o19bo22b4o19bo114b4o19bo22b4o19bo22b4o19bo22b4o
19bo22b4o111bo22b4o19bo22b4o19bo22b4o19bo22b4o19bo367bo22b4o19bo22b4o
19bo22b4o19bo22b4o42b4o19bo22b4o19bo160b4o19bo22b4o19bo22b4o19bo22b4o
19bo22b4o157bo22b4o19bo22b4o111bo22b4o19bo22b4o157bo22b4o19bo22b4o19bo
22b4o19bo22b4o19bo22b4o341bo22b4o19bo22b4o19bo22b4o318b4o19bo22b4o19bo
22b4o19bo22b4o19bo22b4o65bo22b4o19bo22b4o157bo22b4o19bo22b4o134b4o19bo
22b4o19bo22b4o19bo22b4o19bo45bo22b4o19bo22b4o157bo22b4o19bo22b4o19bo
22b4o19bo22b4o19bo160b4o19bo22b4o19bo45bo22b4o19bo22b4o19bo22b4o19bo
22b4o111bo22b4o19bo22b4o19bo22b4o19bo22b4o19bo114b4o19bo22b4o19bo22b4o
19bo22b4o19bo22b4o801bo22b4o19bo22b4o19bo298b4o19bo137bo22b4o19bo22b4o
157bo22b4o19bo22b4o19bo22b4o19bo22b4o19bo22b4o157bo22b4o19bo22b4o19bo
22b4o19bo22b4o19bo91bo22b4o19bo22b4o42b4o19bo22b4o19bo22b4o19bo22b4o
19bo183bo22b4o19bo22b4o19bo22b4o19bo22b4o19bo22b4o111bo22b4o19bo22b4o
19bo22b4o19bo22b4o19bo114b4o19bo22b4o19bo22b4o19bo22b4o19bo22b4o364b4o
19bo22b4o19bo22b4o19bo22b4o19bo45bo22b4o19bo22b4o157bo22b4o19bo22b4o
19bo22b4o19bo22b4o19bo160b4o19bo22b4o19bo114b4o19bo22b4o19bo160b4o19bo
22b4o19bo22b4o19bo22b4o19bo22b4o19bo344b4o19bo22b4o19bo22b4o19bo321bo
22b4o19bo22b4o19bo22b4o19bo22b4o19bo68b4o19bo22b4o19bo160b4o19bo22b4o
19bo137bo22b4o19bo73bobobobo44bobo163bo$280bo3bo18bo3bo18bo3bo18bo3bo
18bo3bo18bo3bo18bo3bo18bo3bo18bo3bo87bo3bo18bo3bo18bo3bo18bo3bo41bo3bo
18bo3bo18bo3bo18bo3bo18bo3bo18bo3bo18bo3bo18bo3bo179bo3bo18bo3bo18bo3b
o18bo3bo18bo3bo18bo3bo18bo3bo18bo3bo18bo3bo18bo3bo110bo3bo18bo3bo18bo
3bo18bo3bo18bo3bo18bo3bo18bo3bo18bo3bo18bo3bo110bo3bo18bo3bo18bo3bo18b
o3bo18bo3bo18bo3bo18bo3bo18bo3bo18bo3bo363bo3bo18bo3bo18bo3bo18bo3bo
18bo3bo18bo3bo18bo3bo18bo3bo41bo3bo18bo3bo18bo3bo18bo3bo156bo3bo18bo3b
o18bo3bo18bo3bo18bo3bo18bo3bo18bo3bo18bo3bo18bo3bo156bo3bo18bo3bo18bo
3bo18bo3bo110bo3bo18bo3bo18bo3bo18bo3bo156bo3bo18bo3bo18bo3bo18bo3bo
18bo3bo18bo3bo18bo3bo18bo3bo18bo3bo18bo3bo340bo3bo18bo3bo18bo3bo18bo3b
o18bo3bo18bo3bo317bo3bo18bo3bo18bo3bo18bo3bo18bo3bo18bo3bo18bo3bo18bo
3bo18bo3bo64bo3bo18bo3bo18bo3bo18bo3bo156bo3bo18bo3bo18bo3bo18bo3bo
133bo3bo18bo3bo18bo3bo18bo3bo18bo3bo18bo3bo18bo3bo18bo3bo41bo3bo18bo3b
o18bo3bo18bo3bo156bo3bo18bo3bo18bo3bo18bo3bo18bo3bo18bo3bo18bo3bo18bo
3bo18bo3bo156bo3bo18bo3bo18bo3bo18bo3bo41bo3bo18bo3bo18bo3bo18bo3bo18b
o3bo18bo3bo18bo3bo18bo3bo110bo3bo18bo3bo18bo3bo18bo3bo18bo3bo18bo3bo
18bo3bo18bo3bo18bo3bo110bo3bo18bo3bo18bo3bo18bo3bo18bo3bo18bo3bo18bo3b
o18bo3bo18bo3bo800bo3bo18bo3bo18bo3bo18bo3bo18bo3bo294bo3bo18bo3bo133b
o3bo18bo3bo18bo3bo18bo3bo156bo3bo18bo3bo18bo3bo18bo3bo18bo3bo18bo3bo
18bo3bo18bo3bo18bo3bo18bo3bo156bo3bo18bo3bo18bo3bo18bo3bo18bo3bo18bo3b
o18bo3bo18bo3bo18bo3bo87bo3bo18bo3bo18bo3bo18bo3bo41bo3bo18bo3bo18bo3b
o18bo3bo18bo3bo18bo3bo18bo3bo18bo3bo179bo3bo18bo3bo18bo3bo18bo3bo18bo
3bo18bo3bo18bo3bo18bo3bo18bo3bo18bo3bo110bo3bo18bo3bo18bo3bo18bo3bo18b
o3bo18bo3bo18bo3bo18bo3bo18bo3bo110bo3bo18bo3bo18bo3bo18bo3bo18bo3bo
18bo3bo18bo3bo18bo3bo18bo3bo363bo3bo18bo3bo18bo3bo18bo3bo18bo3bo18bo3b
o18bo3bo18bo3bo41bo3bo18bo3bo18bo3bo18bo3bo156bo3bo18bo3bo18bo3bo18bo
3bo18bo3bo18bo3bo18bo3bo18bo3bo18bo3bo156bo3bo18bo3bo18bo3bo18bo3bo
110bo3bo18bo3bo18bo3bo18bo3bo156bo3bo18bo3bo18bo3bo18bo3bo18bo3bo18bo
3bo18bo3bo18bo3bo18bo3bo18bo3bo340bo3bo18bo3bo18bo3bo18bo3bo18bo3bo18b
o3bo317bo3bo18bo3bo18bo3bo18bo3bo18bo3bo18bo3bo18bo3bo18bo3bo18bo3bo
64bo3bo18bo3bo18bo3bo18bo3bo156bo3bo18bo3bo18bo3bo18bo3bo133bo3bo18bo
3bo18bo3bo70b2ob2o44bo3bo146b5o11bobo$280bo22b4o19bo22b4o19bo22b4o19bo
22b4o19bo91bo22b4o19bo22b4o42b4o19bo22b4o19bo22b4o19bo22b4o19bo183bo
22b4o19bo22b4o19bo22b4o19bo22b4o19bo22b4o111bo22b4o19bo22b4o19bo22b4o
19bo22b4o19bo114b4o19bo22b4o19bo22b4o19bo22b4o19bo22b4o364b4o19bo22b4o
19bo22b4o19bo22b4o19bo45bo22b4o19bo22b4o157bo22b4o19bo22b4o19bo22b4o
19bo22b4o19bo160b4o19bo22b4o19bo114b4o19bo22b4o19bo160b4o19bo22b4o19bo
22b4o19bo22b4o19bo22b4o19bo344b4o19bo22b4o19bo22b4o19bo321bo22b4o19bo
22b4o19bo22b4o19bo22b4o19bo68b4o19bo22b4o19bo160b4o19bo22b4o19bo137bo
22b4o19bo22b4o19bo22b4o19bo22b4o42b4o19bo22b4o19bo160b4o19bo22b4o19bo
22b4o19bo22b4o19bo22b4o157bo22b4o19bo22b4o42b4o19bo22b4o19bo22b4o19bo
22b4o19bo114b4o19bo22b4o19bo22b4o19bo22b4o19bo22b4o111bo22b4o19bo22b4o
19bo22b4o19bo22b4o19bo804b4o19bo22b4o19bo22b4o295bo22b4o134b4o19bo22b
4o19bo160b4o19bo22b4o19bo22b4o19bo22b4o19bo22b4o19bo160b4o19bo22b4o19b
o22b4o19bo22b4o19bo22b4o88b4o19bo22b4o19bo45bo22b4o19bo22b4o19bo22b4o
19bo22b4o180b4o19bo22b4o19bo22b4o19bo22b4o19bo22b4o19bo114b4o19bo22b4o
19bo22b4o19bo22b4o19bo22b4o111bo22b4o19bo22b4o19bo22b4o19bo22b4o19bo
367bo22b4o19bo22b4o19bo22b4o19bo22b4o42b4o19bo22b4o19bo160b4o19bo22b4o
19bo22b4o19bo22b4o19bo22b4o157bo22b4o19bo22b4o111bo22b4o19bo22b4o157bo
22b4o19bo22b4o19bo22b4o19bo22b4o19bo22b4o341bo22b4o19bo22b4o19bo22b4o
318b4o19bo22b4o19bo22b4o19bo22b4o19bo22b4o65bo22b4o19bo22b4o157bo22b4o
19bo22b4o134b4o19bo22b4o68bo2bo3bo2bo41bo3bo146bobo11b5o$2b2o277bo2bo
42bo2bo42bo2bo42bo2bo42bo2bo88bo2bo42bo2bo88bo2bo42bo2bo42bo2bo42bo2bo
180bo2bo42bo2bo42bo2bo42bo2bo42bo2bo134bo2bo42bo2bo42bo2bo42bo2bo42bo
2bo134bo2bo42bo2bo42bo2bo42bo2bo410bo2bo42bo2bo42bo2bo42bo2bo42bo2bo
42bo2bo180bo2bo42bo2bo42bo2bo42bo2bo42bo2bo180bo2bo42bo2bo134bo2bo42bo
2bo180bo2bo42bo2bo42bo2bo42bo2bo42bo2bo364bo2bo42bo2bo42bo2bo318bo2bo
42bo2bo42bo2bo42bo2bo42bo2bo88bo2bo42bo2bo180bo2bo42bo2bo134bo2bo42bo
2bo42bo2bo42bo2bo88bo2bo42bo2bo180bo2bo42bo2bo42bo2bo42bo2bo180bo2bo
42bo2bo88bo2bo42bo2bo42bo2bo42bo2bo134bo2bo42bo2bo42bo2bo42bo2bo134bo
2bo42bo2bo42bo2bo42bo2bo42bo2bo824bo2bo42bo2bo318bo2bo180bo2bo42bo2bo
180bo2bo42bo2bo42bo2bo42bo2bo42bo2bo180bo2bo42bo2bo42bo2bo42bo2bo134bo
2bo42bo2bo42bo2bo42bo2bo42bo2bo42bo2bo226bo2bo42bo2bo42bo2bo42bo2bo42b
o2bo134bo2bo42bo2bo42bo2bo42bo2bo134bo2bo42bo2bo42bo2bo42bo2bo42bo2bo
364bo2bo42bo2bo42bo2bo42bo2bo88bo2bo42bo2bo180bo2bo42bo2bo42bo2bo42bo
2bo180bo2bo42bo2bo134bo2bo42bo2bo180bo2bo42bo2bo42bo2bo42bo2bo42bo2bo
364bo2bo42bo2bo42bo2bo364bo2bo42bo2bo42bo2bo42bo2bo88bo2bo42bo2bo180bo
2bo42bo2bo180bo2bo91b2o5b2o17b2o176bo$bobo13601b2o23b3o4b2o$bo13602bo
32b2o36bo5bo$2o13672b3o3b3o157bo$13470b2o43b3o3b3o150bob2ob2obo158b2o$
13470b2o42bo3bobo3bo151b2ob2o159b2o$13501bo11bo3b2ob2o3bo150b2ob2o$
13501b2o10bob2o5b2obo150b2ob2o$13463b3o3b3o28bobo12bo7bo259b2ob2o$
13463bo2bobo2bo311b2ob2o$13407b2o56b2ob2o96b2o215b2ob2o$2o13405b2o157b
2o25bo187bob2ob2obo$bo13459bo11bo119b2o186b3o3b3o$bobo13458bo9bo105b2o
12bobo187bo5bo$2b2o47bo2bo226bo2bo42bo2bo88bo2bo42bo2bo88bo2bo42bo2bo
88bo2bo42bo2bo42bo2bo272bo2bo42bo2bo42bo2bo180bo2bo42bo2bo42bo2bo42bo
2bo42bo2bo180bo2bo42bo2bo502bo2bo42bo2bo88bo2bo42bo2bo226bo2bo42bo2bo
42bo2bo226bo2bo42bo2bo134bo2bo42bo2bo226bo2bo42bo2bo42bo2bo410bo2bo42b
o2bo364bo2bo42bo2bo42bo2bo42bo2bo42bo2bo88bo2bo42bo2bo180bo2bo42bo2bo
180bo2bo42bo2bo42bo2bo88bo2bo42bo2bo226bo2bo42bo2bo226bo2bo42bo2bo88bo
2bo42bo2bo42bo2bo180bo2bo42bo2bo42bo2bo42bo2bo180bo2bo42bo2bo42bo2bo
870bo2bo42bo2bo318bo2bo42bo2bo134bo2bo42bo2bo226bo2bo42bo2bo42bo2bo
226bo2bo42bo2bo42bo2bo42bo2bo42bo2bo88bo2bo42bo2bo88bo2bo42bo2bo272bo
2bo42bo2bo42bo2bo42bo2bo180bo2bo42bo2bo42bo2bo42bo2bo180bo2bo42bo2bo
42bo2bo456bo2bo42bo2bo42bo2bo88bo2bo42bo2bo226bo2bo42bo2bo226bo2bo42bo
2bo134bo2bo42bo2bo226bo2bo42bo2bo42bo2bo410bo2bo42bo2bo42bo2bo364bo2bo
42bo2bo42bo2bo42bo2bo88bo2bo42bo2bo180bo2bo42bo2bo161bobobobo44b3o60b
2o100b3o$27b4o19bo22b4o203bo22b4o19bo22b4o42b4o19bo22b4o19bo22b4o65bo
22b4o19bo22b4o65bo22b4o19bo22b4o19bo252b4o19bo22b4o19bo22b4o19bo22b4o
157bo22b4o19bo22b4o19bo22b4o19bo22b4o19bo160b4o19bo22b4o19bo22b4o456b
4o19bo22b4o19bo22b4o65bo22b4o19bo22b4o203bo22b4o19bo22b4o19bo206b4o19b
o22b4o19bo114b4o19bo22b4o19bo206b4o19bo22b4o19bo22b4o19bo390b4o19bo22b
4o19bo22b4o341bo22b4o19bo22b4o19bo22b4o19bo22b4o19bo68b4o19bo22b4o19bo
160b4o19bo22b4o19bo183bo22b4o19bo22b4o19bo68b4o19bo22b4o19bo206b4o19bo
22b4o19bo22b4o203bo22b4o19bo22b4o65bo22b4o19bo22b4o19bo160b4o19bo22b4o
19bo22b4o19bo22b4o19bo22b4o157bo22b4o19bo22b4o19bo873bo22b4o19bo22b4o
272b4o19bo22b4o19bo114b4o19bo22b4o19bo206b4o19bo22b4o19bo22b4o19bo206b
4o19bo22b4o19bo45bo22b4o19bo22b4o19bo68b4o19bo22b4o19bo68b4o19bo22b4o
19bo22b4o249bo22b4o19bo22b4o19bo22b4o19bo160b4o19bo22b4o19bo22b4o19bo
22b4o19bo22b4o157bo22b4o19bo22b4o19bo459bo22b4o19bo22b4o19bo68b4o19bo
22b4o19bo206b4o19bo22b4o19bo22b4o203bo22b4o19bo22b4o111bo22b4o19bo22b
4o203bo22b4o19bo22b4o19bo22b4o387bo22b4o19bo22b4o19bo344b4o19bo22b4o
19bo22b4o19bo22b4o19bo22b4o65bo22b4o19bo22b4o157bo22b4o19bo22b4o139bob
obobo44bobo164bo168bobo$27bo3bo18bo3bo18bo3bo202bo3bo18bo3bo18bo3bo18b
o3bo41bo3bo18bo3bo18bo3bo18bo3bo18bo3bo64bo3bo18bo3bo18bo3bo18bo3bo64b
o3bo18bo3bo18bo3bo18bo3bo18bo3bo248bo3bo18bo3bo18bo3bo18bo3bo18bo3bo
18bo3bo18bo3bo156bo3bo18bo3bo18bo3bo18bo3bo18bo3bo18bo3bo18bo3bo18bo3b
o18bo3bo156bo3bo18bo3bo18bo3bo18bo3bo18bo3bo455bo3bo18bo3bo18bo3bo18bo
3bo18bo3bo64bo3bo18bo3bo18bo3bo18bo3bo202bo3bo18bo3bo18bo3bo18bo3bo18b
o3bo202bo3bo18bo3bo18bo3bo18bo3bo110bo3bo18bo3bo18bo3bo18bo3bo202bo3bo
18bo3bo18bo3bo18bo3bo18bo3bo18bo3bo386bo3bo18bo3bo18bo3bo18bo3bo18bo3b
o340bo3bo18bo3bo18bo3bo18bo3bo18bo3bo18bo3bo18bo3bo18bo3bo18bo3bo64bo
3bo18bo3bo18bo3bo18bo3bo156bo3bo18bo3bo18bo3bo18bo3bo179bo3bo18bo3bo
18bo3bo18bo3bo18bo3bo64bo3bo18bo3bo18bo3bo18bo3bo202bo3bo18bo3bo18bo3b
o18bo3bo18bo3bo202bo3bo18bo3bo18bo3bo18bo3bo64bo3bo18bo3bo18bo3bo18bo
3bo18bo3bo156bo3bo18bo3bo18bo3bo18bo3bo18bo3bo18bo3bo18bo3bo18bo3bo18b
o3bo156bo3bo18bo3bo18bo3bo18bo3bo18bo3bo869bo3bo18bo3bo18bo3bo18bo3bo
271bo3bo18bo3bo18bo3bo18bo3bo110bo3bo18bo3bo18bo3bo18bo3bo202bo3bo18bo
3bo18bo3bo18bo3bo18bo3bo18bo3bo202bo3bo18bo3bo18bo3bo18bo3bo41bo3bo18b
o3bo18bo3bo18bo3bo18bo3bo64bo3bo18bo3bo18bo3bo18bo3bo64bo3bo18bo3bo18b
o3bo18bo3bo18bo3bo248bo3bo18bo3bo18bo3bo18bo3bo18bo3bo18bo3bo18bo3bo
156bo3bo18bo3bo18bo3bo18bo3bo18bo3bo18bo3bo18bo3bo18bo3bo18bo3bo156bo
3bo18bo3bo18bo3bo18bo3bo18bo3bo455bo3bo18bo3bo18bo3bo18bo3bo18bo3bo64b
o3bo18bo3bo18bo3bo18bo3bo202bo3bo18bo3bo18bo3bo18bo3bo18bo3bo202bo3bo
18bo3bo18bo3bo18bo3bo110bo3bo18bo3bo18bo3bo18bo3bo202bo3bo18bo3bo18bo
3bo18bo3bo18bo3bo18bo3bo386bo3bo18bo3bo18bo3bo18bo3bo18bo3bo340bo3bo
18bo3bo18bo3bo18bo3bo18bo3bo18bo3bo18bo3bo18bo3bo18bo3bo64bo3bo18bo3bo
18bo3bo18bo3bo156bo3bo18bo3bo18bo3bo18bo3bo139b2ob2o44bo3bo68bo77b5o
11bo3bo166b2o$27bo22b4o19bo206b4o19bo22b4o19bo45bo22b4o19bo22b4o19bo
68b4o19bo22b4o19bo68b4o19bo22b4o19bo22b4o249bo22b4o19bo22b4o19bo22b4o
19bo160b4o19bo22b4o19bo22b4o19bo22b4o19bo22b4o157bo22b4o19bo22b4o19bo
459bo22b4o19bo22b4o19bo68b4o19bo22b4o19bo206b4o19bo22b4o19bo22b4o203bo
22b4o19bo22b4o111bo22b4o19bo22b4o203bo22b4o19bo22b4o19bo22b4o387bo22b
4o19bo22b4o19bo344b4o19bo22b4o19bo22b4o19bo22b4o19bo22b4o65bo22b4o19bo
22b4o157bo22b4o19bo22b4o180b4o19bo22b4o19bo22b4o65bo22b4o19bo22b4o203b
o22b4o19bo22b4o19bo206b4o19bo22b4o19bo68b4o19bo22b4o19bo22b4o157bo22b
4o19bo22b4o19bo22b4o19bo22b4o19bo160b4o19bo22b4o19bo22b4o870b4o19bo22b
4o19bo275bo22b4o19bo22b4o111bo22b4o19bo22b4o203bo22b4o19bo22b4o19bo22b
4o203bo22b4o19bo22b4o42b4o19bo22b4o19bo22b4o65bo22b4o19bo22b4o65bo22b
4o19bo22b4o19bo252b4o19bo22b4o19bo22b4o19bo22b4o157bo22b4o19bo22b4o19b
o22b4o19bo22b4o19bo160b4o19bo22b4o19bo22b4o456b4o19bo22b4o19bo22b4o65b
o22b4o19bo22b4o203bo22b4o19bo22b4o19bo206b4o19bo22b4o19bo114b4o19bo22b
4o19bo206b4o19bo22b4o19bo22b4o19bo390b4o19bo22b4o19bo22b4o341bo22b4o
19bo22b4o19bo22b4o19bo22b4o19bo68b4o19bo22b4o19bo160b4o19bo22b4o19bo
140bo2bo3bo2bo41bo3bo69b2o75bobo11bo5b2o165bo$2b2o24bo2bo42bo2bo226bo
2bo42bo2bo42bo2bo42bo2bo42bo2bo88bo2bo42bo2bo88bo2bo42bo2bo272bo2bo42b
o2bo42bo2bo42bo2bo180bo2bo42bo2bo42bo2bo42bo2bo180bo2bo42bo2bo42bo2bo
456bo2bo42bo2bo42bo2bo88bo2bo42bo2bo226bo2bo42bo2bo226bo2bo42bo2bo134b
o2bo42bo2bo226bo2bo42bo2bo42bo2bo410bo2bo42bo2bo42bo2bo364bo2bo42bo2bo
42bo2bo42bo2bo88bo2bo42bo2bo180bo2bo42bo2bo226bo2bo42bo2bo88bo2bo42bo
2bo226bo2bo42bo2bo42bo2bo226bo2bo42bo2bo88bo2bo42bo2bo180bo2bo42bo2bo
42bo2bo42bo2bo42bo2bo180bo2bo42bo2bo916bo2bo42bo2bo272bo2bo42bo2bo134b
o2bo42bo2bo226bo2bo42bo2bo42bo2bo226bo2bo42bo2bo88bo2bo42bo2bo88bo2bo
42bo2bo88bo2bo42bo2bo42bo2bo272bo2bo42bo2bo42bo2bo180bo2bo42bo2bo42bo
2bo42bo2bo42bo2bo180bo2bo42bo2bo502bo2bo42bo2bo88bo2bo42bo2bo226bo2bo
42bo2bo42bo2bo226bo2bo42bo2bo134bo2bo42bo2bo226bo2bo42bo2bo42bo2bo410b
o2bo42bo2bo364bo2bo42bo2bo42bo2bo42bo2bo42bo2bo88bo2bo42bo2bo180bo2bo
42bo2bo137b2o5b2o17b2o96b2o78bo16bobo$bobo13486b2o23b3o4b2o$bo13487bo
32b2o36bo5bo10b2o$2o13557b3o3b3o8bobo$13355b2o43b3o3b3o150bob2ob2obo
10bo209b2o$13355b2o42bo3bobo3bo151b2ob2o15b2o205b2o$13398bo3b2ob2o3bo
150b2ob2o16b2o$13398bob2o5b2obo150b2ob2o15bo$13348b3o3b3o43bo7bo259b2o
b2o$13348bo2bobo2bo311b2ob2o$13292b2o56b2ob2o96b2o145bobo67b2ob2o21b2o
$2o13290b2o157b2o25bo120b2o65bob2ob2obo19bobo$bo13344bo11bo119b2o119bo
66b3o3b3o19bo$bobo13343bo9bo105b2o12bobo187bo5bo$2b2o1404bo2bo42bo2bo
962bo2bo42bo2bo502bo2bo42bo2bo134bo2bo42bo2bo732bo2bo42bo2bo226bo2bo
42bo2bo180bo2bo42bo2bo778bo2bo42bo2bo962bo2bo42bo2bo1238bo2bo42bo2bo
272bo2bo42bo2bo1836bo2bo42bo2bo962bo2bo42bo2bo548bo2bo42bo2bo134bo2bo
42bo2bo732bo2bo42bo2bo180bo2bo42bo2bo180bo2bo42bo2bo483bobobobo44b3o
60b2o100b3o$1384b4o19bo22b4o19bo942b4o19bo22b4o19bo505bo22b4o19bo22b4o
111bo22b4o19bo22b4o709bo22b4o19bo22b4o180b4o19bo22b4o19bo160b4o19bo22b
4o19bo781bo22b4o19bo22b4o939bo22b4o19bo22b4o1192b4o19bo22b4o19bo22b4o
226b4o19bo22b4o19bo22b4o1813bo22b4o19bo22b4o939bo22b4o19bo22b4o502b4o
19bo22b4o19bo114b4o19bo22b4o19bo712b4o19bo22b4o19bo183bo22b4o19bo22b4o
157bo22b4o19bo22b4o461bobobobo44bobo164bo168bobo$1384bo3bo18bo3bo18bo
3bo18bo3bo938bo3bo18bo3bo18bo3bo18bo3bo501bo3bo18bo3bo18bo3bo18bo3bo
110bo3bo18bo3bo18bo3bo18bo3bo708bo3bo18bo3bo18bo3bo18bo3bo179bo3bo18bo
3bo18bo3bo18bo3bo156bo3bo18bo3bo18bo3bo18bo3bo777bo3bo18bo3bo18bo3bo
18bo3bo938bo3bo18bo3bo18bo3bo18bo3bo1191bo3bo18bo3bo18bo3bo18bo3bo18bo
3bo225bo3bo18bo3bo18bo3bo18bo3bo18bo3bo1812bo3bo18bo3bo18bo3bo18bo3bo
938bo3bo18bo3bo18bo3bo18bo3bo501bo3bo18bo3bo18bo3bo18bo3bo110bo3bo18bo
3bo18bo3bo18bo3bo708bo3bo18bo3bo18bo3bo18bo3bo179bo3bo18bo3bo18bo3bo
18bo3bo156bo3bo18bo3bo18bo3bo18bo3bo461b2ob2o44bo3bo68bo77b5o11bo3bo
166b2o$1384bo22b4o19bo22b4o939bo22b4o19bo22b4o502b4o19bo22b4o19bo114b
4o19bo22b4o19bo712b4o19bo22b4o19bo183bo22b4o19bo22b4o157bo22b4o19bo22b
4o778b4o19bo22b4o19bo942b4o19bo22b4o19bo1195bo22b4o19bo22b4o19bo229bo
22b4o19bo22b4o19bo1816b4o19bo22b4o19bo942b4o19bo22b4o19bo505bo22b4o19b
o22b4o111bo22b4o19bo22b4o709bo22b4o19bo22b4o180b4o19bo22b4o19bo160b4o
19bo22b4o19bo462bo2bo3bo2bo41bo3bo69b2o75bobo11bo5b2o165bo$2b2o1381bo
2bo42bo2bo962bo2bo42bo2bo548bo2bo42bo2bo134bo2bo42bo2bo732bo2bo42bo2bo
180bo2bo42bo2bo180bo2bo42bo2bo824bo2bo42bo2bo962bo2bo42bo2bo1192bo2bo
42bo2bo42bo2bo226bo2bo42bo2bo42bo2bo1836bo2bo42bo2bo962bo2bo42bo2bo
502bo2bo42bo2bo134bo2bo42bo2bo732bo2bo42bo2bo226bo2bo42bo2bo180bo2bo
42bo2bo459b2o5b2o115b2o78bo16bobo$bobo13396b3o4b2o$bo13405b2o36bo5bo
10b2o$2o13442b3o3b3o8bobo146bo$13240b2o43b3o3b3o150bob2ob2obo10bo147b
2o60b2o30b3o$13240b2o42bo3bobo3bo151b2ob2o15b2o142b2o61b2o30bo$13283bo
3b2ob2o3bo150b2ob2o16b2o237bo$13283bob2o5b2obo150b2ob2o15bo$13233b3o3b
3o43bo7bo259b2ob2o190bo$13233bo2bobo2bo311b2ob2o191b2o$13177b2o56b2ob
2o96b2o145bobo67b2ob2o190b2o$2o13175b2o157b2o146b2o65bob2ob2obo$bo
13229bo11bo240bo66b3o3b3o$bobo13228bo9bo105b2o202bo5bo$2b2o1381bo2bo
42bo2bo962bo2bo42bo2bo548bo2bo42bo2bo134bo2bo42bo2bo732bo2bo42bo2bo
180bo2bo42bo2bo180bo2bo42bo2bo824bo2bo42bo2bo962bo2bo42bo2bo1238bo2bo
42bo2bo42bo2bo180bo2bo42bo2bo1882bo2bo42bo2bo962bo2bo42bo2bo502bo2bo
42bo2bo134bo2bo42bo2bo732bo2bo42bo2bo42bo2bo134bo2bo42bo2bo42bo2bo180b
o2bo42bo2bo345bobobobo44b3o60b2o100b3o$1384bo22b4o19bo22b4o939bo22b4o
19bo22b4o502b4o19bo22b4o19bo114b4o19bo22b4o19bo712b4o19bo22b4o19bo22b
4o134b4o19bo22b4o19bo22b4o157bo22b4o19bo22b4o778b4o19bo22b4o19bo942b4o
19bo22b4o19bo1218b4o19bo22b4o19bo22b4o19bo160b4o19bo22b4o19bo22b4o
1836b4o19bo22b4o19bo942b4o19bo22b4o19bo505bo22b4o19bo22b4o111bo22b4o
19bo22b4o709bo22b4o19bo22b4o19bo137bo22b4o19bo22b4o19bo160b4o19bo22b4o
19bo349bobobobo44bobo164bo168bobo93b2o$1384bo3bo18bo3bo18bo3bo18bo3bo
938bo3bo18bo3bo18bo3bo18bo3bo501bo3bo18bo3bo18bo3bo18bo3bo110bo3bo18bo
3bo18bo3bo18bo3bo708bo3bo18bo3bo18bo3bo18bo3bo18bo3bo133bo3bo18bo3bo
18bo3bo18bo3bo18bo3bo156bo3bo18bo3bo18bo3bo18bo3bo777bo3bo18bo3bo18bo
3bo18bo3bo938bo3bo18bo3bo18bo3bo18bo3bo1214bo3bo18bo3bo18bo3bo18bo3bo
18bo3bo18bo3bo156bo3bo18bo3bo18bo3bo18bo3bo18bo3bo1835bo3bo18bo3bo18bo
3bo18bo3bo938bo3bo18bo3bo18bo3bo18bo3bo501bo3bo18bo3bo18bo3bo18bo3bo
110bo3bo18bo3bo18bo3bo18bo3bo708bo3bo18bo3bo18bo3bo18bo3bo18bo3bo133bo
3bo18bo3bo18bo3bo18bo3bo18bo3bo156bo3bo18bo3bo18bo3bo18bo3bo346b2ob2o
44bo3bo146b5o11bo3bo166b2o93bobo$1384b4o19bo22b4o19bo942b4o19bo22b4o
19bo505bo22b4o19bo22b4o111bo22b4o19bo22b4o709bo22b4o19bo22b4o19bo137bo
22b4o19bo22b4o19bo160b4o19bo22b4o19bo781bo22b4o19bo22b4o939bo22b4o19bo
22b4o1215bo22b4o19bo22b4o19bo22b4o157bo22b4o19bo22b4o19bo1839bo22b4o
19bo22b4o939bo22b4o19bo22b4o502b4o19bo22b4o19bo114b4o19bo22b4o19bo712b
4o19bo22b4o19bo22b4o134b4o19bo22b4o19bo22b4o157bo22b4o19bo22b4o344bo2b
o3bo2bo41bo3bo146bobo11bo5b2o165bo94bo$2b2o1404bo2bo42bo2bo962bo2bo42b
o2bo502bo2bo42bo2bo134bo2bo42bo2bo732bo2bo42bo2bo42bo2bo134bo2bo42bo2b
o42bo2bo180bo2bo42bo2bo778bo2bo42bo2bo962bo2bo42bo2bo1238bo2bo42bo2bo
42bo2bo180bo2bo42bo2bo42bo2bo1836bo2bo42bo2bo962bo2bo42bo2bo548bo2bo
42bo2bo134bo2bo42bo2bo732bo2bo42bo2bo180bo2bo42bo2bo180bo2bo42bo2bo
367b2o5b2o195bo16bobo$bobo13281b3o4b2o$bo13290b2o36bo5bo422bobo93b2o$
2o13327b3o3b3o157bo264b2o93bobo$13125b2o43b3o3b3o150bob2ob2obo158b2o
60b2o200bo94bo$13125b2o42bo3bobo3bo151b2ob2o159b2o61b2o$13168bo3b2ob2o
3bo150b2ob2o$13168bob2o5b2obo150b2ob2o$13118b3o3b3o43bo7bo259b2ob2o
190bo$13118bo2bobo2bo311b2ob2o191b2o92b3o$13062b2o56b2ob2o96b2o215b2ob
2o190b2o93bo$2o13060b2o157b2o213bob2ob2obo284bo$bo13114bo11bo307b3o3b
3o$bobo13113bo9bo105b2o202bo5bo327bo$2b2o1404bo2bo42bo2bo962bo2bo42bo
2bo502bo2bo42bo2bo134bo2bo42bo2bo778bo2bo42bo2bo42bo2bo42bo2bo42bo2bo
42bo2bo226bo2bo42bo2bo778bo2bo42bo2bo962bo2bo42bo2bo1238bo2bo42bo2bo
42bo2bo42bo2bo42bo2bo42bo2bo42bo2bo42bo2bo42bo2bo1836bo2bo42bo2bo962bo
2bo42bo2bo548bo2bo42bo2bo134bo2bo42bo2bo732bo2bo42bo2bo42bo2bo42bo2bo
42bo2bo42bo2bo42bo2bo180bo2bo42bo2bo253bobobobo44b3o60b2o100b3o434b2o
92b3o$1384b4o19bo22b4o19bo942b4o19bo22b4o19bo505bo22b4o19bo22b4o111bo
22b4o19bo22b4o732b4o19bo22b4o19bo22b4o19bo22b4o19bo22b4o19bo22b4o19bo
22b4o180b4o19bo22b4o19bo781bo22b4o19bo22b4o939bo22b4o19bo22b4o1215bo
22b4o19bo22b4o19bo22b4o19bo22b4o19bo22b4o19bo22b4o19bo22b4o19bo22b4o
19bo1839bo22b4o19bo22b4o939bo22b4o19bo22b4o502b4o19bo22b4o19bo114b4o
19bo22b4o19bo735bo22b4o19bo22b4o19bo22b4o19bo22b4o19bo22b4o19bo22b4o
19bo183bo22b4o19bo22b4o231bobobobo44bobo164bo168bobo262b2o93bo$1384bo
3bo18bo3bo18bo3bo18bo3bo938bo3bo18bo3bo18bo3bo18bo3bo501bo3bo18bo3bo
18bo3bo18bo3bo110bo3bo18bo3bo18bo3bo18bo3bo731bo3bo18bo3bo18bo3bo18bo
3bo18bo3bo18bo3bo18bo3bo18bo3bo18bo3bo18bo3bo18bo3bo18bo3bo18bo3bo179b
o3bo18bo3bo18bo3bo18bo3bo777bo3bo18bo3bo18bo3bo18bo3bo938bo3bo18bo3bo
18bo3bo18bo3bo1214bo3bo18bo3bo18bo3bo18bo3bo18bo3bo18bo3bo18bo3bo18bo
3bo18bo3bo18bo3bo18bo3bo18bo3bo18bo3bo18bo3bo18bo3bo18bo3bo18bo3bo
1835bo3bo18bo3bo18bo3bo18bo3bo938bo3bo18bo3bo18bo3bo18bo3bo501bo3bo18b
o3bo18bo3bo18bo3bo110bo3bo18bo3bo18bo3bo18bo3bo731bo3bo18bo3bo18bo3bo
18bo3bo18bo3bo18bo3bo18bo3bo18bo3bo18bo3bo18bo3bo18bo3bo18bo3bo18bo3bo
179bo3bo18bo3bo18bo3bo18bo3bo231b2ob2o44bo3bo146b5o11bo3bo166b2o358bo$
1384bo22b4o19bo22b4o939bo22b4o19bo22b4o502b4o19bo22b4o19bo114b4o19bo
22b4o19bo735bo22b4o19bo22b4o19bo22b4o19bo22b4o19bo22b4o19bo22b4o19bo
183bo22b4o19bo22b4o778b4o19bo22b4o19bo942b4o19bo22b4o19bo1218b4o19bo
22b4o19bo22b4o19bo22b4o19bo22b4o19bo22b4o19bo22b4o19bo22b4o19bo22b4o
1836b4o19bo22b4o19bo942b4o19bo22b4o19bo505bo22b4o19bo22b4o111bo22b4o
19bo22b4o732b4o19bo22b4o19bo22b4o19bo22b4o19bo22b4o19bo22b4o19bo22b4o
180b4o19bo22b4o19bo232bo2bo3bo2bo41bo3bo146bobo11bo5b2o165bo$2b2o1381b
o2bo42bo2bo962bo2bo42bo2bo548bo2bo42bo2bo134bo2bo42bo2bo732bo2bo42bo2b
o42bo2bo42bo2bo42bo2bo42bo2bo42bo2bo180bo2bo42bo2bo824bo2bo42bo2bo962b
o2bo42bo2bo1238bo2bo42bo2bo42bo2bo42bo2bo42bo2bo42bo2bo42bo2bo42bo2bo
1882bo2bo42bo2bo962bo2bo42bo2bo502bo2bo42bo2bo134bo2bo42bo2bo778bo2bo
42bo2bo42bo2bo42bo2bo42bo2bo42bo2bo226bo2bo42bo2bo229b2o5b2o195bo16bob
o567bo$bobo13166b3o4b2o731b2o$bo13175b2o36bo5bo422bobo262b2o$2o13212b
3o3b3o422b2o$13010b2o43b3o3b3o150bob2ob2obo220b2o30b3o167bo$13010b2o
42bo3bobo3bo151b2ob2o222b2o30bo$13053bo3b2ob2o3bo150b2ob2o255bo$13053b
ob2o5b2obo150b2ob2o561bobo93b2o$13003b3o3b3o43bo7bo259b2ob2o190bo264b
2o93bobo$13003bo2bobo2bo311b2ob2o191b2o262bo94bo$12947b2o56b2ob2o96b2o
215b2ob2o21b2o167b2o$2o12945b2o157b2o213bob2ob2obo19bobo$bo12999bo11bo
307b3o3b3o19bo570bobo$bobo12998bo9bo105b2o202bo5bo327bo264b2o$2b2o
1427bo2bo962bo2bo42bo2bo548bo2bo42bo2bo134bo2bo42bo2bo732bo2bo42bo2bo
42bo2bo42bo2bo42bo2bo42bo2bo42bo2bo226bo2bo824bo2bo42bo2bo962bo2bo42bo
2bo1238bo2bo42bo2bo42bo2bo42bo2bo42bo2bo42bo2bo42bo2bo42bo2bo180bo2bo
42bo2bo1652bo2bo42bo2bo962bo2bo42bo2bo502bo2bo42bo2bo134bo2bo42bo2bo
778bo2bo42bo2bo42bo2bo42bo2bo42bo2bo42bo2bo226bo2bo42bo2bo115bobobobo
44b3o60b2o537b2o262bo$1407b4o19bo22b4o939bo22b4o19bo22b4o502b4o19bo22b
4o19bo114b4o19bo22b4o19bo735bo22b4o19bo22b4o19bo22b4o19bo22b4o19bo22b
4o19bo22b4o19bo206b4o19bo22b4o778b4o19bo22b4o19bo965bo22b4o19bo1241bo
22b4o19bo22b4o19bo22b4o19bo22b4o19bo22b4o19bo22b4o19bo22b4o19bo160b4o
19bo22b4o19bo1655bo22b4o19bo942b4o19bo22b4o19bo505bo22b4o19bo22b4o111b
o22b4o19bo22b4o732b4o19bo22b4o19bo22b4o19bo22b4o19bo22b4o19bo22b4o19bo
22b4o203bo22b4o19bo119bobobobo44bobo163bo265b2o167b2o$1407bo3bo18bo3bo
18bo3bo938bo3bo18bo3bo18bo3bo18bo3bo501bo3bo18bo3bo18bo3bo18bo3bo110bo
3bo18bo3bo18bo3bo18bo3bo731bo3bo18bo3bo18bo3bo18bo3bo18bo3bo18bo3bo18b
o3bo18bo3bo18bo3bo18bo3bo18bo3bo18bo3bo18bo3bo202bo3bo18bo3bo18bo3bo
777bo3bo18bo3bo18bo3bo18bo3bo961bo3bo18bo3bo18bo3bo1237bo3bo18bo3bo18b
o3bo18bo3bo18bo3bo18bo3bo18bo3bo18bo3bo18bo3bo18bo3bo18bo3bo18bo3bo18b
o3bo18bo3bo18bo3bo156bo3bo18bo3bo18bo3bo18bo3bo1651bo3bo18bo3bo18bo3bo
938bo3bo18bo3bo18bo3bo18bo3bo501bo3bo18bo3bo18bo3bo18bo3bo110bo3bo18bo
3bo18bo3bo18bo3bo731bo3bo18bo3bo18bo3bo18bo3bo18bo3bo18bo3bo18bo3bo18b
o3bo18bo3bo18bo3bo18bo3bo18bo3bo18bo3bo202bo3bo18bo3bo18bo3bo116b2ob2o
44bo3bo146b5o11bobo263bobo$1407bo22b4o19bo942b4o19bo22b4o19bo505bo22b
4o19bo22b4o111bo22b4o19bo22b4o732b4o19bo22b4o19bo22b4o19bo22b4o19bo22b
4o19bo22b4o19bo22b4o203bo22b4o19bo781bo22b4o19bo22b4o962b4o19bo22b4o
1238b4o19bo22b4o19bo22b4o19bo22b4o19bo22b4o19bo22b4o19bo22b4o19bo22b4o
157bo22b4o19bo22b4o1652b4o19bo22b4o939bo22b4o19bo22b4o502b4o19bo22b4o
19bo114b4o19bo22b4o19bo735bo22b4o19bo22b4o19bo22b4o19bo22b4o19bo22b4o
19bo22b4o19bo206b4o19bo22b4o114bo2bo3bo2bo41bo3bo146bobo11b5o263bo$2b
2o1404bo2bo42bo2bo962bo2bo42bo2bo502bo2bo42bo2bo134bo2bo42bo2bo778bo2b
o42bo2bo42bo2bo42bo2bo42bo2bo42bo2bo226bo2bo42bo2bo778bo2bo42bo2bo
1008bo2bo1284bo2bo42bo2bo42bo2bo42bo2bo42bo2bo42bo2bo42bo2bo180bo2bo
42bo2bo1698bo2bo962bo2bo42bo2bo548bo2bo42bo2bo134bo2bo42bo2bo732bo2bo
42bo2bo42bo2bo42bo2bo42bo2bo42bo2bo42bo2bo226bo2bo137b2o5b2o195bo586bo
$bobo13051b3o4b2o731b2o$bo13060b2o36bo5bo422bobo262b2o$2o13097b3o3b3o
422b2o$12895b2o43b3o3b3o150bob2ob2obo220b2o30b3o167bo$12895b2o42bo3bob
o3bo151b2ob2o222b2o30bo571bo$12938bo3b2ob2o3bo150b2ob2o255bo571b2o$
12938bob2o5b2obo150b2ob2o561bobo262b2o$12888b3o3b3o43bo7bo259b2ob2o
455b2o$12888bo2bobo2bo311b2ob2o285b3o167bo$12832b2o56b2ob2o96b2o215b2o
b2o285bo$2o12830b2o157b2o213bob2ob2obo284bo$bo12884bo11bo307b3o3b3o$bo
bo12883bo9bo105b2o202bo5bo$2b2o1450bo2bo962bo2bo42bo2bo502bo2bo42bo2bo
134bo2bo42bo2bo778bo2bo42bo2bo42bo2bo42bo2bo42bo2bo42bo2bo272bo2bo778b
o2bo42bo2bo2342bo2bo42bo2bo42bo2bo42bo2bo42bo2bo42bo2bo180bo2bo42bo2bo
2664bo2bo42bo2bo548bo2bo42bo2bo134bo2bo42bo2bo778bo2bo42bo2bo42bo2bo
42bo2bo42bo2bo299bobobobo44b3o60b2o631b3o$1453bo942b4o19bo22b4o19bo
505bo22b4o19bo22b4o111bo22b4o19bo22b4o755bo22b4o19bo22b4o19bo22b4o19bo
22b4o19bo22b4o19bo275bo781bo22b4o19bo22b4o1008b4o1284b4o19bo22b4o19bo
22b4o19bo22b4o19bo22b4o19bo22b4o19bo183bo22b4o19bo22b4o1698b4o939bo22b
4o19bo22b4o502b4o19bo22b4o19bo114b4o19bo22b4o19bo758b4o19bo22b4o19bo
22b4o19bo22b4o19bo22b4o19bo22b4o277bobobobo44bobo163bo265b2o262bo$
1453bo3bo938bo3bo18bo3bo18bo3bo18bo3bo501bo3bo18bo3bo18bo3bo18bo3bo
110bo3bo18bo3bo18bo3bo18bo3bo754bo3bo18bo3bo18bo3bo18bo3bo18bo3bo18bo
3bo18bo3bo18bo3bo18bo3bo18bo3bo18bo3bo271bo3bo777bo3bo18bo3bo18bo3bo
18bo3bo1007bo3bo1283bo3bo18bo3bo18bo3bo18bo3bo18bo3bo18bo3bo18bo3bo18b
o3bo18bo3bo18bo3bo18bo3bo18bo3bo179bo3bo18bo3bo18bo3bo18bo3bo1697bo3bo
938bo3bo18bo3bo18bo3bo18bo3bo501bo3bo18bo3bo18bo3bo18bo3bo110bo3bo18bo
3bo18bo3bo18bo3bo754bo3bo18bo3bo18bo3bo18bo3bo18bo3bo18bo3bo18bo3bo18b
o3bo18bo3bo18bo3bo18bo3bo277b2ob2o44bo3bo146b5o11bobo263bobo262bo$
1453b4o939bo22b4o19bo22b4o502b4o19bo22b4o19bo114b4o19bo22b4o19bo758b4o
19bo22b4o19bo22b4o19bo22b4o19bo22b4o19bo22b4o272b4o778b4o19bo22b4o19bo
1011bo1287bo22b4o19bo22b4o19bo22b4o19bo22b4o19bo22b4o19bo22b4o180b4o
19bo22b4o19bo1701bo942b4o19bo22b4o19bo505bo22b4o19bo22b4o111bo22b4o19b
o22b4o755bo22b4o19bo22b4o19bo22b4o19bo22b4o19bo22b4o19bo278bo2bo3bo2bo
41bo3bo146bobo11b5o263bo570bobo$2b2o2393bo2bo42bo2bo548bo2bo42bo2bo
134bo2bo42bo2bo778bo2bo42bo2bo42bo2bo42bo2bo42bo2bo1100bo2bo42bo2bo
1008bo2bo1284bo2bo42bo2bo42bo2bo42bo2bo42bo2bo42bo2bo226bo2bo42bo2bo
1698bo2bo962bo2bo42bo2bo502bo2bo42bo2bo134bo2bo42bo2bo778bo2bo42bo2bo
42bo2bo42bo2bo42bo2bo42bo2bo275b2o5b2o195bo586bo264b2o$bobo12936b3o4b
2o731b2o92b3o167bo$bo12945b2o36bo5bo518b2o167b2o93bo$2o12982b3o3b3o
517bobo262bo$12780b2o43b3o3b3o150bob2ob2obo220b2o295bo$12780b2o42bo3bo
bo3bo151b2ob2o222b2o$12823bo3b2ob2o3bo150b2ob2o$12823bob2o5b2obo150b2o
b2o657b2o$12773b3o3b3o43bo7bo259b2ob2o550bobo$12773bo2bobo2bo311b2ob2o
285b3o262bo$12717b2o56b2ob2o96b2o215b2ob2o285bo571bo$2o12715b2o157b2o
213bob2ob2obo284bo571b2o$bo12769bo11bo307b3o3b3o590bobo93b2o167b2o$bob
o12768bo9bo105b2o202bo5bo327bo264b2o93bobo$2b2o2393bo2bo42bo2bo548bo2b
o42bo2bo134bo2bo42bo2bo824bo2bo42bo2bo42bo2bo1146bo2bo42bo2bo2342bo2bo
42bo2bo42bo2bo42bo2bo272bo2bo42bo2bo2664bo2bo42bo2bo502bo2bo42bo2bo
134bo2bo42bo2bo824bo2bo42bo2bo42bo2bo42bo2bo207bobobobo44b3o60b2o537b
2o262bo94bo$2396bo22b4o19bo22b4o502b4o19bo22b4o19bo114b4o19bo22b4o19bo
804b4o19bo22b4o19bo22b4o19bo22b4o1100b4o19bo22b4o19bo2345bo22b4o19bo
22b4o19bo22b4o19bo252b4o19bo22b4o19bo2644b4o19bo22b4o19bo505bo22b4o19b
o22b4o111bo22b4o19bo22b4o801bo22b4o19bo22b4o19bo22b4o19bo211bobobobo
44bobo163bo434b2o$2396bo3bo18bo3bo18bo3bo18bo3bo501bo3bo18bo3bo18bo3bo
18bo3bo110bo3bo18bo3bo18bo3bo18bo3bo800bo3bo18bo3bo18bo3bo18bo3bo18bo
3bo18bo3bo18bo3bo1099bo3bo18bo3bo18bo3bo18bo3bo2341bo3bo18bo3bo18bo3bo
18bo3bo18bo3bo18bo3bo18bo3bo248bo3bo18bo3bo18bo3bo18bo3bo2640bo3bo18bo
3bo18bo3bo18bo3bo501bo3bo18bo3bo18bo3bo18bo3bo110bo3bo18bo3bo18bo3bo
18bo3bo800bo3bo18bo3bo18bo3bo18bo3bo18bo3bo18bo3bo18bo3bo208b2ob2o44bo
3bo146b5o11bobo$2396b4o19bo22b4o19bo505bo22b4o19bo22b4o111bo22b4o19bo
22b4o801bo22b4o19bo22b4o19bo22b4o19bo1103bo22b4o19bo22b4o2342b4o19bo
22b4o19bo22b4o19bo22b4o249bo22b4o19bo22b4o2641bo22b4o19bo22b4o502b4o
19bo22b4o19bo114b4o19bo22b4o19bo804b4o19bo22b4o19bo22b4o19bo22b4o206bo
2bo3bo2bo41bo3bo146bobo11b5o$2b2o2416bo2bo42bo2bo502bo2bo42bo2bo134bo
2bo42bo2bo824bo2bo42bo2bo42bo2bo42bo2bo1100bo2bo42bo2bo2388bo2bo42bo2b
o42bo2bo272bo2bo42bo2bo2664bo2bo42bo2bo548bo2bo42bo2bo134bo2bo42bo2bo
824bo2bo42bo2bo42bo2bo229b2o5b2o195bo$bobo12821b3o4b2o825b3o$bo12830b
2o36bo5bo782bo$2o12867b3o3b3o782bo$12665b2o43b3o3b3o150bob2ob2obo220b
2o$12665b2o42bo3bobo3bo151b2ob2o222b2o602bo$12708bo3b2ob2o3bo150b2ob2o
827b2o92b3o$12708bob2o5b2obo150b2ob2o561bobo262b2o93bo$12658b3o3b3o43b
o7bo259b2ob2o455b2o358bo$12658bo2bobo2bo311b2ob2o455bo$12602b2o56b2ob
2o96b2o215b2ob2o857bo$2o12600b2o157b2o25bo187bob2ob2obo856b2o92b3o$bo
12654bo11bo119b2o186b3o3b3o686b2o167b2o93bo$bobo12653bo9bo105b2o12bobo
187bo5bo687bobo262bo$2b2o12655bobobobo44b3o60b2o896bo$12659bobobobo44b
obo163bo$12660b2ob2o44bo3bo68bo77b5o11bobo$12657bo2bo3bo2bo41bo3bo69b
2o75bobo11b5o930b2o$2b2o12654b2o5b2o115b2o78bo586bo359bobo$bobo12706b
3o4b2o731b2o357bo$bo12715b2o36bo5bo687b2o$2o12752b3o3b3o$12550b2o43b3o
3b3o150bob2ob2obo220b2o866bobo93b2o$12550b2o42bo3bobo3bo151b2ob2o222b
2o867b2o93bobo$12593bo3b2ob2o3bo150b2ob2o921b3o167bo94bo$12593bob2o5b
2obo150b2ob2o657b2o262bo$12543b3o3b3o43bo7bo259b2ob2o550bobo262bo$
12543bo2bobo2bo311b2ob2o550bo$12487b2o56b2ob2o96b2o215b2ob2o$2o12485b
2o157b2o213bob2ob2obo950b3o$bo12539bo11bo307b3o3b3o590bobo357bo$bobo
12538bo9bo105b2o202bo5bo592b2o358bo$2b2o12540bobobobo44b3o60b2o801bo$
12544bobobobo44bobo163bo1101bo$12545b2ob2o44bo3bo146b5o11bobo1100b2o
92b3o$12542bo2bo3bo2bo41bo3bo146bobo11b5o834bobo93b2o167b2o93bo$2b2o
12539b2o5b2o195bo851b2o93bobo262bo$bobo12591b3o4b2o825b3o167bo94bo$bo
12600b2o36bo5bo782bo$2o12637b3o3b3o782bo$12435b2o43b3o3b3o150bob2ob2ob
o220b2o$12435b2o42bo3bobo3bo151b2ob2o222b2o$12478bo3b2ob2o3bo150b2ob2o
$12478bob2o5b2obo150b2ob2o$12428b3o3b3o43bo7bo259b2ob2o$12428bo2bobo2b
o311b2ob2o1121bobo93b2o$12430b2ob2o96b2o215b2ob2o857bo264b2o93bobo$2o
12529b2o213bob2ob2obo856b2o92b3o167bo94bo$bo12424bo11bo307b3o3b3o686b
2o167b2o93bo$bobo12423bo9bo105b2o202bo5bo687bobo262bo$2b2o12425bobobob
o44b3o60b2o896bo$12429bobobobo44bobo163bo$12430b2ob2o44bo3bo146b5o11bo
bo$12427bo2bo3bo2bo41bo3bo146bobo11b5o$12428b2o5b2o195bo$12480b3o4b2o$
12487b2o36bo5bo422bobo929bo$12524b3o3b3o422b2o930b2o92b3o$12524bob2ob
2obo220b2o200bo665bobo93b2o167b2o93bo$12526b2ob2o222b2o867b2o93bobo
262bo$12526b2ob2o921b3o167bo94bo$12526b2ob2o921bo571bo$12633b2ob2o815b
o571b2o$12633b2ob2o1386b2o$12416b2o215b2ob2o$12416b2o213bob2ob2obo950b
3o$12631b3o3b3o950bo$12428b2o202bo5bo327bo624bo$12428b2o537b2o$12531bo
434b2o665bo$12515b5o11bobo1100b2o92b3o$12515bobo11b5o1099b2o93bo$
12517bo1211bo$14035bobo$12410bo5bo1354bo264b2o$12409b3o3b3o1354b2o262b
o$12409bob2ob2obo220b2o962b2o167b2o$12411b2ob2o222b2o962bobo$12411b2ob
2o1186bo$12411b2ob2o561bobo$12518b2ob2o455b2o$12518b2ob2o455bo761b2o$
12518b2ob2o1217bobo$12516bob2ob2obo1215bo$12516b3o3b3o1522bo$12517bo5b
o1524b2o$13782bobo93b2o167b2o$12416bo1366b2o93bobo$12400b5o11bobo1194b
3o167bo94bo$12400bobo11b5o1194bo$12402bo1211bo3$13751b3o$12523b2o1226b
o$12523b2o602bo624bo$13128b2o928bobo$13127b2o665bo264b2o$12403b2ob2o
1387b2o92b3o167bo$12403b2ob2o1217b2o167b2o93bo$12403b2ob2o1217bobo262b
o$12401bob2ob2obo950b3o262bo$12401b3o3b3o950bo$12402bo5bo952bo4$13138b
obo929bo$13139b2o930b2o$13139bo665bobo93b2o167b2o$13541bo264b2o93bobo$
13542b2o92b3o167bo94bo$12408b2o962b2o167b2o93bo$12408b2o962bobo262bo$
13372bo570bobo$13944b2o$13944bo2$13150bo$13151b2o$13150b2o$13912b3o$
13552bobo93b2o262bo$13553b2o93bobo262bo$13383b3o167bo94bo$13383bo571bo
$13384bo571b2o92b3o$13955b2o93bo$14051bo2$13161bobo$13162b2o$13162bo
761b2o$13564bo359bobo$13565b2o92b3o262bo$13299bobo93b2o167b2o93bo$
13300b2o93bobo262bo$13300bo94bo570bobo93b2o$12770bobo1194b2o93bobo$
12771b2o1194bo94bo$12771bo4$13935b3o$13575bobo93b2o262bo$13311bo264b2o
93bobo262bo$13312b2o262bo94bo$13311b2o665bo$12782bo1196b2o92b3o$12783b
2o928bobo262b2o93bo$12782b2o930b2o358bo$13714bo$14116bo$12920bo1196b2o
$12921b2o1193b2o$12920b2o$13682b3o$13322bobo357bo$13323b2o358bo$13323b
o761b2o$12793bobo929bo359bobo$12794b2o930b2o92b3o262bo$12794bo761b2o
167b2o93bo$13556bobo262bo$13556bo570bobo$12931bobo1194b2o$12932b2o
1194bo$12932bo$13334bo$13335b2o$13334b2o$12805bo$12806b2o928bobo93b2o$
12805b2o665bo264b2o93bobo$13473b2o92b3o167bo94bo$13303b2o167b2o93bo
571bo$12943bo359bobo262bo571b2o$12944b2o357bo835b2o$12943b2o665bo$
13611b2o$13610b2o$13081bo$13082b2o$12816bobo262b2o665bo$12817b2o930b2o
92b3o$12817bo665bobo93b2o167b2o93bo$13484b2o93bobo262bo$13314b3o167bo
94bo570bobo$12954bobo357bo571bo264b2o$12955b2o358bo571b2o92b3o167bo$
12955bo665bobo262b2o93bo$13622b2o358bo$13622bo$13092bobo$12828bo264b2o
$12829b2o262bo761b2o$12828b2o665bo359bobo$13496b2o92b3o262bo$13326b2o
167b2o93bo$12966bo359bobo262bo$12967b2o357bo570bobo93b2o$12966b2o665bo
264b2o93bobo$13634b2o262bo94bo$13633b2o$13104bo$13105b2o$12839bobo262b
2o$12840b2o1024b3o$12840bo665bobo93b2o262bo$13507b2o93bobo262bo$13337b
3o167bo94bo$12977bobo357bo571bo$12978b2o358bo571b2o92b3o$12978bo665bob
o262b2o93bo$13645b2o358bo$13645bo$13115bobo$13116b2o$13116bo665bobo93b
2o$13783b2o93bobo$13783bo94bo$13253bobo$12989bo264b2o$12990b2o262bo
665bobo93b2o$12989b2o665bo264b2o93bobo$13657b2o262bo94bo$13656b2o$
13127bo$13128b2o928bobo93b2o$13127b2o665bo264b2o93bobo$13795b2o92b3o
167bo94bo$13794b2o93bo$13265bo624bo$13266b2o$13000bobo262b2o$13001b2o
1024b3o$13001bo665bobo93b2o262bo$13668b2o93bobo262bo$13668bo94bo$
13138bobo929bo$13139b2o930b2o92b3o$13139bo665bobo93b2o167b2o93bo$
13806b2o93bobo262bo$13806bo94bo$13276bobo$13012bo264b2o$13013b2o262bo$
13012b2o665bo$13680b2o92b3o$13414bobo262b2o93bo$13150bo264b2o358bo$
13151b2o92b3o167bo665bobo93b2o$13150b2o93bo571bo264b2o93bobo$13246bo
571b2o92b3o167bo94bo$13817b2o93bo$13288bo624bo$13289b2o$13023bobo262b
2o665bo$13024b2o930b2o$13024bo665bobo93b2o167b2o$13426bo264b2o93bobo$
13427b2o262bo94bo$13161bobo93b2o167b2o665bo$13162b2o93bobo834b2o92b3o$
13162bo94bo570bobo93b2o167b2o93bo$13829b2o93bobo262bo$13829bo94bo$
13299bobo929bo$13035bo264b2o930b2o$13036b2o262bo665bobo262b2o$13035b2o
665bo264b2o$13703b2o92b3o167bo$13437bobo262b2o93bo$13173bo264b2o358bo$
13174b2o92b3o167bo$13173b2o93bo571bo$13269bo571b2o92b3o$13840b2o93bo$
13311bo624bo$13312b2o928bobo$13311b2o665bo264b2o$13979b2o262bo$13978b
2o$13449bo$13450b2o$13184bobo93b2o167b2o$13185b2o93bobo$13185bo94bo
570bobo93b2o$13587bo264b2o93bobo$13588b2o262bo94bo$13322bobo262b2o665b
o$13323b2o930b2o$13323bo665bobo262b2o$13990b2o$13820b3o167bo$13460bobo
357bo$13196bo264b2o358bo$13197b2o262bo$13196b2o665bo$13864b2o92b3o$
13598bobo262b2o93bo$13334bo264b2o358bo$13335b2o262bo665bobo$13334b2o
665bo264b2o$14002b2o92b3o167bo$13832b2o167b2o93bo$13832bobo262bo$
13832bo$13207bobo$13208b2o$13208bo665bobo$13610bo264b2o$13611b2o92b3o
167bo$13345bobo262b2o93bo$13346b2o358bo$13346bo665bobo93b2o$14013b2o
93bobo$13843b3o167bo94bo$13843bo$13219bo624bo$13220b2o$13219b2o2$
13621bobo93b2o$13357bo264b2o93bobo$13358b2o262bo94bo$13188b2o167b2o
665bo$13188bobo834b2o92b3o$13188bo666b2o167b2o93bo$13855bobo262bo$
13855bo$14162bo$14163b2o92b3o$14162b2o93bo$14258bo$13728b3o$13368bobo
357bo$13369b2o358bo$13199b3o167bo665bobo93b2o$13199bo836b2o93bobo$
13200bo665b3o167bo94bo$13866bo$13867bo$14173bobo93b2o$14174b2o93bobo$
14174bo94bo$13740b2o$13380bo359bobo$13381b2o357bo$13211b2o167b2o665bo$
13211bobo834b2o$13211bo666b2o167b2o$13878bobo$13878bo$14185bo$14186b2o
92b3o$14016b2o167b2o93bo$14016bobo262bo$14016bo$13391bobo$13392b2o$
13222b3o167bo$13222bo$13223bo665b3o$13529bobo357bo$13530b2o358bo$
13530bo665bobo93b2o$14197b2o93bobo$14027b3o167bo94bo$14027bo$14028bo$
14334bobo$14335b2o$14335bo$13901b2o$13541bo359bobo$13542b2o357bo$
13541b2o2$14039b2o$14039bobo$13774b3o262bo$13774bo571bo$13775bo571b2o$
14346b2o3$13552bobo$13553b2o$13553bo2$14050b3o$13786b2o262bo$13786bobo
262bo$13786bo570bobo$14358b2o$14358bo2$13564bo$13565b2o$13564b2o2$
13130b3o929b2o$13130bo931bobo$13131bo665b3o262bo$13797bo571bo$13798bo
571b2o$14200b2o167b2o$14200bobo$14200bo$13575bobo$13576b2o$13576bo$
13142b2o$13142bobo928b3o$13142bo570bobo93b2o262bo$13714b2o93bobo262bo$
13714bo94bo2$14211b3o$14211bo$14212bo4$13153b3o929b2o$13153bo571bo359b
obo$13154bo571b2o92b3o262bo$13725b2o93bo$13821bo$14223b2o$14223bobo$
13958b3o262bo$13958bo$13959bo2$13165b2o$13165bobo928b3o$13165bo570bobo
357bo$13737b2o358bo$13737bo2$14234b3o$13874bobo93b2o262bo$13875b2o93bo
bo262bo$13875bo94bo2$14372b3o$14108b2o262bo$13748bo359bobo262bo$13749b
2o357bo$13748b2o2$14246b2o$13886bo359bobo$13887b2o92b3o262bo$13886b2o
93bo$13982bo$14384b2o$14384bobo$14384bo6$13897bobo93b2o$13898b2o93bobo
$13898bo94bo2$14395b3o$14035bobo357bo$14036b2o358bo$14036bo3$14173bobo
$13073b2o834bo264b2o$13073bobo834b2o92b3o167bo$13073bo835b2o93bo$
14005bo2$14047bo$14048b2o$14047b2o3$14185bo$14186b2o$13084b3o833bobo
93b2o167b2o$13084bo836b2o93bobo$13085bo835bo94bo$14323bo$14324b2o$
14058bobo93b2o167b2o$14059b2o93bobo$14059bo94bo3$14196bobo93b2o$13096b
2o1099b2o93bobo$13096bobo928b3o167bo94bo$13096bo930bo$14028bo$14334bob
o$14070bo264b2o$14071b2o92b3o167bo$13901b2o167b2o93bo$13901bobo262bo$
13901bo570bobo$14208bo264b2o$14209b2o92b3o167bo$13107b3o929b2o167b2o
93bo$13107bo931bobo262bo$13108bo930bo$14346bo$14347b2o$14081bobo93b2o
167b2o$14082b2o93bobo$13912b3o167bo94bo$13912bo571bo$13913bo571b2o$
14219bobo93b2o167b2o$14220b2o93bobo$14050b3o167bo94bo$14050bo$14051bo$
14357bobo$14093bo264b2o$14094b2o92b3o167bo$13924b2o167b2o93bo$13924bob
o262bo$13924bo570bobo$14231bo264b2o$14232b2o92b3o167bo$14231b2o93bo$
14327bo2$14369bo$14370b2o$14200b2o167b2o$14200bobo$13935b3o262bo$
13935bo571bo$13936bo571b2o$14242bobo93b2o167b2o$14243b2o93bobo$14243bo
94bo3$14380bobo$14381b2o$14211b3o167bo$13947b2o262bo$13947bobo262bo$
13947bo570bobo$14254bo264b2o$14255b2o262bo$14254b2o3$14392bo$14393b2o$
14223b2o167b2o$14223bobo$13958b3o262bo$13958bo571bo$13959bo571b2o$
14530b2o5$14403bobo$14404b2o$14234b3o167bo$13970b2o262bo$13970bobo262b
o$13970bo570bobo$14542b2o$14542bo$14108b2o$14108bobo$14108bo$14415bo$
14416b2o$14246b2o167b2o$14246bobo$13981b3o262bo$13981bo571bo$13982bo
571b2o$14553b2o2$14119b3o$14119bo$14120bo$14426bobo$14427b2o$14257b3o
167bo$13993b2o262bo$13993bobo262bo$13993bo570bobo$14565b2o$14565bo$
14131b2o$14131bobo$13866b3o262bo$13866bo$13242bo624bo$13243b2o1024b2o$
13242b2o1025bobo$14269bo$14576bo$14577b2o$14576b2o2$14142b3o$13878b2o
262bo$13878bobo262bo$13878bo$13253bobo$13254b2o$13254bo2$14587bobo$
14588b2o$14588bo$14154b2o$14154bobo$13889b3o262bo$13889bo$13265bo624bo
$13266b2o$13265b2o6$14165b3o$13901b2o262bo$13901bobo262bo$13901bo$
13276bobo$13277b2o$13277bo3$13414bobo$13415b2o$13415bo761b2o$14177bobo
$14177bo7$13426bo$13427b2o$13426b2o$14188b3o$14188bo$14189bo7$13437bob
o$13438b2o$13438bo761b2o$14200bobo$14200bo5$14073b3o$13809b2o262bo$
13449bo359bobo262bo$13450b2o357bo$13449b2o665bo$14117b2o$14116b2o$
13587bo$13588b2o$13587b2o2$14085b2o$14085bobo$13820b3o262bo$13820bo$
13821bo$14127bobo$14128b2o$14128bo$13598bobo$13334bo264b2o$13335b2o
262bo665bobo$13334b2o930b2o$14096b3o167bo$13832b2o262bo$13832bobo262bo
$13832bo$14139bo$14140b2o$14139b2o$13610bo$13611b2o$13345bobo262b2o
665bo$13346b2o930b2o$13346bo761b2o167b2o$14108bobo$13843b3o262bo$
13843bo$13844bo$14150bobo$14151b2o$14151bo$13621bobo$13357bo264b2o$
13358b2o262bo665bobo$13357b2o930b2o$14119b3o167bo$13759bobo357bo$
13760b2o358bo$13760bo665bobo$14162bo264b2o$14163b2o262bo$14162b2o3$
13368bobo929bo$13369b2o930b2o$13369bo930b2o$13771bo$13772b2o$13506bobo
262b2o665bo$13507b2o930b2o$13507bo665bobo262b2o$14174b2o$14174bo3$
14311bobo$14312b2o$14312bo$13782bobo$13518bo264b2o$13519b2o262bo665bob
o$13518b2o930b2o$14450bo3$13751b3o833bobo$13751bo571bo264b2o$13752bo
571b2o262bo$14323b2o$13794bo$13795b2o$13529bobo262b2o665bo$13530b2o
930b2o$13530bo930b2o$13932bo$13933b2o$13763b2o167b2o665bo$13763bobo
834b2o$13763bo570bobo262b2o$14335b2o$14335bo2$13541bo$13542b2o928bobo$
13541b2o930b2o$14473bo$13943bobo$13679bo264b2o$13680b2o92b3o167bo665bo
bo$13679b2o93bo571bo264b2o$13775bo571b2o262bo$14346b2o3$14484bo$14485b
2o$14484b2o$13955bo$13956b2o$13690bobo93b2o167b2o665bo$13691b2o93bobo
834b2o$13691bo94bo570bobo262b2o$14358b2o$14358bo$14760bo$14761b2o$
14495bobo262b2o$14496b2o$14496bo$13966bobo$13702bo264b2o$13703b2o262bo
665bobo$13702b2o665bo264b2o$14370b2o262bo$14104bobo262b2o$14105b2o$
14105bo665bobo$14507bo264b2o$14508b2o262bo$14507b2o3$13713bobo$13714b
2o$13714bo$14116bo$14117b2o$13851bobo262b2o665bo$13852b2o930b2o$13852b
o665bobo262b2o$14519b2o$14519bo6$14127bobo$13863bo264b2o$13864b2o262bo
665bobo$13863b2o665bo264b2o$14531b2o262bo$14530b2o6$14139bo$14140b2o$
13874bobo262b2o$13875b2o$13705b3o167bo665bobo$13705bo571bo264b2o$
13706bo571b2o262bo$14277b2o2$14775b2o$14775bobo$14775bo2$13886bo$
13887b2o$13717b2o167b2o665bo$13717bobo834b2o$13717bo570bobo262b2o$
14024bo264b2o$14025b2o262bo$14024b2o665bo$14692b2o92b3o$14691b2o93bo$
14787bo4$13728b3o$13728bo571bo$13729bo571b2o$14035bobo262b2o$14036b2o$
14036bo665bobo93b2o$14703b2o93bobo$14703bo94bo6$14311bobo$14047bo264b
2o$14048b2o262bo$14047b2o665bo$14715b2o92b3o$14449bobo262b2o93bo$
14450b2o358bo$14450bo6$14058bobo$14059b2o$14059bo665bobo$14461bo264b2o
$14462b2o262bo$14196bobo262b2o$14197b2o$14197bo6$14737bo$14738b2o$
14472bobo262b2o$14208bo264b2o$14209b2o262bo$14208b2o665bo$14876b2o$
14875b2o6$14484bo$14485b2o$14219bobo262b2o$14220b2o$14220bo665bobo$
14622bo264b2o$14623b2o92b3o167bo$14622b2o93bo$14718bo5$14231bo$14232b
2o$14231b2o665bo$14899b2o$14633bobo93b2o167b2o$14369bo264b2o93bobo$
14370b2o262bo94bo$14369b2o3$13671b2o$13671bobo$13671bo2$14909bobo$
14645bo264b2o$14646b2o92b3o167bo$14380bobo262b2o93bo$14381b2o358bo$
14381bo8$14656bobo93b2o$14392bo264b2o93bobo$14393b2o262bo94bo$14392b2o
2$14794bobo$14795b2o$14795bo6$14403bobo$14404b2o$14404bo$14806bo$
14807b2o92b3o$14541bobo262b2o93bo$14542b2o358bo$14542bo8$14817bobo93b
2o$13621bobo929bo264b2o93bobo$13622b2o930b2o262bo94bo$13622bo930b2o8$
14829bo$13633bo1196b2o92b3o$13634b2o928bobo93b2o167b2o93bo$13633b2o
930b2o93bobo262bo$14565bo94bo$14967bo$14968b2o$14967b2o5$14936b2o$
13644bobo929bo359bobo$13645b2o930b2o92b3o262bo$13645bo930b2o93bo$
14672bo$14978bobo$14714bo264b2o$14715b2o262bo$14714b2o4$13656bo1290b3o
$13657b2o1024b2o262bo$13656b2o1025bobo262bo$14683bo$14990bo$13794bo
1196b2o$13795b2o928bobo262b2o$13794b2o930b2o$14726bo3$14959b2o$14959bo
bo$14694b3o262bo$14694bo$14695bo$15001bobo$13805bobo929bo264b2o$13806b
2o930b2o262bo$13806bo930b2o4$14970b3o$14970bo$14971bo3$13817bo$13818b
2o928bobo$13817b2o930b2o$14749bo3$14886bobo93b2o$14887b2o93bobo$14887b
o94bo4$13828bobo$13829b2o$13829bo3$13966bobo929bo$13967b2o930b2o92b3o$
13967bo930b2o93bo$14994bo5$14507bo$14508b2o92b3o$14507b2o93bo$13978bo
624bo$13979b2o928bobo$13978b2o930b2o$14910bo6$14518bobo93b2o$14519b2o
93bobo$14519bo94bo$13989bobo929bo$13990b2o930b2o$13990bo665bobo262b2o$
14657b2o$14657bo$15059bo$15060b2o$15059b2o$14530bo$14531b2o92b3o$
14530b2o93bo$14001bo624bo$14002b2o$14001b2o665bo$14669b2o$14668b2o$
14139bo$14140b2o928bobo$14139b2o930b2o$15071bo$14541bobo93b2o$14542b2o
93bobo$14542bo94bo3$14679bobo$14680b2o$14680bo$14150bobo929bo$14151b2o
930b2o$14151bo665bobo262b2o$14553bo264b2o$14554b2o92b3o167bo$14553b2o
93bo$14649bo$15051b2o$14691bo359bobo$14692b2o357bo$14691b2o$14162bo$
14163b2o928bobo$14162b2o665bo264b2o$14830b2o262bo$14829b2o4$15062b3o$
14702bobo357bo$14703b2o358bo$14703bo$14173bobo$14174b2o$14174bo665bobo
$14841b2o$14841bo$14311bobo$14312b2o$14312bo665bobo93b2o$14714bo264b2o
93bobo$14715b2o262bo94bo$14714b2o3$14852bo$14853b2o$14852b2o$14323bo$
14324b2o$14323b2o665bo$14991b2o92b3o$14725bobo262b2o93bo$14726b2o358bo
$14556b3o167bo$14556bo$14557bo$14863bobo$14864b2o$14864bo$14334bobo$
14335b2o$14335bo665bobo$14737bo264b2o$14738b2o262bo$14568b2o167b2o$
14568bobo$14568bo$14875bo$14876b2o$14875b2o$14346bo$14347b2o$14346b2o
665bo$15014b2o$14748bobo262b2o$14484bo264b2o$14485b2o92b3o167bo$14484b
2o93bo571bo$14580bo571b2o$14886bobo262b2o$14887b2o$14887bo3$15024bobo$
15025b2o$15025bo$14495bobo93b2o$14496b2o93bobo$14496bo94bo570bobo$
14898bo264b2o$14899b2o92b3o167bo$14898b2o93bo$14994bo5$14507bo$14508b
2o$14507b2o665bo$15175b2o$14909bobo93b2o167b2o$14910b2o93bobo$14910bo
94bo3$15143b2o$15143bobo$15143bo$14518bobo$14519b2o$14519bo$14921bo$
14922b2o92b3o$14656bobo262b2o93bo$14657b2o358bo$14657bo2$15154b3o$
15154bo$15155bo4$14932bobo93b2o$14668bo264b2o93bobo$14669b2o262bo94bo$
14499b2o167b2o$14499bobo$14499bo570bobo93b2o$15071b2o93bobo$15071bo94b
o6$14679bobo$14680b2o$14510b3o167bo$14510bo571bo$14511bo571b2o92b3o$
15082b2o93bo$15178bo5$14691bo$14692b2o$14522b2o167b2o$14522bobo$14522b
o570bobo$14829bo264b2o$14830b2o262bo$14829b2o5$14798b2o$14798bobo$
14533b3o262bo$14533bo571bo$14534bo571b2o$14840bobo93b2o167b2o$14841b2o
93bobo$14841bo94bo5$14809b3o$14545b2o262bo$14545bobo262bo$14545bo570bo
bo$14852bo264b2o$14853b2o92b3o167bo$14852b2o93bo$14948bo$15254bobo$
15255b2o$15085b3o167bo$14725bobo357bo$14726b2o358bo$14726bo3$14863bobo
93b2o$14864b2o93bobo$14864bo94bo$15266bo$15267b2o$15001bobo93b2o167b2o
$14737bo264b2o93bobo$14738b2o262bo94bo$14737b2o4$14970b3o$14970bo$
14971bo$15277bobo$15013bo264b2o$15014b2o92b3o167bo$14748bobo262b2o93bo
$14749b2o358bo$14749bo3$14886bobo$14887b2o$14887bo$14453b2o834bo$
14453bobo834b2o$14453bo570bobo93b2o167b2o$14760bo264b2o93bobo$14761b2o
262bo94bo$14760b2o2$15258b2o$14898bo359bobo$14899b2o357bo$14729b2o167b
2o$14729bobo$14464b3o262bo$14464bo571bo$14465bo571b2o92b3o$14771bobo
262b2o93bo$14772b2o358bo$14772bo$15174bo$15175b2o92b3o$14909bobo262b2o
93bo$14910b2o358bo$14740b3o167bo$14476b2o262bo$14476bobo262bo$14476bo
570bobo$15048b2o$14878b3o167bo$14878bo$14879bo$15185bobo93b2o$14921bo
264b2o93bobo$14922b2o262bo94bo$14752b2o167b2o$14752bobo$14487b3o262bo$
14487bo571bo$14488bo571b2o$14890b2o167b2o$14890bobo$14890bo$15197bo$
15198b2o92b3o$14932bobo262b2o93bo$14933b2o358bo$14763b3o167bo$14499b2o
262bo$14499bobo262bo$14499bo570bobo$15071b2o$14901b3o167bo$14901bo$
14902bo$15208bobo$14944bo264b2o$14945b2o92b3o167bo$14944b2o93bo$15040b
o$14510b3o833bobo$14510bo571bo264b2o$14511bo571b2o262bo$14913b2o167b2o
$14913bobo$14913bo$15220bo$15221b2o$14955bobo93b2o167b2o$14956b2o93bob
o$14956bo94bo$15358bo$15359b2o$15093bobo93b2o167b2o$15094b2o93bobo$
15094bo94bo$14660b2o$14660bobo$14395b3o262bo570bobo$14395bo571bo264b2o
$14396bo571b2o92b3o167bo$14967b2o93bo$15063bo$15369bobo$15105bo264b2o$
15106b2o92b3o167bo$15105b2o93bo$15201bo$14671b3o$14407b2o262bo$14407bo
bo262bo$14407bo666b2o$15074bobo$15074bo$15381bo$15382b2o$15116bobo93b
2o167b2o$15117b2o93bobo$15117bo94bo$14683b2o$14683bobo$14418b3o262bo
666b2o$14418bo931bobo$14419bo665b3o262bo$14821b2o262bo$14821bobo262bo$
14821bo570bobo$15128bo264b2o$15129b2o92b3o167bo$15128b2o93bo$15224bo$
14694b3o$14430b2o262bo$14430bobo262bo665b3o$14430bo666b2o262bo$15097bo
bo262bo$14832b3o262bo$14832bo$14833bo$15139bobo93b2o$15140b2o93bobo$
15140bo94bo$14706b2o$14706bobo$14441b3o262bo570bobo93b2o$14441bo836b2o
93bobo$14442bo665b3o167bo94bo$14844b2o262bo$14844bobo262bo$14844bo6$
14453b2o834bo$14453bobo834b2o92b3o$14453bo666b2o167b2o93bo$15120bobo
262bo$14855b3o262bo$14591b2o262bo$14591bobo262bo$14591bo2$14993b3o$
14993bo$14994bo$14464b3o833bobo93b2o$14464bo836b2o93bobo$14465bo665b3o
167bo94bo$15131bo$15132bo$14602b3o$14602bo$14603bo$15005b2o$15005bobo$
15005bo$14476b2o834bo$14476bobo834b2o$14476bo666b2o167b2o$15143bobo$
15143bo$14614b2o$14614bobo$14349b3o262bo$14349bo$14350bo665b3o$15016bo
$15017bo$14487b3o833bobo$14487bo836b2o$14488bo665b3o167bo$15154bo$
15155bo$14625b3o833bobo$14361b2o262bo836b2o$14361bobo262bo665b3o167bo$
14361bo666b2o262bo$15028bobo262bo$15028bo$14499b2o$14499bobo$14499bo
666b2o$15166bobo$15166bo$14637b2o834bo$14637bobo834b2o$14372b3o262bo
666b2o167b2o$14372bo931bobo$14373bo665b3o262bo$15039bo$15040bo$14510b
3o$14510bo$14511bo3$15484bobo$14384b2o1099b2o$14384bobo928b3o167bo$
14384bo666b2o262bo$15051bobo262bo$15051bo$14522b2o$14522bobo$14522bo3$
15496bo$14300bo1196b2o$14301b2o92b3o929b2o167b2o$14300b2o93bo931bobo$
14396bo665b3o262bo$15062bo$15063bo$14533b3o$14533bo$14534bo3$15507bobo
$14407b2o1099b2o$14407bobo928b3o167bo$14407bo666b2o262bo$15074bobo262b
o$15074bo$14545b2o$14545bobo$14545bo5$14418b3o$14418bo$14419bo665b3o$
15085bo$15086bo$14556b3o929b2o$14556bo931bobo$14557bo930bo$14959b2o$
14959bobo$14959bo$14430b2o$14430bobo$14430bo570bobo93b2o$15002b2o93bob
o$15002bo94bo$14472bobo93b2o$14473b2o93bobo928b3o$14473bo94bo666b2o
262bo$15235bobo262bo$14970b3o262bo$14970bo$14971bo$14441b3o$14441bo
571bo$14442bo571b2o$15013b2o$14484bo$14485b2o92b3o929b2o$14315b2o167b
2o93bo571bo359bobo$14315bobo262bo571b2o92b3o262bo$14315bo666b2o167b2o
93bo$14982bobo262bo$14982bo$14453b2o$14453bobo$14453bo570bobo$15025b2o
$15025bo$14495bobo$14496b2o1024b3o$14326b3o167bo665bobo93b2o262bo$
14326bo836b2o93bobo262bo$14327bo665b3o167bo94bo$14993bo$14994bo$14464b
3o$14464bo571bo$14465bo571b2o$15036b2o2$15534b2o$14338b2o834bo359bobo$
14338bobo834b2o92b3o262bo$14338bo666b2o167b2o93bo$14645bo359bobo262bo$
14646b2o357bo$14476b2o167b2o665bo$14476bobo834b2o$14476bo570bobo262b2o
$15048b2o$15048bo3$14349b3o833bobo93b2o$14349bo836b2o93bobo$14350bo
665b3o167bo94bo$14656bobo357bo$14657b2o358bo$14487b3o167bo665bobo$
14487bo836b2o$14488bo835bo4$14361b2o834bo$14361bobo834b2o92b3o$14361bo
835b2o93bo$14668bo624bo$14669b2o$14499b2o167b2o665bo$14499bobo834b2o
92b3o$14499bo835b2o93bo$15431bo2$15473bo$15474b2o$14372b3o833bobo93b2o
167b2o$14372bo836b2o93bobo$14373bo835bo94bo$14679bobo$14680b2o$14510b
3o167bo665bobo93b2o$14510bo836b2o93bobo$14511bo665b3o167bo94bo$14817bo
bo357bo$14818b2o358bo$14818bo665bobo$14384b2o834bo264b2o$14384bobo834b
2o92b3o167bo$14384bo835b2o93bo$15316bo2$15358bo$15359b2o92b3o$15189b2o
167b2o93bo$14829bo359bobo262bo$14830b2o357bo$14829b2o665bo$15497b2o$
14395b3o833bobo93b2o167b2o$14395bo836b2o93bobo$14396bo835bo94bo3$
15369bobo93b2o$15370b2o93bobo$15200b3o167bo94bo$14840bobo357bo$14841b
2o358bo$14841bo665bobo93b2o$14407b2o834bo264b2o93bobo$14407bobo834b2o
262bo94bo$14407bo835b2o2$15645bobo$15381bo264b2o$15382b2o92b3o167bo$
14280b3o929b2o167b2o93bo$14280bo571bo359bobo262bo$14281bo571b2o357bo$
14852b2o665bo$15520b2o92b3o$14418b3o1098b2o93bo$14418bo571bo624bo$
14419bo571b2o$14990b2o665bo$15658b2o$15392bobo93b2o167b2o$14292b2o834b
o264b2o93bobo$14292bobo834b2o92b3o167bo94bo$14292bo835b2o93bo$15224bo$
15626b2o$14430b2o1194bobo$14430bobo1193bo$14430bo570bobo$15002b2o$
15002bo665bobo$15404bo264b2o$15405b2o262bo$14303b3o833bobo93b2o167b2o$
14303bo836b2o93bobo$14304bo835bo94bo2$15637b3o$14441b3o929b2o262bo$
14441bo571bo359bobo262bo$14442bo571b2o357bo$15013b2o2$15415bobo$14315b
2o834bo264b2o$14315bobo834b2o92b3o167bo$14315bo835b2o93bo$15247bo3$
15384b3o$15024bobo93b2o262bo$15025b2o93bobo262bo$15025bo94bo$14591b2o
834bo$14591bobo834b2o$14326b3o262bo570bobo93b2o167b2o$14326bo836b2o93b
obo$14327bo835bo94bo$15565bo$15566b2o$15300bobo93b2o167b2o$15301b2o93b
obo$15131b3o167bo94bo$15131bo$15132bo$14602b3o929b2o$14338b2o262bo571b
o359bobo$14338bobo262bo571b2o92b3o262bo$14338bo835b2o93bo$15270bo$
15576bobo$15312bo264b2o$15313b2o92b3o167bo$15143b2o167b2o93bo$15143bob
o262bo$15143bo$14614b2o$14614bobo928b3o$14349b3o262bo570bobo357bo$
14349bo836b2o358bo$14350bo835bo$15588bo$15589b2o$15323bobo93b2o167b2o$
15324b2o93bobo$15154b3o167bo94bo$15154bo$15155bo$14625b3o929b2o$14625b
o571bo359bobo$14626bo571b2o357bo$15197b2o2$15599bobo$15335bo264b2o$
15336b2o92b3o167bo$15335b2o93bo$15431bo2$15473bo$15474b2o92b3o$15208bo
bo262b2o93bo$15209b2o358bo$15209bo$15611bo$15612b2o92b3o$15346bobo93b
2o167b2o93bo$15347b2o93bobo262bo$15177b3o167bo94bo$15177bo571bo$15178b
o571b2o$15484bobo93b2o167b2o$15220bo264b2o93bobo$15221b2o92b3o167bo94b
o$15220b2o93bo$15316bo$15718b2o$15358bo359bobo$15359b2o92b3o262bo$
15189b2o167b2o93bo$15189bobo262bo$15189bo570bobo$15496bo264b2o$15497b
2o262bo$15327b2o167b2o$15327bobo$15327bo3$14533b3o833bobo93b2o$14533bo
836b2o93bobo$14534bo665b3o167bo94bo$15200bo571bo$15201bo571b2o$15507bo
bo262b2o$15508b2o$15338b3o167bo$15338bo$15339bo2$14545b2o834bo$14545bo
bo834b2o92b3o$14545bo666b2o167b2o93bo$15212bobo262bo$15212bo570bobo$
15519bo264b2o$15520b2o262bo$15350b2o167b2o$15350bobo$15350bo3$14556b3o
833bobo93b2o$14556bo836b2o93bobo$14557bo665b3o167bo94bo$15223bo$15224b
o$15530bobo$15531b2o$15531bo4$14568b2o$14568bobo928b3o$14568bo930bo$
15500bo2$15542bo$15543b2o92b3o$15373b2o167b2o93bo$15373bobo262bo$
15373bo$15680bo$15681b2o$15511b2o167b2o$15511bobo$15511bo3$15553bobo
93b2o$15554b2o93bobo$15384b3o167bo94bo$15384bo$15385bo$15691bobo$
15692b2o$15692bo$15258b2o$15258bobo$15258bo$15565bo$15566b2o92b3o$
15300bobo93b2o167b2o93bo$15301b2o93bobo262bo$15301bo94bo$15703bo$
15704b2o92b3o$15703b2o93bo$15799bo$15269b3o$15269bo$15270bo$15672b2o$
14476b2o834bo359bobo$14476bobo834b2o92b3o262bo$14476bo835b2o93bo$
15408bo$15714bobo93b2o$15450bo264b2o93bobo$15451b2o262bo94bo$15281b2o
167b2o$15281bobo$15281bo570bobo$15853b2o$15853bo$14487b3o833bobo93b2o$
14487bo836b2o93bobo$14488bo835bo94bo2$15821b3o$15461bobo357bo$15462b2o
358bo$15292b3o167bo$15292bo571bo$15293bo571b2o$15864b2o$14499b2o834bo$
14499bobo834b2o92b3o$14499bo835b2o93bo$15431bo$15833b2o$15473bo359bobo
$15474b2o357bo$15473b2o2$15875bobo$15876b2o$15876bo$14510b3o833bobo93b
2o$14510bo836b2o93bobo$14511bo835bo94bo3$15484bobo$15485b2o$15485bo
412b2o$15887bo10b2o$15888b2o$15622bobo262b2o$15358bo264b2o$15359b2o92b
3o167bo$15358b2o93bo$15454bo2$15496bo$15497b2o92b3o$15327b2o167b2o93bo
$15327bobo262bo$15327bo571bo5bo$15634bo263b3o3b3o$15635b2o92b3o165bo3b
obo3bo$15369bobo262b2o93bo167bo9bo$15370b2o358bo167b3o3b3o$15370bo412b
2o$15783b2o2$15507bobo93b2o$15508b2o93bobo294b2ob2o$15338b3o167bo94bo
297bobo$15338bo558b2ob2ob2ob2o$15339bo558bobo3bo2bo$15645bobo93b2o156b
o7bo$15646b2o93bobo160bo2bo$15646bo94bo163b2o3$15778bo5bo5bo80b3o$
15519bo256b2o5b3o3b3o77b2obob2o8b3o$15520b2o92b3o160b2o3bo3bobo3bo76b
2o5bo5bo3bo$15350b2o167b2o93bo167bo9bo76b2obob2o5bo4bo$15350bobo262bo
167b3o3b3o79b3o7bo3bo$15350bo317b2o$15657bo10b2o211bo3bo$15658b2o92b3o
126bo4bo$15657b2o93bo115b2o12bo3bo8b2o$15753bo31b2ob2o78b2o14b3o8b2o$
15786bobo$15782b2ob2ob2ob2o$15765bobo15bobo3bo2bo$15530bobo93b2o137b2o
17bo7bo$15531b2o93bobo137bo22bo2bo$15361b3o167bo94bo163b2o$15361bo$
15362bo$15663bo5bo5bo80b3o$15661b2o5b3o3b3o77b2obob2o8b3o$15662b2o3bo
3bobo3bo76b2o5bo5bo3bo$15667bo9bo76b2obob2o5bo4bo$15668b3o3b3o79b3o7bo
3bo$15553b2o$15542bo10b2o211bo3bo$15543b2o92b3o126bo4bo$15373b2o167b2o
93bo115b2o12bo3bo8b2o$15373bobo262bo31b2ob2o78b2o14b3o8b2o$15373bo297b
obo$15667b2ob2ob2ob2o$15650bobo15bobo3bo2bo$15650b2o17bo7bo$15651bo22b
o2bo$15675b2o3$15548bo5bo5bo80b3o$15546b2o5b3o3b3o77b2obob2o8b3o$
15547b2o3bo3bobo3bo76b2o5bo5bo3bo$15552bo9bo76b2obob2o5bo4bo$15553b3o
3b3o79b3o7bo3bo$15438b2o$15438b2o211bo3bo$15651bo4bo$15638b2o12bo3bo8b
2o$15555b2ob2o78b2o14b3o8b2o$15556bobo$15552b2ob2ob2ob2o$15553bobo3bo
2bo$15554bo7bo$15559bo2bo$15560b2o3$15439bo5bo80b3o$15438b3o3b3o77b2ob
ob2o8b3o$15437bo3bobo3bo76b2o5bo5bo3bo$15437bo9bo76b2obob2o5bo4bo$
15438b3o3b3o79b3o7bo3bo$15323b2o$15323b2o211bo3bo$15536bo4bo$15523b2o
12bo3bo8b2o$15440b2ob2o78b2o14b3o8b2o$15441bobo$15437b2ob2ob2ob2o$
15438bobo3bo2bo$15439bo7bo$15444bo2bo$15445b2o3$15324bo5bo80b3o$15323b
3o3b3o77b2obob2o8b3o$15322bo3bobo3bo76b2o5bo5bo3bo$15322bo9bo76b2obob
2o5bo4bo$15323b3o3b3o79b3o7bo3bo$15208b2o$15208b2o211bo3bo$15421bo4bo$
15408b2o12bo3bo8b2o$15325b2ob2o78b2o14b3o8b2o$15326bobo$15322b2ob2ob2o
b2o$15323bobo3bo2bo$15324bo7bo$15329bo2bo$15330b2o3$15209bo5bo80b3o$
15208b3o3b3o77b2obob2o8b3o$15207bo3bobo3bo76b2o5bo5bo3bo$15207bo9bo76b
2obob2o5bo4bo$15208b3o3b3o79b3o7bo3bo$15093b2o$15093b2o211bo3bo$15306b
o4bo$15293b2o12bo3bo8b2o$15210b2ob2o78b2o14b3o8b2o$15211bobo$15207b2ob
2ob2ob2o$15208bobo3bo2bo$15209bo7bo$15214bo2bo$15215b2o3$15094bo5bo80b
3o$15093b3o3b3o77b2obob2o8b3o$15092bo3bobo3bo76b2o5bo5bo3bo$15092bo9bo
76b2obob2o5bo4bo$15093b3o3b3o79b3o7bo3bo$14978b2o$14978b2o211bo3bo$
15191bo4bo$15178b2o12bo3bo8b2o$15095b2ob2o78b2o14b3o8b2o$15096bobo$
15092b2ob2ob2ob2o$15093bobo3bo2bo$15094bo7bo$15099bo2bo$15100b2o3$
14979bo5bo80b3o$14978b3o3b3o77b2obob2o8b3o$14977bo3bobo3bo76b2o5bo5bo
3bo$14977bo9bo76b2obob2o5bo4bo$14978b3o3b3o79b3o7bo3bo$14863b2o$14863b
2o211bo3bo$15076bo4bo$15063b2o12bo3bo8b2o$14980b2ob2o78b2o14b3o8b2o$
14981bobo$14977b2ob2ob2ob2o$14978bobo3bo2bo$14979bo7bo$14984bo2bo$
14985b2o3$14864bo5bo80b3o$14863b3o3b3o77b2obob2o8b3o$14862bo3bobo3bo
76b2o5bo5bo3bo$14862bo9bo76b2obob2o5bo4bo$14863b3o3b3o79b3o7bo3bo$
14748b2o$14748b2o211bo3bo$14961bo4bo$14948b2o12bo3bo8b2o$14865b2ob2o
78b2o14b3o8b2o$14866bobo$14862b2ob2ob2ob2o$14863bobo3bo2bo$14864bo7bo$
14869bo2bo$14870b2o3$14749bo5bo80b3o$14748b3o3b3o77b2obob2o8b3o$14747b
o3bobo3bo76b2o5bo5bo3bo$14747bo9bo76b2obob2o5bo4bo$14748b3o3b3o79b3o7b
o3bo$14633b2o$14633b2o211bo3bo$14846bo4bo$14833b2o12bo3bo8b2o$14750b2o
b2o78b2o14b3o8b2o$14751bobo$14747b2ob2ob2ob2o$14748bobo3bo2bo$14749bo
7bo$14754bo2bo$14755b2o3$14634bo5bo80b3o$14633b3o3b3o77b2obob2o8b3o$
14632bo3bobo3bo76b2o5bo5bo3bo$14632bo9bo76b2obob2o5bo4bo$14633b3o3b3o
79b3o7bo3bo$14518b2o$14518b2o211bo3bo$14731bo4bo$14718b2o12bo3bo8b2o$
14635b2ob2o78b2o14b3o8b2o$14636bobo$14632b2ob2ob2ob2o$14633bobo3bo2bo$
14634bo7bo$14639bo2bo$14640b2o3$14519bo5bo80b3o$14518b3o3b3o77b2obob2o
8b3o$14517bo3bobo3bo76b2o5bo5bo3bo$14517bo9bo76b2obob2o5bo4bo$14518b3o
3b3o79b3o7bo3bo2$14616bo3bo$14616bo4bo$14603b2o12bo3bo8b2o$14520b2ob2o
78b2o14b3o8b2o$14521bobo$14517b2ob2ob2ob2o$14518bobo3bo2bo$14519bo7bo$
14524bo2bo$14525b2o3$14491b3o$14489b2obob2o8b3o$14489b2o5bo5bo3bo$
14489b2obob2o5bo4bo$14491b3o7bo3bo2$14501bo3bo$14501bo4bo$14488b2o12bo
3bo8b2o$14488b2o14b3o8b2o!
